; generated by Slic3r 1.1.7 on 2015-04-08 at 15:21:55

; perimeters extrusion width = 0.30mm
; infill extrusion width = 0.73mm
; solid infill extrusion width = 0.51mm
; top infill extrusion width = 0.51mm

G21 ; set units to millimeters
M107
M190 S60 ; wait for bed temperature to be reached
M104 S185 ; set temperature
G28 ; home all axes
G1 Z5 F5000 ; lift nozzle

M109 S185 ; wait for temperature to be reached
G90 ; use absolute coordinates
G92 E0
M82 ; use absolute distances for extrusion
G1 F1800.000 E-1.00000
G92 E0
G1 Z0.300 F6000.000
G1 X70.004 Y70.787 F6000.000
G1 E1.00000 F1800.000
G1 X71.753 Y69.328 E1.16125 F807.860
G1 X75.000 Y68.464 E1.39908
G1 X85.000 Y68.464 E2.10701
G1 X87.243 Y68.861 E2.26826
G1 X89.213 Y70.004 E2.42952 F807.860
G1 X90.672 Y71.753 E2.59077
G1 X91.536 Y75.000 E2.82860
G1 X91.536 Y85.000 E3.53653
G1 X91.139 Y87.243 E3.69778
G1 X89.996 Y89.213 E3.85903
G1 X88.247 Y90.672 E4.02029
G1 X85.000 Y91.536 E4.25811
G1 X75.000 Y91.536 E4.96604
G1 X72.757 Y91.139 E5.12730
G1 X70.787 Y89.996 E5.28855
G1 X69.328 Y88.247 E5.44980
G1 X68.464 Y85.000 E5.68763
G1 X68.464 Y75.000 E6.39556
G1 X68.861 Y72.757 E6.55681
G1 X69.981 Y70.825 E6.71488
G1 F1800.000 E5.71488
G92 E0
G1 X83.629 Y83.629 F6000.000
G1 E1.00000 F1800.000
G1 X76.371 Y83.629 E1.51378 F600.000
G1 X76.371 Y76.371 E2.02756
G1 X83.629 Y76.371 E2.54134
G1 X83.629 Y83.584 E3.05194
G1 X84.164 Y84.164 F6000.000
G1 X75.836 Y84.164 E3.64156 F600.000
G1 X75.836 Y75.836 E4.23117
G1 X84.164 Y75.836 E4.82079
G1 X84.164 Y84.119 E5.40722
G1 X84.700 Y84.700 F6000.000
G1 X75.300 Y84.700 E6.07268 F600.000
G1 X75.300 Y75.300 E6.73813
G1 X84.700 Y75.300 E7.40358
G1 X84.700 Y84.655 E8.06585
G1 X84.440 Y84.550 F6000.000
G1 X76.740 Y83.220 F6000.000
G1 X76.780 Y83.260 E8.06986 F807.860
G1 X77.542 Y83.260 E8.12383
G1 X76.740 Y82.458 E8.20417
G1 X76.740 Y81.696 E8.25815
G1 X78.304 Y83.260 E8.41482
G1 X79.067 Y83.260 E8.46880
G1 X76.740 Y80.933 E8.70181
G1 X76.740 Y80.171 E8.75579
G1 X79.829 Y83.260 E9.06513
G1 X80.592 Y83.260 E9.11911
G1 X76.740 Y79.408 E9.50478
G1 X76.740 Y78.646 E9.55876
G1 X81.354 Y83.260 E10.02077
G1 X82.117 Y83.260 E10.07475
G1 X76.740 Y77.883 E10.61310
G1 X76.740 Y77.121 E10.66708
G1 X82.879 Y83.260 E11.28176
G1 X83.260 Y82.879 E11.31993
G1 X77.121 Y76.740 E11.93461
G1 X77.883 Y76.740 E11.98859
G1 X83.260 Y82.117 E12.52693
G1 X83.260 Y81.354 E12.58091
G1 X78.646 Y76.740 E13.04292
G1 X79.408 Y76.740 E13.09690
G1 X83.260 Y80.592 E13.48258
G1 X83.260 Y79.829 E13.53656
G1 X80.171 Y76.740 E13.84590
G1 X80.933 Y76.740 E13.89988
G1 X83.260 Y79.067 E14.13288
G1 X83.260 Y78.304 E14.18686
G1 X81.696 Y76.740 E14.34354
G1 X82.458 Y76.740 E14.39751
G1 X83.260 Y77.542 E14.47785
G1 X83.260 Y76.780 E14.53183
G1 X83.220 Y76.740 E14.53583
M106 S255
M104 S180 ; set temperature
G1 F1800.000 E13.53583
G92 E0
G1 Z0.400 F6000.000
G1 X84.250 Y84.250 F6000.000
G1 E1.00000 F1800.000
G1 X75.750 Y84.250 E1.11234 F600.000
G1 X75.750 Y75.750 E1.22469
G1 X84.250 Y75.750 E1.33703
G1 X84.250 Y84.205 E1.44878
G1 X84.550 Y84.550 F6000.000
G1 X75.450 Y84.550 E1.56906 F600.000
G1 X75.450 Y75.450 E1.68933
G1 X84.550 Y75.450 E1.80961
G1 X84.550 Y84.505 E1.92929
G1 X84.850 Y84.850 F6000.000
G1 X75.150 Y84.850 E2.05749 F600.000
G1 X75.150 Y75.150 E2.18570
G1 X84.850 Y75.150 E2.31390
G1 X84.850 Y84.805 E2.44151
G1 X84.590 Y84.700 F6000.000
G1 X83.961 Y83.921 F6000.000
G1 X83.921 Y83.961 E2.44273 F781.864
G1 X83.204 Y83.961 E2.45815
G1 X83.961 Y83.204 E2.48118
G1 X83.961 Y82.488 E2.49660
G1 X82.488 Y83.961 E2.54144
G1 X81.771 Y83.961 E2.55687
G1 X83.961 Y81.771 E2.62352
G1 X83.961 Y81.055 E2.63894
G1 X81.055 Y83.961 E2.72740
G1 X80.338 Y83.961 E2.74282
G1 X83.961 Y80.338 E2.85309
G1 X83.961 Y79.622 E2.86851
G1 X79.622 Y83.961 E3.00060
G1 X78.905 Y83.961 E3.01602
G1 X83.961 Y78.905 E3.16991
G1 X83.961 Y78.189 E3.18533
G1 X78.189 Y83.961 E3.36104
G1 X77.472 Y83.961 E3.37646
G1 X83.961 Y77.472 E3.57397
G1 X83.961 Y76.756 E3.58939
G1 X76.756 Y83.961 E3.80872
G1 X76.059 Y83.941 E3.82372
G1 X83.941 Y76.059 E4.06363
G1 X83.244 Y76.039 E4.07863
G1 X76.039 Y83.244 E4.29795
G1 X76.039 Y82.528 E4.31338
G1 X82.528 Y76.039 E4.51089
G1 X81.811 Y76.039 E4.52631
G1 X76.039 Y81.811 E4.70202
G1 X76.039 Y81.095 E4.71744
G1 X81.095 Y76.039 E4.87133
G1 X80.378 Y76.039 E4.88675
G1 X76.039 Y80.378 E5.01883
G1 X76.039 Y79.662 E5.03426
G1 X79.662 Y76.039 E5.14453
G1 X78.945 Y76.039 E5.15995
G1 X76.039 Y78.945 E5.24841
G1 X76.039 Y78.229 E5.26383
G1 X78.229 Y76.039 E5.33048
G1 X77.512 Y76.039 E5.34590
G1 X76.039 Y77.512 E5.39074
G1 X76.039 Y76.796 E5.40616
G1 X76.796 Y76.039 E5.42919
G1 X76.079 Y76.039 E5.44462
G1 X76.039 Y76.079 E5.44583
G1 F1800.000 E4.44583
G92 E0
G1 Z0.500 F6000.000
G1 X84.250 Y84.250 F6000.000
G1 E1.00000 F1800.000
G1 X75.750 Y84.250 E1.11234 F600.000
G1 X75.750 Y75.750 E1.22469
G1 X84.250 Y75.750 E1.33703
G1 X84.250 Y84.205 E1.44878
G1 X84.550 Y84.550 F6000.000
G1 X75.450 Y84.550 E1.56906 F600.000
G1 X75.450 Y75.450 E1.68933
G1 X84.550 Y75.450 E1.80961
G1 X84.550 Y84.505 E1.92929
G1 X84.850 Y84.850 F6000.000
G1 X75.150 Y84.850 E2.05749 F600.000
G1 X75.150 Y75.150 E2.18570
G1 X84.850 Y75.150 E2.31390
G1 X84.850 Y84.805 E2.44151
G1 X84.590 Y84.700 F6000.000
G1 X76.079 Y83.961 F6000.000
G1 X76.039 Y83.921 E2.44273 F781.864
G1 X76.039 Y83.204 E2.45815
G1 X76.796 Y83.961 E2.48118
G1 X77.512 Y83.961 E2.49660
G1 X76.039 Y82.488 E2.54144
G1 X76.039 Y81.771 E2.55687
G1 X78.229 Y83.961 E2.62352
G1 X78.945 Y83.961 E2.63894
G1 X76.039 Y81.055 E2.72740
G1 X76.039 Y80.338 E2.74282
G1 X79.662 Y83.961 E2.85309
G1 X80.378 Y83.961 E2.86851
G1 X76.039 Y79.622 E3.00060
G1 X76.039 Y78.905 E3.01602
G1 X81.095 Y83.961 E3.16991
G1 X81.811 Y83.961 E3.18533
G1 X76.039 Y78.189 E3.36103
G1 X76.039 Y77.472 E3.37646
G1 X82.528 Y83.961 E3.57397
G1 X83.244 Y83.961 E3.58939
G1 X76.039 Y76.756 E3.80872
G1 X76.059 Y76.059 E3.82372
G1 X83.941 Y83.941 E4.06363
G1 X83.961 Y83.244 E4.07863
G1 X76.756 Y76.039 E4.29795
G1 X77.472 Y76.039 E4.31338
G1 X83.961 Y82.528 E4.51089
G1 X83.961 Y81.811 E4.52631
G1 X78.189 Y76.039 E4.70202
G1 X78.905 Y76.039 E4.71744
G1 X83.961 Y81.095 E4.87133
G1 X83.961 Y80.378 E4.88675
G1 X79.622 Y76.039 E5.01883
G1 X80.338 Y76.039 E5.03426
G1 X83.961 Y79.662 E5.14453
G1 X83.961 Y78.945 E5.15995
G1 X81.055 Y76.039 E5.24841
G1 X81.771 Y76.039 E5.26383
G1 X83.961 Y78.229 E5.33048
G1 X83.961 Y77.512 E5.34590
G1 X82.488 Y76.039 E5.39074
G1 X83.204 Y76.039 E5.40616
G1 X83.961 Y76.796 E5.42919
G1 X83.961 Y76.079 E5.44462
G1 X83.921 Y76.039 E5.44583
G1 F1800.000 E4.44583
G92 E0
G1 Z0.600 F6000.000
G1 X84.250 Y84.250 F6000.000
G1 E1.00000 F1800.000
G1 X75.750 Y84.250 E1.11234 F600.000
G1 X75.750 Y75.750 E1.22469
G1 X84.250 Y75.750 E1.33703
G1 X84.250 Y84.205 E1.44878
G1 X84.550 Y84.550 F6000.000
G1 X75.450 Y84.550 E1.56906 F600.000
G1 X75.450 Y75.450 E1.68933
G1 X84.550 Y75.450 E1.80961
G1 X84.550 Y84.505 E1.92929
G1 X84.850 Y84.850 F6000.000
G1 X75.150 Y84.850 E2.05749 F600.000
G1 X75.150 Y75.150 E2.18570
G1 X84.850 Y75.150 E2.31390
G1 X84.850 Y84.805 E2.44151
G1 X84.590 Y84.700 F6000.000
G1 X83.961 Y83.921 F6000.000
G1 X83.921 Y83.961 E2.44273 F781.863
G1 X83.204 Y83.961 E2.45815
G1 X83.961 Y83.204 E2.48118
G1 X83.961 Y82.488 E2.49660
G1 X82.488 Y83.961 E2.54144
G1 X81.771 Y83.961 E2.55687
G1 X83.961 Y81.771 E2.62352
G1 X83.961 Y81.055 E2.63894
G1 X81.055 Y83.961 E2.72740
G1 X80.338 Y83.961 E2.74282
G1 X83.961 Y80.338 E2.85309
G1 X83.961 Y79.622 E2.86851
G1 X79.622 Y83.961 E3.00059
G1 X78.905 Y83.961 E3.01602
G1 X83.961 Y78.905 E3.16991
G1 X83.961 Y78.189 E3.18533
G1 X78.189 Y83.961 E3.36103
G1 X77.472 Y83.961 E3.37646
G1 X83.961 Y77.472 E3.57397
G1 X83.961 Y76.756 E3.58939
G1 X76.756 Y83.961 E3.80871
G1 X76.059 Y83.941 E3.82371
G1 X83.941 Y76.059 E4.06363
G1 X83.244 Y76.039 E4.07863
G1 X76.039 Y83.244 E4.29795
G1 X76.039 Y82.528 E4.31337
G1 X82.528 Y76.039 E4.51089
G1 X81.811 Y76.039 E4.52631
G1 X76.039 Y81.811 E4.70201
G1 X76.039 Y81.095 E4.71743
G1 X81.095 Y76.039 E4.87132
G1 X80.378 Y76.039 E4.88675
G1 X76.039 Y80.378 E5.01883
G1 X76.039 Y79.662 E5.03425
G1 X79.662 Y76.039 E5.14452
G1 X78.945 Y76.039 E5.15994
G1 X76.039 Y78.945 E5.24840
G1 X76.039 Y78.229 E5.26382
G1 X78.229 Y76.039 E5.33047
G1 X77.512 Y76.039 E5.34590
G1 X76.039 Y77.512 E5.39074
G1 X76.039 Y76.796 E5.40616
G1 X76.796 Y76.039 E5.42919
G1 X76.079 Y76.039 E5.44461
G1 X76.039 Y76.079 E5.44583
G1 F1800.000 E4.44583
G92 E0
G1 Z0.700 F6000.000
G1 X84.250 Y84.250 F6000.000
G1 E1.00000 F1800.000
G1 X75.750 Y84.250 E1.11234 F600.000
G1 X75.750 Y75.750 E1.22469
G1 X84.250 Y75.750 E1.33703
G1 X84.250 Y84.205 E1.44878
G1 X84.550 Y84.550 F6000.000
G1 X75.450 Y84.550 E1.56906 F600.000
G1 X75.450 Y75.450 E1.68933
G1 X84.550 Y75.450 E1.80961
G1 X84.550 Y84.505 E1.92929
G1 X84.850 Y84.850 F6000.000
G1 X75.150 Y84.850 E2.05749 F600.000
G1 X75.150 Y75.150 E2.18570
G1 X84.850 Y75.150 E2.31390
G1 X84.850 Y84.805 E2.44151
G1 X84.590 Y84.700 F6000.000
G1 X76.079 Y83.961 F6000.000
G1 X76.039 Y83.921 E2.44273 F781.863
G1 X76.039 Y83.204 E2.45815
G1 X76.796 Y83.961 E2.48118
G1 X77.512 Y83.961 E2.49660
G1 X76.039 Y82.488 E2.54144
G1 X76.039 Y81.771 E2.55687
G1 X78.229 Y83.961 E2.62352
G1 X78.945 Y83.961 E2.63894
G1 X76.039 Y81.055 E2.72740
G1 X76.039 Y80.338 E2.74282
G1 X79.662 Y83.961 E2.85309
G1 X80.378 Y83.961 E2.86851
G1 X76.039 Y79.622 E3.00059
G1 X76.039 Y78.905 E3.01602
G1 X81.095 Y83.961 E3.16991
G1 X81.811 Y83.961 E3.18533
G1 X76.039 Y78.189 E3.36103
G1 X76.039 Y77.472 E3.37645
G1 X82.528 Y83.961 E3.57397
G1 X83.244 Y83.961 E3.58939
G1 X76.039 Y76.756 E3.80871
G1 X76.059 Y76.059 E3.82371
G1 X83.941 Y83.941 E4.06363
G1 X83.961 Y83.244 E4.07863
G1 X76.756 Y76.039 E4.29795
G1 X77.472 Y76.039 E4.31337
G1 X83.961 Y82.528 E4.51088
G1 X83.961 Y81.811 E4.52631
G1 X78.189 Y76.039 E4.70201
G1 X78.905 Y76.039 E4.71743
G1 X83.961 Y81.095 E4.87132
G1 X83.961 Y80.378 E4.88675
G1 X79.622 Y76.039 E5.01883
G1 X80.338 Y76.039 E5.03425
G1 X83.961 Y79.662 E5.14452
G1 X83.961 Y78.945 E5.15994
G1 X81.055 Y76.039 E5.24840
G1 X81.771 Y76.039 E5.26382
G1 X83.961 Y78.229 E5.33047
G1 X83.961 Y77.512 E5.34590
G1 X82.488 Y76.039 E5.39074
G1 X83.204 Y76.039 E5.40616
G1 X83.961 Y76.796 E5.42919
G1 X83.961 Y76.079 E5.44461
G1 X83.921 Y76.039 E5.44583
G1 F1800.000 E4.44583
G92 E0
G1 Z0.800 F6000.000
G1 X84.250 Y84.250 F6000.000
G1 E1.00000 F1800.000
G1 X75.750 Y84.250 E1.11234 F600.000
G1 X75.750 Y75.750 E1.22469
G1 X84.250 Y75.750 E1.33703
G1 X84.250 Y84.205 E1.44878
G1 X84.550 Y84.550 F6000.000
G1 X75.450 Y84.550 E1.56906 F600.000
G1 X75.450 Y75.450 E1.68933
G1 X84.550 Y75.450 E1.80961
G1 X84.550 Y84.505 E1.92929
G1 X84.850 Y84.850 F6000.000
G1 X75.150 Y84.850 E2.05749 F600.000
G1 X75.150 Y75.150 E2.18570
G1 X84.850 Y75.150 E2.31390
G1 X84.850 Y84.805 E2.44151
G1 X84.590 Y84.700 F6000.000
G1 X83.961 Y83.921 F6000.000
G1 X83.921 Y83.961 E2.44273 F781.864
G1 X83.204 Y83.961 E2.45815
G1 X83.961 Y83.204 E2.48118
G1 X83.961 Y82.488 E2.49660
G1 X82.488 Y83.961 E2.54144
G1 X81.771 Y83.961 E2.55687
G1 X83.961 Y81.771 E2.62352
G1 X83.961 Y81.055 E2.63894
G1 X81.055 Y83.961 E2.72740
G1 X80.338 Y83.961 E2.74282
G1 X83.961 Y80.338 E2.85309
G1 X83.961 Y79.622 E2.86851
G1 X79.622 Y83.961 E3.00060
G1 X78.905 Y83.961 E3.01602
G1 X83.961 Y78.905 E3.16991
G1 X83.961 Y78.189 E3.18533
G1 X78.189 Y83.961 E3.36104
G1 X77.472 Y83.961 E3.37646
G1 X83.961 Y77.472 E3.57397
G1 X83.961 Y76.756 E3.58939
G1 X76.756 Y83.961 E3.80872
G1 X76.059 Y83.941 E3.82372
G1 X83.941 Y76.059 E4.06363
G1 X83.244 Y76.039 E4.07863
G1 X76.039 Y83.244 E4.29795
G1 X76.039 Y82.528 E4.31338
G1 X82.528 Y76.039 E4.51089
G1 X81.811 Y76.039 E4.52631
G1 X76.039 Y81.811 E4.70202
G1 X76.039 Y81.095 E4.71744
G1 X81.095 Y76.039 E4.87133
G1 X80.378 Y76.039 E4.88675
G1 X76.039 Y80.378 E5.01883
G1 X76.039 Y79.662 E5.03426
G1 X79.662 Y76.039 E5.14453
G1 X78.945 Y76.039 E5.15995
G1 X76.039 Y78.945 E5.24841
G1 X76.039 Y78.229 E5.26383
G1 X78.229 Y76.039 E5.33048
G1 X77.512 Y76.039 E5.34590
G1 X76.039 Y77.512 E5.39074
G1 X76.039 Y76.796 E5.40616
G1 X76.796 Y76.039 E5.42919
G1 X76.079 Y76.039 E5.44462
G1 X76.039 Y76.079 E5.44583
G1 F1800.000 E4.44583
G92 E0
G1 Z0.900 F6000.000
G1 X84.250 Y84.250 F6000.000
G1 E1.00000 F1800.000
G1 X75.750 Y84.250 E1.11234 F600.000
G1 X75.750 Y75.750 E1.22469
G1 X84.250 Y75.750 E1.33703
G1 X84.250 Y84.205 E1.44878
G1 X84.550 Y84.550 F6000.000
G1 X75.450 Y84.550 E1.56906 F600.000
G1 X75.450 Y75.450 E1.68933
G1 X84.550 Y75.450 E1.80961
G1 X84.550 Y84.505 E1.92929
G1 X84.850 Y84.850 F6000.000
G1 X75.150 Y84.850 E2.05749 F600.000
G1 X75.150 Y75.150 E2.18570
G1 X84.850 Y75.150 E2.31390
G1 X84.850 Y84.805 E2.44151
G1 X84.590 Y84.700 F6000.000
G1 X76.079 Y83.961 F6000.000
G1 X76.039 Y83.921 E2.44273 F781.864
G1 X76.039 Y83.204 E2.45815
G1 X76.796 Y83.961 E2.48118
G1 X77.512 Y83.961 E2.49660
G1 X76.039 Y82.488 E2.54144
G1 X76.039 Y81.771 E2.55687
G1 X78.229 Y83.961 E2.62352
G1 X78.945 Y83.961 E2.63894
G1 X76.039 Y81.055 E2.72740
G1 X76.039 Y80.338 E2.74282
G1 X79.662 Y83.961 E2.85309
G1 X80.378 Y83.961 E2.86851
G1 X76.039 Y79.622 E3.00060
G1 X76.039 Y78.905 E3.01602
G1 X81.095 Y83.961 E3.16991
G1 X81.811 Y83.961 E3.18533
G1 X76.039 Y78.189 E3.36103
G1 X76.039 Y77.472 E3.37646
G1 X82.528 Y83.961 E3.57397
G1 X83.244 Y83.961 E3.58939
G1 X76.039 Y76.756 E3.80872
G1 X76.059 Y76.059 E3.82372
G1 X83.941 Y83.941 E4.06363
G1 X83.961 Y83.244 E4.07863
G1 X76.756 Y76.039 E4.29795
G1 X77.472 Y76.039 E4.31338
G1 X83.961 Y82.528 E4.51089
G1 X83.961 Y81.811 E4.52631
G1 X78.189 Y76.039 E4.70202
G1 X78.905 Y76.039 E4.71744
G1 X83.961 Y81.095 E4.87133
G1 X83.961 Y80.378 E4.88675
G1 X79.622 Y76.039 E5.01883
G1 X80.338 Y76.039 E5.03426
G1 X83.961 Y79.662 E5.14453
G1 X83.961 Y78.945 E5.15995
G1 X81.055 Y76.039 E5.24841
G1 X81.771 Y76.039 E5.26383
G1 X83.961 Y78.229 E5.33048
G1 X83.961 Y77.512 E5.34590
G1 X82.488 Y76.039 E5.39074
G1 X83.204 Y76.039 E5.40616
G1 X83.961 Y76.796 E5.42919
G1 X83.961 Y76.079 E5.44462
G1 X83.921 Y76.039 E5.44583
G1 F1800.000 E4.44583
G92 E0
G1 Z1.000 F6000.000
G1 X84.250 Y84.250 F6000.000
G1 E1.00000 F1800.000
G1 X75.750 Y84.250 E1.11234 F600.000
G1 X75.750 Y75.750 E1.22469
G1 X84.250 Y75.750 E1.33703
G1 X84.250 Y84.205 E1.44878
G1 X84.550 Y84.550 F6000.000
G1 X75.450 Y84.550 E1.56906 F600.000
G1 X75.450 Y75.450 E1.68933
G1 X84.550 Y75.450 E1.80961
G1 X84.550 Y84.505 E1.92929
G1 X84.850 Y84.850 F6000.000
G1 X75.150 Y84.850 E2.05749 F600.000
G1 X75.150 Y75.150 E2.18570
G1 X84.850 Y75.150 E2.31390
G1 X84.850 Y84.805 E2.44151
G1 X84.590 Y84.700 F6000.000
G1 X83.961 Y83.921 F6000.000
G1 X83.921 Y83.961 E2.44273 F698.081
G1 X83.204 Y83.961 E2.45815
G1 X83.961 Y83.204 E2.48118
G1 X83.961 Y82.488 E2.49660
G1 X82.488 Y83.961 E2.54144
G1 X81.771 Y83.961 E2.55687
G1 X83.961 Y81.771 E2.62352
G1 X83.961 Y81.055 E2.63894
G1 X81.055 Y83.961 E2.72740
G1 X80.338 Y83.961 E2.74282
G1 X83.961 Y80.338 E2.85309
G1 X83.961 Y79.622 E2.86851
G1 X79.622 Y83.961 E3.00060
G1 X78.905 Y83.961 E3.01602
G1 X83.961 Y78.905 E3.16991
G1 X83.961 Y78.189 E3.18533
G1 X78.189 Y83.961 E3.36104
G1 X77.472 Y83.961 E3.37646
G1 X83.961 Y77.472 E3.57397
G1 X83.961 Y76.756 E3.58939
G1 X76.756 Y83.961 E3.80872
G1 X76.059 Y83.941 E3.82372
G1 X83.941 Y76.059 E4.06363
G1 X83.244 Y76.039 E4.07863
G1 X76.039 Y83.244 E4.29795
G1 X76.039 Y82.528 E4.31338
G1 X82.528 Y76.039 E4.51089
G1 X81.811 Y76.039 E4.52631
G1 X76.039 Y81.811 E4.70202
G1 X76.039 Y81.095 E4.71744
G1 X81.095 Y76.039 E4.87133
G1 X80.378 Y76.039 E4.88675
G1 X76.039 Y80.378 E5.01883
G1 X76.039 Y79.662 E5.03426
G1 X79.662 Y76.039 E5.14453
G1 X78.945 Y76.039 E5.15995
G1 X76.039 Y78.945 E5.24841
G1 X76.039 Y78.229 E5.26383
G1 X78.229 Y76.039 E5.33048
G1 X77.512 Y76.039 E5.34590
G1 X76.039 Y77.512 E5.39074
G1 X76.039 Y76.796 E5.40616
G1 X76.796 Y76.039 E5.42919
G1 X76.079 Y76.039 E5.44462
G1 X76.039 Y76.079 E5.44583
G1 F1800.000 E4.44583
G92 E0
M107
M104 S0 ; turn off temperature
G28 X0  ; home X axis
M84     ; disable motors

; filament used = 50.4mm (0.1cm3)

; avoid_crossing_perimeters = 1
; bed_size = 200,200
; bed_temperature = 60
; bridge_acceleration = 0
; bridge_fan_speed = 100
