; generated by Slic3r 1.1.7 on 2015-03-31 at 12:14:47

; perimeters extrusion width = 0.40mm
; infill extrusion width = 1.28mm
; solid infill extrusion width = 0.68mm
; top infill extrusion width = 0.68mm

G21 ; set units to millimeters
M107
M190 S60 ; wait for bed temperature to be reached
M104 S185 ; set temperature
G28 ; home all axes
G1 Z5 F5000 ; lift nozzle

M109 S185 ; wait for temperature to be reached
G90 ; use absolute coordinates
G92 E0
M82 ; use absolute distances for extrusion
G1 F1800.000 E-1.00000
G92 E0
G1 Z0.400 F6000.000
G1 X43.680 Y50.915 F6000.000
G1 E1.00000 F1800.000
G1 X45.751 Y49.326 E1.32855 F1080.000
G1 X47.269 Y48.450 E1.54912
G1 X49.681 Y47.451 E1.87767
G1 X51.373 Y46.997 E2.09825
G1 X54.756 Y46.599 E2.52695
G1 X80.172 Y46.291 E5.72585
G1 X112.611 Y46.305 E9.80848
G1 X114.004 Y46.454 E9.98475 F1080.000
G1 X115.366 Y46.783 E10.16103
G1 X116.672 Y47.288 E10.33733
G1 X117.902 Y47.958 E10.51360
G1 X119.034 Y48.783 E10.68990
G1 X120.048 Y49.749 E10.86618
G1 X120.943 Y50.861 E11.04578
G1 X121.658 Y52.035 E11.21876
G1 X122.226 Y53.316 E11.39510
G1 X122.621 Y54.660 E11.57136
G1 X122.838 Y56.043 E11.74763
G1 X122.886 Y57.005 E11.86880
G1 X122.872 Y102.944 E17.65041
G1 X122.723 Y104.337 E17.82673
G1 X122.394 Y105.698 E18.00295
G1 X121.889 Y107.005 E18.17933
G1 X121.219 Y108.235 E18.35558
G1 X120.394 Y109.367 E18.53188
G1 X119.428 Y110.381 E18.70816
G1 X119.054 Y110.709 E18.77072
G1 X118.337 Y111.261 E18.88458
G1 X117.142 Y111.991 E19.06086
G1 X116.696 Y112.211 E19.12346
G1 X115.861 Y112.558 E19.23723
G1 X114.517 Y112.954 E19.41351
G1 X114.030 Y113.051 E19.47608
G1 X113.133 Y113.170 E19.58991
G1 X112.242 Y113.219 E19.70228
G1 X64.875 Y113.709 E25.66394
G1 X44.808 Y113.709 E28.18937
G1 X42.534 Y113.312 E28.47997
G1 X40.528 Y112.168 E28.77056
G1 X39.029 Y110.412 E29.06115
G1 X38.115 Y107.523 E29.44255
G1 X37.114 Y94.559 E31.07894
G1 X37.144 Y62.306 E35.13810
G1 X37.543 Y60.032 E35.42870
G1 X38.050 Y58.944 E35.57977
G1 X40.851 Y54.226 E36.27037
G1 X42.440 Y52.155 E36.59892
G1 X43.637 Y50.958 E36.81197
G1 F1800.000 E35.81197
G92 E0
G1 X113.372 Y82.204 F6000.000
G1 E1.00000 F1800.000
G1 X112.874 Y82.586 E1.07897 F378.000
G1 X112.294 Y82.826 E1.15793
G1 X111.672 Y82.908 E1.23689
G1 X111.050 Y82.826 E1.31586
G1 X110.470 Y82.586 E1.39482
G1 X109.973 Y82.204 E1.47379
G1 X109.591 Y81.707 E1.55275
G1 X109.351 Y81.127 E1.63171
G1 X109.269 Y80.505 E1.71068
G1 X109.351 Y79.883 E1.78964
G1 X109.591 Y79.303 E1.86861
G1 X109.973 Y78.805 E1.94757
G1 X110.470 Y78.423 E2.02653
G1 X111.050 Y78.183 E2.10550
G1 X111.672 Y78.101 E2.18446
G1 X111.750 Y78.112 E2.19438
G1 X112.294 Y78.183 E2.26343 F378.000
G1 X112.874 Y78.423 E2.34239
G1 X113.372 Y78.805 E2.42135
G1 X113.754 Y79.303 E2.50031
G1 X113.994 Y79.883 E2.57928
G1 X114.076 Y80.505 E2.65825
G1 X113.994 Y81.127 E2.73721
G1 X113.754 Y81.707 E2.81617
G1 X113.408 Y82.157 E2.88759
G1 F1800.000 E1.88759
G92 E0
G1 X111.717 Y77.713 F6000.000
G1 X97.374 Y58.586 F6000.000
G1 E1.00000 F1800.000
G1 X96.794 Y58.826 E1.07896 F378.000
G1 X96.716 Y58.837 E1.08888
G1 X96.172 Y58.908 E1.15793
G1 X95.550 Y58.826 E1.23690
G1 X94.970 Y58.586 E1.31586
G1 X94.473 Y58.204 E1.39482
G1 X94.091 Y57.707 E1.47379
G1 X93.851 Y57.127 E1.55275
G1 X93.769 Y56.505 E1.63171
G1 X93.851 Y55.883 E1.71068
G1 X94.091 Y55.303 E1.78965
G1 X94.473 Y54.805 E1.86860
G1 X94.970 Y54.423 E1.94757
G1 X95.550 Y54.183 E2.02654
G1 X96.172 Y54.101 E2.10550
G1 X96.716 Y54.173 E2.17455
G1 X96.794 Y54.183 E2.18446 F378.000
G1 X97.374 Y54.423 E2.26343
G1 X97.872 Y54.805 E2.34240
G1 X98.254 Y55.303 E2.42135
G1 X98.494 Y55.883 E2.50032
G1 X98.576 Y56.505 E2.57928
G1 X98.494 Y57.127 E2.65825
G1 X98.254 Y57.707 E2.73721
G1 X97.872 Y58.204 E2.81618
G1 X97.421 Y58.550 E2.88759
G1 F1800.000 E1.88759
G92 E0
G1 X96.716 Y54.094 F6000.000
G1 X82.049 Y78.558 F6000.000
G1 E1.00000 F1800.000
G1 X82.372 Y78.805 E1.05116 F378.000
G1 X82.754 Y79.303 E1.13013
G1 X82.994 Y79.883 E1.20909
G1 X83.076 Y80.505 E1.28806
G1 X82.994 Y81.127 E1.36703
G1 X82.754 Y81.707 E1.44599
G1 X82.372 Y82.204 E1.52495
G1 X81.936 Y82.538 E1.59401
G1 X81.874 Y82.586 E1.60392
G1 X81.294 Y82.826 E1.68288
G1 X80.672 Y82.908 E1.76185
G1 X80.050 Y82.826 E1.84081
G1 X79.470 Y82.586 E1.91977
G1 X79.408 Y82.538 E1.92969
G1 X78.973 Y82.204 E1.99874
G1 X78.591 Y81.707 E2.07770
G1 X78.351 Y81.127 E2.15667
G1 X78.269 Y80.505 E2.23563
G1 X78.351 Y79.883 E2.31460
G1 X78.591 Y79.303 E2.39356
G1 X78.973 Y78.805 E2.47253
G1 X79.470 Y78.423 E2.55149
G1 X80.050 Y78.183 E2.63045
G1 X80.672 Y78.101 E2.70942
G1 X80.750 Y78.112 E2.71933
G1 X81.294 Y78.183 E2.78838 F378.000
G1 X81.874 Y78.423 E2.86735
G1 X82.001 Y78.521 E2.88759
G1 X80.615 Y77.735 F6000.000
G1 X78.000 Y77.751 F6000.000
G1 X78.000 Y57.065 E5.49104 F540.000
G1 X78.023 Y56.722 E5.53428
G1 X78.078 Y56.444 E5.56997
G1 X78.169 Y56.175 E5.60565
G1 X78.295 Y55.921 E5.64133
G1 X78.452 Y55.685 E5.67703
G1 X78.639 Y55.472 E5.71271
G1 X78.853 Y55.285 E5.74840
G1 X79.088 Y55.128 E5.78408
G1 X79.343 Y55.002 E5.81977
G1 X79.611 Y54.911 E5.85546
G1 X79.889 Y54.856 E5.89115
G1 X80.232 Y54.833 E5.93438
G1 X92.739 Y54.833 E7.50848
G1 X92.459 Y55.510 E7.60067
G1 X92.328 Y56.505 E7.72698
G1 X92.459 Y57.500 E7.85327
G1 X92.843 Y58.427 E7.97956
G1 X93.454 Y59.223 E8.10586
G1 X94.250 Y59.834 E8.23213
G1 X95.177 Y60.218 E8.35844
G1 X96.172 Y60.349 E8.48474
G1 X97.167 Y60.218 E8.61105
G1 X98.094 Y59.834 E8.73735
G1 X98.890 Y59.223 E8.86363
G1 X99.501 Y58.427 E8.98993
G1 X99.885 Y57.500 E9.11622
G1 X100.016 Y56.505 E9.24252
G1 X99.885 Y55.510 E9.36882
G1 X99.605 Y54.833 E9.46100
G1 X112.112 Y54.833 E11.03510
G1 X112.455 Y54.856 E11.07834
G1 X112.733 Y54.911 E11.11403
G1 X113.002 Y55.002 E11.14972
G1 X113.256 Y55.128 E11.18541
G1 X113.492 Y55.285 E11.22109
G1 X113.705 Y55.472 E11.25677
G1 X113.892 Y55.685 E11.29247
G1 X114.049 Y55.921 E11.32815
G1 X114.175 Y56.175 E11.36383
G1 X114.266 Y56.444 E11.39952
G1 X114.321 Y56.722 E11.43521
G1 X114.344 Y57.065 E11.47844
G1 X114.344 Y77.751 E14.08190
G1 X113.594 Y77.176 E14.20081
G1 X112.667 Y76.792 E14.32711
G1 X111.672 Y76.661 E14.45342
G1 X110.677 Y76.792 E14.57971
G1 X109.750 Y77.176 E14.70601
G1 X108.954 Y77.787 E14.83229
G1 X108.343 Y78.583 E14.95858
G1 X107.959 Y79.510 E15.08488
G1 X107.828 Y80.505 E15.21119
G1 X107.959 Y81.500 E15.33748
G1 X108.343 Y82.427 E15.46377
G1 X108.954 Y83.223 E15.59007
G1 X109.750 Y83.834 E15.71636
G1 X110.677 Y84.218 E15.84266
G1 X111.672 Y84.349 E15.96896
G1 X112.667 Y84.218 E16.09526
G1 X113.594 Y83.834 E16.22155
G1 X114.344 Y83.259 E16.34047
G1 X114.344 Y102.445 E18.75514
G1 X114.321 Y102.788 E18.79838
G1 X114.266 Y103.066 E18.83407
G1 X114.175 Y103.334 E18.86975
G1 X114.049 Y103.589 E18.90544
G1 X113.892 Y103.824 E18.94112
G1 X113.705 Y104.038 E18.97681
G1 X113.492 Y104.225 E19.01250
G1 X113.256 Y104.382 E19.04818
G1 X113.002 Y104.508 E19.08387
G1 X112.733 Y104.599 E19.11956
G1 X112.455 Y104.654 E19.15524
G1 X112.112 Y104.676 E19.19847
G1 X80.232 Y104.676 E23.21075
G1 X79.889 Y104.654 E23.25398
G1 X79.611 Y104.599 E23.28967
G1 X79.343 Y104.508 E23.32536
G1 X79.088 Y104.382 E23.36104
G1 X78.853 Y104.225 E23.39673
G1 X78.639 Y104.038 E23.43242
G1 X78.452 Y103.825 E23.46810
G1 X78.295 Y103.589 E23.50380
G1 X78.169 Y103.334 E23.53948
G1 X78.078 Y103.066 E23.57516
G1 X78.023 Y102.788 E23.61085
G1 X78.000 Y102.445 E23.65409
G1 X78.000 Y83.259 E26.06876
G1 X78.750 Y83.834 E26.18768
G1 X79.677 Y84.218 E26.31397
G1 X80.672 Y84.349 E26.44027
G1 X81.667 Y84.218 E26.56657
G1 X82.594 Y83.834 E26.69286
G1 X83.390 Y83.223 E26.81916
G1 X84.001 Y82.427 E26.94544
G1 X84.385 Y81.500 E27.07174
G1 X84.516 Y80.505 E27.19804
G1 X84.385 Y79.510 E27.32435
G1 X84.001 Y78.583 E27.45065
G1 X83.390 Y77.787 E27.57695
G1 X82.594 Y77.176 E27.70322
G1 X81.667 Y76.792 E27.82951
G1 X80.672 Y76.661 E27.95582
G1 X79.677 Y76.792 E28.08212
G1 X78.750 Y77.176 E28.20842
G1 X78.048 Y77.714 E28.31978
G1 X77.746 Y79.476 F6000.000
G1 X77.286 Y79.384 E28.37879 F540.000
G1 X77.286 Y57.041 E31.19074
G1 X77.313 Y56.628 E31.24281
G1 X77.387 Y56.259 E31.29028
G1 X77.508 Y55.901 E31.33775
G1 X77.675 Y55.563 E31.38521
G1 X77.885 Y55.249 E31.43268
G1 X78.133 Y54.966 E31.48015
G1 X78.417 Y54.717 E31.52763
G1 X78.730 Y54.508 E31.57509
G1 X79.069 Y54.341 E31.62256
G1 X79.426 Y54.220 E31.67003
G1 X79.796 Y54.146 E31.71750
G1 X80.209 Y54.119 E31.76957
G1 X94.099 Y54.119 E33.51775
G1 X93.467 Y54.943 E33.64845
G1 X93.155 Y55.696 E33.75109
G1 X93.048 Y56.505 E33.85373
G1 X93.155 Y57.313 E33.95635
G1 X93.467 Y58.067 E34.05898
G1 X93.572 Y58.204 E34.08072
G1 X93.963 Y58.714 E34.16161
G1 X94.610 Y59.210 E34.26423
G1 X95.364 Y59.522 E34.36687
G1 X96.172 Y59.629 E34.46950
G1 X96.981 Y59.522 E34.57214
G1 X97.734 Y59.210 E34.67477
G1 X98.381 Y58.714 E34.77739
G1 X98.772 Y58.204 E34.85828
G1 X98.877 Y58.067 E34.88002
G1 X99.189 Y57.313 E34.98265
G1 X99.296 Y56.505 E35.08528
G1 X99.189 Y55.696 E35.18792
G1 X98.877 Y54.943 E35.29055
G1 X98.245 Y54.119 E35.42125
G1 X112.136 Y54.119 E37.16943
G1 X112.548 Y54.146 E37.22150
G1 X112.918 Y54.220 E37.26897
G1 X113.276 Y54.341 E37.31644
G1 X113.614 Y54.508 E37.36391
G1 X113.927 Y54.717 E37.41138
G1 X114.211 Y54.966 E37.45885
G1 X114.460 Y55.250 E37.50632
G1 X114.669 Y55.563 E37.55379
G1 X114.836 Y55.901 E37.60125
G1 X114.957 Y56.259 E37.64873
G1 X115.031 Y56.628 E37.69619
G1 X115.058 Y57.041 E37.74826
G1 X115.058 Y79.384 E40.56022
G1 X114.598 Y79.476 E40.61923
G1 X114.377 Y78.943 E40.69182
G1 X113.881 Y78.296 E40.79444
G1 X113.234 Y77.800 E40.89706
G1 X112.481 Y77.488 E40.99969
G1 X111.843 Y77.404 E41.08058
G1 X111.672 Y77.381 E41.10233
G1 X110.864 Y77.488 E41.20496
G1 X110.110 Y77.800 E41.30759
G1 X109.463 Y78.296 E41.41021
G1 X108.967 Y78.943 E41.51284
G1 X108.655 Y79.696 E41.61547
G1 X108.548 Y80.505 E41.71811
G1 X108.655 Y81.313 E41.82074
G1 X108.967 Y82.067 E41.92336
G1 X109.463 Y82.714 E42.02600
G1 X110.110 Y83.210 E42.12862
G1 X110.864 Y83.522 E42.23125
G1 X111.672 Y83.629 E42.33389
G1 X112.481 Y83.522 E42.43652
G1 X113.234 Y83.210 E42.53914
G1 X113.881 Y82.714 E42.64178
G1 X114.377 Y82.067 E42.74441
G1 X114.598 Y81.534 E42.81699
G1 X115.058 Y81.625 E42.87600
G1 X115.058 Y102.468 E45.49918
G1 X115.031 Y102.881 E45.55125
G1 X114.957 Y103.251 E45.59872
G1 X114.836 Y103.608 E45.64618
G1 X114.669 Y103.947 E45.69365
G1 X114.460 Y104.260 E45.74112
G1 X114.211 Y104.544 E45.78859
G1 X113.927 Y104.792 E45.83606
G1 X113.614 Y105.002 E45.88353
G1 X113.276 Y105.169 E45.93100
G1 X112.918 Y105.290 E45.97847
G1 X112.549 Y105.364 E46.02593
G1 X112.136 Y105.391 E46.07800
G1 X80.209 Y105.391 E50.09616
G1 X79.796 Y105.364 E50.14822
G1 X79.426 Y105.290 E50.19569
G1 X79.069 Y105.169 E50.24316
G1 X78.730 Y105.002 E50.29063
G1 X78.417 Y104.792 E50.33810
G1 X78.133 Y104.544 E50.38557
G1 X77.885 Y104.260 E50.43303
G1 X77.675 Y103.947 E50.48051
G1 X77.508 Y103.608 E50.52798
G1 X77.387 Y103.251 E50.57544
G1 X77.313 Y102.881 E50.62291
G1 X77.286 Y102.468 E50.67498
G1 X77.286 Y81.625 E53.29816
G1 X77.746 Y81.534 E53.35717
G1 X77.967 Y82.067 E53.42976
G1 X78.463 Y82.714 E53.53238
G1 X79.110 Y83.210 E53.63501
G1 X79.864 Y83.522 E53.73764
G1 X80.672 Y83.629 E53.84027
G1 X81.481 Y83.522 E53.94291
G1 X82.234 Y83.210 E54.04553
G1 X82.371 Y83.105 E54.06728
G1 X82.881 Y82.714 E54.14816
G1 X83.377 Y82.067 E54.25079
G1 X83.689 Y81.313 E54.35342
G1 X83.796 Y80.505 E54.45605
G1 X83.689 Y79.696 E54.55869
G1 X83.377 Y78.943 E54.66132
G1 X82.881 Y78.296 E54.76396
G1 X82.234 Y77.800 E54.86657
G1 X81.481 Y77.488 E54.96920
G1 X80.672 Y77.381 E55.07183
G1 X79.864 Y77.488 E55.17447
G1 X79.110 Y77.800 E55.27710
G1 X78.463 Y78.296 E55.37971
G1 X77.967 Y78.943 E55.48234
G1 X77.769 Y79.420 E55.54738
G1 X76.572 Y79.476 F6000.000
G1 X76.572 Y57.018 E58.37379 F378.000
G1 X76.604 Y56.535 E58.43469
G1 X76.696 Y56.073 E58.49394
G1 X76.847 Y55.627 E58.55320
G1 X77.055 Y55.205 E58.61244
G1 X77.317 Y54.814 E58.67170
G1 X77.627 Y54.460 E58.73095
G1 X77.981 Y54.149 E58.79020
G1 X78.373 Y53.888 E58.84945
G1 X78.795 Y53.680 E58.90870
G1 X79.241 Y53.528 E58.96795
G1 X79.702 Y53.436 E59.02720
G1 X80.185 Y53.405 E59.08810
G1 X112.172 Y53.406 E63.11378
G1 X112.642 Y53.436 E63.17304 F378.000
G1 X113.104 Y53.528 E63.23229
G1 X113.549 Y53.680 E63.29154
G1 X113.972 Y53.888 E63.35079
G1 X114.363 Y54.149 E63.41004
G1 X114.717 Y54.460 E63.46929
G1 X115.028 Y54.814 E63.52855
G1 X115.289 Y55.205 E63.58779
G1 X115.497 Y55.627 E63.64704
G1 X115.649 Y56.073 E63.70630
G1 X115.740 Y56.535 E63.76555
G1 X115.772 Y57.018 E63.82645
G1 X115.772 Y102.492 E69.54951
G1 X115.740 Y102.975 E69.61042
G1 X115.649 Y103.436 E69.66967
G1 X115.497 Y103.882 E69.72892
G1 X115.289 Y104.304 E69.78817
G1 X115.028 Y104.696 E69.84742
G1 X114.717 Y105.050 E69.90667
G1 X114.363 Y105.360 E69.96592
G1 X113.972 Y105.622 E70.02517
G1 X113.549 Y105.830 E70.08442
G1 X113.104 Y105.981 E70.14368
G1 X112.642 Y106.073 E70.20292
G1 X112.159 Y106.105 E70.26383
G1 X80.185 Y106.105 E74.28787
G1 X79.702 Y106.073 E74.34877
G1 X79.241 Y105.981 E74.40802
G1 X78.795 Y105.830 E74.46727
G1 X78.373 Y105.622 E74.52652
G1 X77.981 Y105.360 E74.58577
G1 X77.627 Y105.050 E74.64502
G1 X77.317 Y104.696 E74.70427
G1 X77.055 Y104.304 E74.76353
G1 X76.847 Y103.882 E74.82278
G1 X76.696 Y103.436 E74.88202
G1 X76.604 Y102.975 E74.94127
G1 X76.572 Y102.492 E75.00218
G1 X76.572 Y79.536 E77.89128
G1 X112.457 Y53.686 F6000.000
G1 X113.164 Y55.664 F6000.000
G1 X113.513 Y56.013 E77.95342 F1080.000
G1 X113.846 Y57.361 E78.12816
G1 X111.816 Y55.331 E78.48953
G1 X110.801 Y55.331 E78.61719
G1 X113.846 Y58.376 E79.15910
G1 X113.846 Y59.390 E79.28677
G1 X109.787 Y55.331 E80.00922
G1 X108.773 Y55.331 E80.13688
G1 X113.846 Y60.404 E81.03988
G1 X113.846 Y61.419 E81.16754
G1 X107.758 Y55.331 E82.25108
G1 X106.744 Y55.331 E82.37875
G1 X113.846 Y62.433 E83.64283
G1 X113.846 Y63.447 E83.77049
G1 X105.730 Y55.331 E85.21511
G1 X104.715 Y55.331 E85.34278
G1 X113.846 Y64.462 E86.96794
G1 X113.846 Y65.476 E87.09560
G1 X103.701 Y55.331 E88.90131
G1 X102.686 Y55.331 E89.02897
G1 X113.846 Y66.491 E91.01522
G1 X113.846 Y67.505 E91.14288
G1 X101.672 Y55.331 E93.30967
G1 X100.658 Y55.331 E93.43733
G1 X113.846 Y68.519 E95.78467
G1 X113.846 Y69.534 E95.91233
G1 X100.473 Y56.161 E98.29254
G1 X100.435 Y57.137 E98.41553
G1 X113.846 Y70.548 E100.80248
G1 X113.846 Y71.562 E100.93015
G1 X100.236 Y57.953 E103.35246
G1 X99.939 Y58.670 E103.45017
G1 X113.846 Y72.577 E105.92536
G1 X113.846 Y73.591 E106.05302
G1 X99.500 Y59.245 E108.60632
G1 X99.004 Y59.763 E108.69661
G1 X113.846 Y74.605 E111.33830
G1 X113.846 Y75.620 E111.46596
G1 X98.430 Y60.204 E114.20979
G1 X97.734 Y60.522 E114.30613
G1 X113.846 Y76.634 E117.17386
G1 X112.460 Y76.262 E117.35449
G1 X96.946 Y60.749 E120.11564
G1 X96.013 Y60.830 E120.23354
G1 X111.380 Y76.197 E122.96865
G1 X110.497 Y76.328 E123.08107
G1 X94.747 Y60.579 E125.88418
G1 X92.098 Y57.930 F6000.000
G1 X89.500 Y55.331 E126.34670 F1080.000
G1 X90.514 Y55.331 E126.47437
G1 X91.847 Y56.664 E126.71161
G1 X91.928 Y55.730 E126.82951
G1 X91.528 Y55.331 E126.90063
G1 X88.485 Y55.331 F6000.000
G1 X109.779 Y76.625 E130.69064 F1080.000
G1 X109.149 Y77.009 E130.78352
G1 X87.471 Y55.331 E134.64195
G1 X86.457 Y55.331 E134.76961
G1 X108.581 Y77.455 E138.70741
G1 X108.140 Y78.029 E138.79846
G1 X85.442 Y55.331 E142.83841
G1 X84.428 Y55.331 E142.96607
G1 X107.768 Y78.671 E147.12023
G1 X107.473 Y79.390 E147.21808
G1 X83.413 Y55.331 E151.50027
G1 X82.399 Y55.331 E151.62793
G1 X107.355 Y80.287 E156.06966
G1 X107.442 Y81.389 E156.20878
G1 X81.385 Y55.331 E160.84664
G1 X80.370 Y55.331 E160.97431
G1 X113.846 Y88.807 E166.93247
G1 X113.846 Y87.792 E167.06014
G1 X110.788 Y84.735 E167.60436
G1 X111.890 Y84.822 E167.74348
G1 X113.846 Y86.778 E168.09156
G1 X113.846 Y85.764 E168.21923
G1 X112.787 Y84.704 E168.40777
G1 X113.506 Y84.409 E168.50562
G1 X113.846 Y84.749 E168.56613
G1 X113.846 Y89.821 F6000.000
G1 X79.503 Y55.478 E174.67867 F1080.000
G1 X78.928 Y55.917 E174.76974
G1 X113.846 Y90.835 E180.98464
G1 X113.846 Y91.850 E181.11230
G1 X78.562 Y56.566 E187.39226
G1 X78.498 Y57.516 E187.51212
G1 X113.846 Y92.864 E193.80349
