; generated by Slic3r 1.1.7 on 2015-04-08 at 15:31:09

; perimeters extrusion width = 0.30mm
; infill extrusion width = 0.73mm
; solid infill extrusion width = 0.51mm
; top infill extrusion width = 0.51mm

G21 ; set units to millimeters
M107
M190 S60 ; wait for bed temperature to be reached
M104 S185 ; set temperature
G28 ; home all axes
G1 Z5 F5000 ; lift nozzle

M109 S185 ; wait for temperature to be reached
G90 ; use absolute coordinates
G92 E0
M82 ; use absolute distances for extrusion
G1 F1800.000 E-1.00000
G92 E0
G1 Z0.300 F6000.000
G1 X26.298 Y26.989 F6000.000
G1 E1.00000 F1800.000
G1 X27.569 Y25.948 E1.11633 F1080.000
G1 X28.984 Y25.073 E1.23410
G1 X30.465 Y24.405 E1.34908
G1 X32.038 Y23.930 E1.46543
G1 X33.660 Y23.664 E1.58179
G1 X34.875 Y23.599 E1.66796
G1 X83.596 Y23.613 E5.11705
G1 X85.232 Y23.776 E5.23340 F1080.000
G1 X86.398 Y24.020 E5.31778
G1 X122.376 Y33.565 E7.95289
G1 X126.016 Y35.073 E8.23180
G1 X127.494 Y35.926 E8.35259
G1 X130.620 Y38.325 E8.63150
G1 X131.826 Y39.531 E8.75228
G1 X134.165 Y42.579 E9.02427
G1 X135.077 Y44.134 E9.15192
G1 X136.585 Y47.774 E9.43083
G1 X137.027 Y49.422 E9.55161
G1 X137.597 Y54.130 E9.88732
G1 X137.697 Y66.913 E10.79229
G1 X137.697 Y124.043 E14.83669
G1 X137.300 Y126.286 E14.99795
G1 X136.157 Y128.256 E15.15920
G1 X134.408 Y129.715 E15.32046
G1 X131.573 Y130.566 E15.52997
G1 X38.948 Y136.401 E22.10018
G1 X28.948 Y136.401 E22.80811
G1 X26.705 Y136.004 E22.96936
G1 X24.735 Y134.862 E23.13061
G1 X23.276 Y133.112 E23.29187
G1 X22.413 Y129.894 E23.52774
G1 X22.303 Y104.840 E25.30143
G1 X22.317 Y35.744 E30.19295
G1 X22.480 Y34.108 E30.30930
G1 X22.631 Y33.353 E30.36382
G1 X22.856 Y32.508 E30.42572
G1 X23.103 Y31.778 E30.48026
G1 X23.437 Y30.970 E30.54215
G1 X24.213 Y29.522 E30.65850
G1 X24.641 Y28.881 E30.71303
G1 X25.172 Y28.187 E30.77492
G1 X26.267 Y27.022 E30.88810
G1 F1800.000 E29.88810
G92 E0
G1 X37.577 Y128.494 F6000.000
G1 E1.00000 F1800.000
G1 X30.319 Y128.494 E1.51378 F540.000
G1 X30.319 Y121.237 E2.02756
G1 X37.577 Y121.237 E2.54134
G1 X37.577 Y128.449 E3.05194
G1 X38.112 Y129.030 F6000.000
G1 X29.784 Y129.030 E3.64156 F540.000
G1 X29.784 Y120.701 E4.23117
G1 X38.112 Y120.701 E4.82079
G1 X38.112 Y128.985 E5.40722
G1 X38.648 Y129.566 F6000.000
G1 X29.248 Y129.566 E6.07268 F378.000
G1 X29.248 Y120.166 E6.73813
G1 X38.648 Y120.166 E7.40358
G1 X38.648 Y129.521 E8.06585
G1 X38.388 Y129.416 F6000.000
G1 X30.688 Y128.086 F6000.000
G1 X30.728 Y128.126 E8.06986 F1080.000
G1 X31.490 Y128.126 E8.12383
G1 X30.688 Y127.324 E8.20417
G1 X30.688 Y126.561 E8.25815
G1 X32.253 Y128.126 E8.41482
G1 X33.015 Y128.126 E8.46880
G1 X30.688 Y125.799 E8.70181
G1 X30.688 Y125.036 E8.75579
G1 X33.777 Y128.126 E9.06513
G1 X34.540 Y128.126 E9.11911
G1 X30.688 Y124.274 E9.50478
G1 X30.688 Y123.511 E9.55876
G1 X35.302 Y128.126 E10.02077
G1 X36.065 Y128.126 E10.07475
G1 X30.688 Y122.749 E10.61310
G1 X30.688 Y121.986 E10.66708
G1 X36.827 Y128.126 E11.28176
G1 X37.209 Y127.745 E11.31993
G1 X31.069 Y121.605 E11.93461
G1 X31.831 Y121.605 E11.98859
G1 X37.209 Y126.982 E12.52693
G1 X37.209 Y126.220 E12.58091
G1 X32.594 Y121.605 E13.04292
G1 X33.356 Y121.605 E13.09690
G1 X37.209 Y125.457 E13.48258
G1 X37.209 Y124.695 E13.53656
G1 X34.119 Y121.605 E13.84590
G1 X34.881 Y121.605 E13.89988
G1 X37.209 Y123.933 E14.13288
G1 X37.209 Y123.170 E14.18686
G1 X35.644 Y121.605 E14.34354
G1 X36.406 Y121.605 E14.39751
G1 X37.209 Y122.408 E14.47785
G1 X37.209 Y121.645 E14.53183
G1 X37.169 Y121.605 E14.53583
G1 F1800.000 E13.53583
G92 E0
G1 X79.303 Y74.750 F6000.000
G1 E1.00000 F1800.000
G1 X78.604 Y73.838 E1.08134 F540.000
G1 X78.164 Y72.777 E1.16268
G1 X78.014 Y71.637 E1.24403
G1 X78.164 Y70.498 E1.32537
G1 X78.603 Y69.437 E1.40671
G1 X79.303 Y68.525 E1.48805
G1 X80.215 Y67.826 E1.56940
G1 X81.276 Y67.386 E1.65074
G1 X82.415 Y67.236 E1.73208
G1 X82.614 Y67.262 E1.74625
G1 X83.554 Y67.386 E1.81342 F540.000
G1 X84.616 Y67.826 E1.89476
G1 X85.528 Y68.525 E1.97610
G1 X86.227 Y69.437 E2.05745
G1 X86.667 Y70.498 E2.13879
G1 X86.817 Y71.637 E2.22013
G1 X86.667 Y72.777 E2.30147
G1 X86.227 Y73.838 E2.38282
G1 X85.528 Y74.750 E2.46416
G1 X84.775 Y75.327 E2.53133
G1 X84.616 Y75.449 E2.54550
G1 X83.554 Y75.889 E2.62684
G1 X82.415 Y76.039 E2.70818
G1 X81.276 Y75.889 E2.78953
G1 X80.215 Y75.449 E2.87087
G1 X79.339 Y74.777 E2.94902
G1 X79.685 Y74.368 F6000.000
G1 X79.071 Y73.568 E3.02038 F540.000
G1 X78.686 Y72.637 E3.09174
G1 X78.554 Y71.637 E3.16310
G1 X78.686 Y70.638 E3.23446
G1 X79.071 Y69.707 E3.30581
G1 X79.685 Y68.907 E3.37717
G1 X80.485 Y68.293 E3.44853
G1 X81.416 Y67.908 E3.51989
G1 X81.544 Y67.891 E3.52906
G1 X82.415 Y67.776 E3.59125 F540.000
G1 X83.415 Y67.908 E3.66260
G1 X84.346 Y68.293 E3.73396
G1 X85.146 Y68.907 E3.80532
G1 X85.759 Y69.707 E3.87668
G1 X86.145 Y70.638 E3.94804
G1 X86.277 Y71.637 E4.01939
G1 X86.145 Y72.637 E4.09075
G1 X85.759 Y73.568 E4.16211
G1 X85.146 Y74.368 E4.23347
G1 X84.346 Y74.981 E4.30483
G1 X83.415 Y75.367 E4.37619
G1 X82.415 Y75.499 E4.44754
G1 X81.416 Y75.367 E4.51890
G1 X80.485 Y74.981 E4.59026
G1 X79.721 Y74.395 E4.65843
G1 X80.067 Y73.986 F6000.000
G1 X79.539 Y73.298 E4.71980 F378.000
G1 X79.207 Y72.497 E4.78118
G1 X79.094 Y71.637 E4.84255
G1 X79.207 Y70.778 E4.90393
G1 X79.539 Y69.977 E4.96530
G1 X80.067 Y69.289 E5.02668
G1 X80.755 Y68.761 E5.08805
G1 X81.556 Y68.430 E5.14943
G1 X82.415 Y68.316 E5.21080
G1 X82.474 Y68.324 E5.21498
G1 X83.275 Y68.430 E5.27217 F378.000
G1 X84.076 Y68.761 E5.33355
G1 X84.764 Y69.289 E5.39492
G1 X85.291 Y69.977 E5.45630
G1 X85.623 Y70.778 E5.51767
G1 X85.736 Y71.637 E5.57904
G1 X85.623 Y72.497 E5.64042
G1 X85.291 Y73.298 E5.70179
G1 X84.764 Y73.986 E5.76316
G1 X84.123 Y74.477 E5.82036
G1 X84.076 Y74.513 E5.82454
G1 X83.275 Y74.845 E5.88591
G1 X82.415 Y74.958 E5.94729
G1 X81.556 Y74.845 E6.00866
G1 X80.755 Y74.513 E6.07004
G1 X80.103 Y74.013 E6.12822
G1 F1800.000 E5.12822
G92 E0
G1 X82.527 Y68.029 F6000.000
G1 X60.953 Y38.760 F6000.000
G1 E1.00000 F1800.000
G1 X60.022 Y39.146 E1.07136 F540.000
G1 X59.023 Y39.278 E1.14272
G1 X58.023 Y39.146 E1.21408
G1 X57.212 Y38.810 E1.27626
G1 X57.092 Y38.760 E1.28543
G1 X56.292 Y38.147 E1.35679
G1 X55.679 Y37.347 E1.42815
G1 X55.293 Y36.416 E1.49951
G1 X55.161 Y35.417 E1.57086
G1 X55.293 Y34.417 E1.64223
G1 X55.679 Y33.486 E1.71358
G1 X56.292 Y32.686 E1.78493
G1 X57.092 Y32.073 E1.85629
G1 X58.023 Y31.687 E1.92766
G1 X59.023 Y31.555 E1.99902
G1 X59.893 Y31.670 E2.06119
G1 X60.022 Y31.687 E2.07037 F540.000
G1 X60.953 Y32.073 E2.14174
G1 X61.753 Y32.686 E2.21310
G1 X62.367 Y33.486 E2.28445
G1 X62.752 Y34.417 E2.35581
G1 X62.884 Y35.417 E2.42716
G1 X62.752 Y36.416 E2.49852
G1 X62.367 Y37.347 E2.56988
G1 X61.753 Y38.147 E2.64124
G1 X60.989 Y38.733 E2.70941
G1 X60.683 Y38.293 F6000.000
G1 X59.882 Y38.624 E2.77078 F378.000
G1 X59.023 Y38.738 E2.83216
G1 X58.163 Y38.624 E2.89353
G1 X57.417 Y38.315 E2.95072
G1 X57.362 Y38.293 E2.95491
G1 X56.674 Y37.765 E3.01628
G1 X56.147 Y37.077 E3.07765
G1 X55.815 Y36.276 E3.13903
G1 X55.702 Y35.417 E3.20040
G1 X55.807 Y34.616 E3.25759
G1 X55.815 Y34.557 E3.26178
G1 X56.147 Y33.756 E3.32315
G1 X56.674 Y33.068 E3.38452
G1 X57.362 Y32.541 E3.44590
G1 X58.163 Y32.209 E3.50727
G1 X58.222 Y32.201 E3.51146
G1 X59.023 Y32.096 E3.56865 F378.000
G1 X59.882 Y32.209 E3.63002
G1 X60.683 Y32.541 E3.69140
G1 X61.371 Y33.068 E3.75277
G1 X61.899 Y33.756 E3.81414
G1 X62.231 Y34.557 E3.87552
G1 X62.344 Y35.417 E3.93689
G1 X62.231 Y36.276 E3.99826
G1 X61.899 Y37.077 E4.05964
G1 X61.371 Y37.765 E4.12101
G1 X60.719 Y38.265 E4.17920
G1 F1800.000 E3.17920
G92 E0
G1 X58.145 Y31.911 F6000.000
G1 X37.951 Y67.918 F6000.000
G1 E1.00000 F1800.000
G1 X38.742 Y68.525 E1.07058 F540.000
G1 X39.442 Y69.437 E1.15193
G1 X39.882 Y70.498 E1.23326
G1 X40.032 Y71.637 E1.31460
G1 X40.005 Y71.836 E1.32877
G1 X39.882 Y72.777 E1.39595
G1 X39.442 Y73.838 E1.47729
G1 X38.742 Y74.750 E1.55863
G1 X37.831 Y75.449 E1.63998
G1 X36.954 Y75.812 E1.70715
G1 X36.769 Y75.889 E1.72132
G1 X35.630 Y76.039 E1.80266
G1 X34.491 Y75.889 E1.88400
G1 X33.429 Y75.449 E1.96534
G1 X32.518 Y74.750 E2.04669
G1 X31.818 Y73.838 E2.12802
G1 X31.379 Y72.777 E2.20937
G1 X31.229 Y71.637 E2.29071
G1 X31.379 Y70.498 E2.37206
G1 X31.818 Y69.437 E2.45339
G1 X32.396 Y68.684 E2.52057
G1 X32.518 Y68.525 E2.53474
G1 X33.429 Y67.826 E2.61608
G1 X34.491 Y67.386 E2.69742
G1 X35.630 Y67.236 E2.77877
G1 X35.829 Y67.262 E2.79293
G1 X36.769 Y67.386 E2.86011 F540.000
G1 X37.831 Y67.826 E2.94145
G1 X37.916 Y67.891 E2.94902
G1 X37.625 Y68.343 F6000.000
G1 X38.360 Y68.907 E3.01461 F540.000
G1 X38.974 Y69.707 E3.08597
G1 X39.360 Y70.638 E3.15733
G1 X39.491 Y71.637 E3.22868
G1 X39.474 Y71.766 E3.23786
G1 X39.360 Y72.637 E3.30004
G1 X38.974 Y73.568 E3.37140
G1 X38.360 Y74.368 E3.44276
G1 X37.561 Y74.981 E3.51412
G1 X36.749 Y75.317 E3.57630
G1 X36.629 Y75.367 E3.58548
G1 X35.630 Y75.499 E3.65683
G1 X34.631 Y75.367 E3.72819
G1 X33.699 Y74.981 E3.79955
G1 X33.597 Y74.902 E3.80873
G1 X32.900 Y74.368 E3.87091
G1 X32.286 Y73.568 E3.94226
G1 X31.900 Y72.637 E4.01362
G1 X31.769 Y71.637 E4.08499
G1 X31.900 Y70.638 E4.15634
G1 X32.286 Y69.707 E4.22770
G1 X32.900 Y68.907 E4.29906
G1 X33.699 Y68.293 E4.37042
G1 X34.631 Y67.908 E4.44177
G1 X35.502 Y67.793 E4.50396
G1 X35.630 Y67.776 E4.51313 F540.000
G1 X36.629 Y67.908 E4.58449
G1 X37.590 Y68.316 E4.65835
G1 X37.299 Y68.768 F6000.000
G1 X37.978 Y69.289 E4.71894 F378.000
G1 X38.506 Y69.977 E4.78032
G1 X38.838 Y70.778 E4.84169
G1 X38.951 Y71.637 E4.90306
G1 X38.943 Y71.696 E4.90725
G1 X38.838 Y72.497 E4.96444
G1 X38.506 Y73.298 E5.02581
G1 X37.978 Y73.986 E5.08719
G1 X37.291 Y74.513 E5.14856
G1 X36.544 Y74.823 E5.20575
G1 X36.490 Y74.845 E5.20994
G1 X35.630 Y74.958 E5.27131
G1 X34.771 Y74.845 E5.33268
G1 X33.970 Y74.513 E5.39406
G1 X33.923 Y74.477 E5.39824
G1 X33.282 Y73.986 E5.45543
G1 X32.754 Y73.298 E5.51680
G1 X32.422 Y72.497 E5.57818
G1 X32.309 Y71.637 E5.63955
G1 X32.422 Y70.778 E5.70093
G1 X32.754 Y69.977 E5.76230
G1 X33.246 Y69.336 E5.81949
G1 X33.282 Y69.289 E5.82368
G1 X33.970 Y68.761 E5.88505
G1 X34.771 Y68.430 E5.94642
G1 X35.630 Y68.316 E6.00780
G1 X35.689 Y68.324 E6.01198
G1 X36.490 Y68.430 E6.06917 F378.000
G1 X37.259 Y68.748 E6.12814
G1 X35.574 Y68.047 F6000.000
G1 X56.572 Y31.796 F6000.000
G1 X55.910 Y32.304 E6.18721 F540.000
G1 X55.211 Y33.216 E6.26855
G1 X54.771 Y34.277 E6.34989
G1 X54.621 Y35.417 E6.43123
G1 X54.771 Y36.556 E6.51257
G1 X55.211 Y37.617 E6.59392
G1 X55.910 Y38.529 E6.67526
G1 X56.069 Y38.651 E6.68942
G1 X56.822 Y39.228 E6.75660
G1 X57.883 Y39.668 E6.83794
G1 X59.023 Y39.818 E6.91928
G1 X60.162 Y39.668 E7.00062
G1 X61.223 Y39.228 E7.08197
G1 X62.135 Y38.529 E7.16331
G1 X62.834 Y37.617 E7.24465
G1 X63.274 Y36.556 E7.32599
G1 X63.424 Y35.417 E7.40733
G1 X63.274 Y34.277 E7.48868
G1 X62.835 Y33.216 E7.57002
G1 X62.135 Y32.304 E7.65135
G1 X61.473 Y31.796 E7.71042
G1 X61.572 Y31.506 E7.73216
G1 X83.125 Y31.506 E9.25798
G1 X83.779 Y31.548 E9.30434
G1 X84.377 Y31.667 E9.34752
G1 X84.954 Y31.863 E9.39069
G1 X85.501 Y32.133 E9.43387
G1 X86.008 Y32.472 E9.47704
G1 X86.467 Y32.874 E9.52022
G1 X86.869 Y33.333 E9.56340
G1 X87.208 Y33.840 E9.60657
G1 X87.478 Y34.387 E9.64975
G1 X87.674 Y34.964 E9.69293
G1 X87.793 Y35.563 E9.73610
G1 X87.835 Y36.216 E9.78246
G1 X87.835 Y104.795 E14.63736
G1 X87.793 Y105.448 E14.68372
G1 X87.674 Y106.047 E14.72690
G1 X87.478 Y106.624 E14.77008
G1 X87.208 Y107.171 E14.81325
G1 X86.869 Y107.678 E14.85643
G1 X86.467 Y108.137 E14.89960
G1 X86.008 Y108.539 E14.94278
G1 X85.501 Y108.878 E14.98596
G1 X84.954 Y109.147 E15.02913
G1 X84.377 Y109.344 E15.07231
G1 X83.778 Y109.463 E15.11549
G1 X83.125 Y109.505 E15.16185
G1 X34.920 Y109.505 E18.57439
G1 X34.267 Y109.463 E18.62076
G1 X33.669 Y109.344 E18.66393
G1 X33.091 Y109.147 E18.70711
G1 X32.544 Y108.878 E18.75029
G1 X32.037 Y108.539 E18.79346
G1 X31.579 Y108.137 E18.83664
G1 X31.176 Y107.678 E18.87982
G1 X30.838 Y107.171 E18.92299
G1 X30.568 Y106.624 E18.96617
G1 X30.372 Y106.047 E19.00935
G1 X30.253 Y105.448 E19.05252
G1 X30.210 Y104.795 E19.09889
G1 X30.210 Y36.216 E23.95378
G1 X30.253 Y35.563 E24.00014
G1 X30.372 Y34.964 E24.04332
G1 X30.568 Y34.387 E24.08649
G1 X30.838 Y33.840 E24.12967
G1 X31.176 Y33.333 E24.17285
G1 X31.579 Y32.874 E24.21602
G1 X32.037 Y32.472 E24.25920
G1 X32.544 Y32.133 E24.30238
G1 X33.091 Y31.863 E24.34555
G1 X33.669 Y31.667 E24.38873
G1 X34.267 Y31.548 E24.43191
G1 X34.920 Y31.506 E24.47827
G1 X56.474 Y31.506 E26.00408
G1 X56.558 Y31.754 E26.02264
G1 X56.572 Y30.970 F6000.000
G1 X83.143 Y30.970 E27.90362 F540.000
G1 X83.849 Y31.016 E27.95371
G1 X84.516 Y31.149 E28.00186
G1 X85.160 Y31.368 E28.05000
G1 X85.770 Y31.668 E28.09815
G1 X86.335 Y32.046 E28.14630
G1 X86.846 Y32.495 E28.19444
G1 X87.295 Y33.006 E28.24259
G1 X87.673 Y33.571 E28.29074
G1 X87.973 Y34.181 E28.33889
G1 X88.192 Y34.825 E28.38703
G1 X88.325 Y35.493 E28.43518
G1 X88.371 Y36.199 E28.48527
G1 X88.371 Y104.812 E33.34264
G1 X88.325 Y105.518 E33.39273
G1 X88.192 Y106.185 E33.44088
G1 X87.973 Y106.830 E33.48903
G1 X87.673 Y107.439 E33.53718
G1 X87.295 Y108.005 E33.58532
G1 X86.846 Y108.516 E33.63347
G1 X86.335 Y108.965 E33.68162
G1 X85.770 Y109.343 E33.72976
G1 X85.160 Y109.643 E33.77791
G1 X84.516 Y109.862 E33.82606
G1 X83.849 Y109.995 E33.87421
G1 X83.143 Y110.041 E33.92429
G1 X34.903 Y110.041 E37.33932
G1 X34.197 Y109.995 E37.38941
G1 X33.530 Y109.862 E37.43756
G1 X32.886 Y109.643 E37.48570
G1 X32.276 Y109.343 E37.53385
G1 X31.710 Y108.965 E37.58200
G1 X31.199 Y108.516 E37.63015
G1 X30.751 Y108.005 E37.67829
G1 X30.373 Y107.439 E37.72644
G1 X30.072 Y106.829 E37.77459
G1 X29.853 Y106.185 E37.82273
G1 X29.721 Y105.518 E37.87088
G1 X29.674 Y104.812 E37.92097
G1 X29.674 Y36.199 E42.77835
G1 X29.721 Y35.493 E42.82843
G1 X29.853 Y34.825 E42.87658
G1 X30.072 Y34.181 E42.92473
G1 X30.373 Y33.571 E42.97288
G1 X30.751 Y33.006 E43.02102
G1 X31.199 Y32.495 E43.06917
G1 X31.710 Y32.046 E43.11732
G1 X32.276 Y31.668 E43.16547
G1 X32.886 Y31.368 E43.21361
G1 X33.530 Y31.149 E43.26176
G1 X34.197 Y31.016 E43.30991
G1 X34.903 Y30.970 E43.36000
G1 X56.527 Y30.970 E44.89085 F540.000
G1 X56.572 Y30.434 F6000.000
G1 X83.170 Y30.435 E46.77377 F378.000
G1 X83.919 Y30.484 E46.82690 F378.000
G1 X84.655 Y30.630 E46.88001
G1 X85.365 Y30.872 E46.93313
G1 X86.038 Y31.203 E46.98624
G1 X86.662 Y31.620 E47.03936
G1 X87.226 Y32.115 E47.09248
G1 X87.721 Y32.679 E47.14560
G1 X88.138 Y33.303 E47.19872
G1 X88.469 Y33.976 E47.25183
G1 X88.711 Y34.687 E47.30495
G1 X88.857 Y35.422 E47.35807
G1 X88.907 Y36.181 E47.41188
G1 X88.907 Y104.830 E52.27175
G1 X88.857 Y105.588 E52.32556
G1 X88.711 Y106.324 E52.37868
G1 X88.469 Y107.035 E52.43180
G1 X88.138 Y107.708 E52.48491
G1 X87.721 Y108.332 E52.53803
G1 X87.226 Y108.896 E52.59115
G1 X86.662 Y109.391 E52.64427
G1 X86.038 Y109.807 E52.69738
G1 X85.365 Y110.139 E52.75050
G1 X84.655 Y110.380 E52.80362
G1 X83.919 Y110.527 E52.85674
G1 X83.160 Y110.577 E52.91055
G1 X34.885 Y110.577 E56.32806
G1 X34.127 Y110.527 E56.38188
G1 X33.391 Y110.380 E56.43500
G1 X32.680 Y110.139 E56.48811
G1 X32.007 Y109.807 E56.54123
G1 X31.384 Y109.391 E56.59435
G1 X30.819 Y108.896 E56.64747
G1 X30.325 Y108.332 E56.70058
G1 X29.908 Y107.708 E56.75370
G1 X29.576 Y107.035 E56.80682
G1 X29.335 Y106.324 E56.85994
G1 X29.188 Y105.588 E56.91306
G1 X29.139 Y104.830 E56.96687
G1 X29.139 Y36.181 E61.82673
G1 X29.188 Y35.422 E61.88054
G1 X29.335 Y34.687 E61.93366
G1 X29.576 Y33.976 E61.98678
G1 X29.908 Y33.303 E62.03990
G1 X30.325 Y32.679 E62.09302
G1 X30.819 Y32.115 E62.14613
G1 X31.384 Y31.620 E62.19925
G1 X32.007 Y31.203 E62.25237
G1 X32.680 Y30.872 E62.30549
G1 X33.391 Y30.630 E62.35860
G1 X34.127 Y30.484 E62.41172
G1 X34.885 Y30.434 E62.46554
G1 X56.527 Y30.434 E63.99764
G1 X83.308 Y30.701 F6000.000
G1 X85.975 Y32.933 F6000.000
G1 X86.408 Y33.366 E64.04093 F1080.000
G1 X87.304 Y35.021 F6000.000
G1 X84.321 Y32.037 E64.33960 F1080.000
G1 X83.418 Y31.894 E64.40429
G1 X87.447 Y35.923 E64.80768
G1 X87.467 Y36.702 E64.86285
G1 X82.639 Y31.874 E65.34624
G1 X81.880 Y31.874 E65.39998
G1 X87.467 Y37.461 E65.95937
G1 X87.467 Y38.220 E66.01311
G1 X81.121 Y31.874 E66.64849
