; generated by Slic3r 1.1.7 on 2015-04-17 at 15:46:58

; perimeters extrusion width = 0.50mm
; infill extrusion width = 0.52mm
; solid infill extrusion width = 0.52mm
; top infill extrusion width = 0.52mm

G21 ; set units to millimeters
M107
M104 S200 ; set temperature
G28 ; home all axes
G1 Z5 F5000 ; lift nozzle

M109 S200 ; wait for temperature to be reached
G90 ; use absolute coordinates
G92 E0
M82 ; use absolute distances for extrusion
G1 F1800.000 E-1.00000
G92 E0
G1 Z0.350 F7800.000
G1 X70.271 Y82.913 F7800.000
G1 E1.00000 F1800.000
G1 X71.637 Y81.755 E1.05827 F1080.000
G1 X73.792 Y80.953 E1.13308
G1 X75.000 Y80.843 E1.17253
G1 X125.000 Y80.843 E2.79929
G1 X127.265 Y81.240 E2.87409
G1 X129.259 Y82.384 E2.94889 F1080.000
G1 X130.745 Y84.137 E3.02369
G1 X131.547 Y86.292 E3.09849
G1 X131.657 Y87.500 E3.13795
G1 X131.657 Y112.500 E3.95133
G1 X131.260 Y114.765 E4.02613
G1 X130.116 Y116.759 E4.10093
G1 X128.363 Y118.245 E4.17573
G1 X126.208 Y119.047 E4.25053
G1 X125.000 Y119.157 E4.28998
G1 X75.000 Y119.157 E5.91674
G1 X72.735 Y118.760 E5.99154
G1 X70.741 Y117.616 E6.06634
G1 X69.255 Y115.863 E6.14114
G1 X68.453 Y113.708 E6.21594
G1 X68.343 Y112.500 E6.25540
G1 X68.343 Y87.500 E7.06878
G1 X68.740 Y85.235 E7.14358
G1 X69.884 Y83.241 E7.21838
G1 X70.214 Y82.961 E7.23247
G1 F1800.000 E6.23247
G92 E0
G1 X115.607 Y106.836 F7800.000
G1 E1.00000 F1800.000
G1 X109.279 Y106.836 E1.20589 F540.000
G1 X109.279 Y110.836 E1.33603
G1 X88.607 Y110.836 E2.00859
G1 X88.607 Y106.836 E2.13873
G1 X82.279 Y106.836 E2.34463
G1 X82.279 Y110.836 E2.47477
G1 X76.664 Y110.836 E2.65745
G1 X76.664 Y89.164 E3.36254
G1 X82.279 Y89.164 E3.54523
G1 X82.279 Y93.164 E3.67537
G1 X88.607 Y93.164 E3.88126
G1 X88.607 Y89.164 E4.01140
G1 X109.279 Y89.164 E4.68396
G1 X109.279 Y93.164 E4.81410
G1 X115.607 Y93.164 E5.02000
G1 X115.607 Y89.164 E5.15014
G1 X123.336 Y89.164 E5.40158
G1 X123.336 Y110.836 E6.10667
G1 X115.607 Y110.836 E6.35812
G1 X115.607 Y106.911 E6.48582
G1 X114.950 Y107.493 F7800.000
G1 X109.936 Y107.493 E6.64896 F540.000
G1 X109.936 Y111.493 E6.77910
G1 X87.950 Y111.493 E7.49441
G1 X87.950 Y107.493 E7.62455
G1 X82.936 Y107.493 E7.78769
G1 X82.936 Y111.493 E7.91783
G1 X76.007 Y111.493 E8.14327
G1 X76.007 Y88.507 E8.89112
G1 X82.936 Y88.507 E9.11656
G1 X82.936 Y92.507 E9.24670
G1 X87.950 Y92.507 E9.40984
G1 X87.950 Y88.507 E9.53998
G1 X109.936 Y88.507 E10.25529
G1 X109.936 Y92.507 E10.38543
G1 X114.950 Y92.507 E10.54857
G1 X114.950 Y88.507 E10.67871
G1 X123.993 Y88.507 E10.97291
G1 X123.993 Y111.493 E11.72076
G1 X114.950 Y111.493 E12.01496
G1 X114.950 Y107.568 E12.14266
G1 X114.293 Y108.150 F7800.000
G1 X110.593 Y108.150 E12.26304 F378.000
G1 X110.593 Y112.150 E12.39318
G1 X87.293 Y112.150 E13.15125
G1 X87.293 Y108.150 E13.28140
G1 X83.593 Y108.150 E13.40178
G1 X83.593 Y112.150 E13.53192
G1 X75.350 Y112.150 E13.80011
G1 X75.350 Y87.850 E14.59072
G1 X83.593 Y87.850 E14.85892
G1 X83.593 Y91.850 E14.98906
G1 X87.293 Y91.850 E15.10944
G1 X87.293 Y87.850 E15.23958
G1 X110.593 Y87.850 E15.99765
G1 X110.593 Y91.850 E16.12779
G1 X114.293 Y91.850 E16.24817
G1 X114.293 Y87.850 E16.37831
G1 X124.650 Y87.850 E16.71527
G1 X124.650 Y112.150 E17.50587
G1 X114.293 Y112.150 E17.84283
G1 X114.293 Y108.225 E17.97053
G1 X114.293 Y107.650 F7800.000
G1 X116.064 Y107.174 F7800.000
G1 X119.269 Y110.379 E18.11801 F1080.000
G1 X118.333 Y110.379 E18.14846
G1 X116.064 Y108.110 E18.25288
G1 X116.064 Y109.046 E18.28332
G1 X117.398 Y110.379 E18.34469
G1 X116.462 Y110.379 E18.37514
G1 X116.064 Y109.981 E18.39345
G1 X122.839 Y89.621 F7800.000
G1 X122.879 Y89.661 E18.39529 F1080.000
G1 X122.879 Y90.596 E18.42573
G1 X121.904 Y89.621 E18.47063
G1 X120.968 Y89.621 E18.50107
G1 X122.879 Y91.532 E18.58902
G1 X122.879 Y92.468 E18.61947
G1 X120.032 Y89.621 E18.75048
G1 X119.097 Y89.621 E18.78092
G1 X122.879 Y93.404 E18.95498
G1 X122.879 Y94.339 E18.98543
G1 X118.161 Y89.621 E19.20254
G1 X117.225 Y89.621 E19.23299
G1 X122.879 Y95.275 E19.49316
G1 X122.879 Y96.211 E19.52360
G1 X116.289 Y89.621 E19.82683
G1 X116.064 Y90.331 E19.85108
G1 X122.879 Y97.146 E20.16468
G1 X122.879 Y98.082 E20.19512
G1 X116.064 Y91.267 E20.50872
G1 X116.064 Y92.202 E20.53917
G1 X122.879 Y99.018 E20.85277
G1 X122.879 Y99.954 E20.88321
G1 X116.064 Y93.138 E21.19681
G1 X115.611 Y93.621 E21.21835
G1 X122.879 Y100.889 E21.55281
G1 X122.879 Y101.825 E21.58325
G1 X114.675 Y93.621 E21.96076
G1 X113.739 Y93.621 E21.99121
G1 X122.879 Y102.761 E22.41177
G1 X122.879 Y103.697 E22.44222
G1 X112.803 Y93.621 E22.90584
G1 X111.868 Y93.621 E22.93629
G1 X122.879 Y104.632 E23.44296
G1 X122.879 Y105.568 E23.47341
G1 X110.932 Y93.621 E24.02314
G1 X109.996 Y93.621 E24.05359
G1 X122.879 Y106.504 E24.64638
G1 X122.879 Y107.440 E24.67682
G1 X105.060 Y89.621 E25.49671
G1 X105.996 Y89.621 E25.52716
G1 X108.823 Y92.447 E25.65722
G1 X108.823 Y91.512 E25.68766
G1 X106.932 Y89.621 E25.77467
G1 X107.868 Y89.621 E25.80511
G1 X108.823 Y90.576 E25.84907
G1 X108.823 Y89.640 E25.87951
G1 X108.803 Y89.621 E25.88041
G1 X104.125 Y89.621 F7800.000
G1 X122.879 Y108.375 E26.74335 F1080.000
G1 X122.879 Y109.311 E26.77380
G1 X103.189 Y89.621 E27.67980
G1 X102.253 Y89.621 E27.71025
G1 X122.879 Y110.247 E28.65930
G1 X122.076 Y110.379 E28.68579
G1 X101.317 Y89.621 E29.64094
G1 X100.382 Y89.621 E29.67139
G1 X121.141 Y110.379 E30.62654
G1 X120.205 Y110.379 E30.65699
G1 X99.446 Y89.621 E31.61214
G1 X98.510 Y89.621 E31.64259
G1 X115.269 Y106.379 E32.41370
G1 X114.333 Y106.379 E32.44414
G1 X97.574 Y89.621 E33.21525
G1 X96.639 Y89.621 E33.24570
G1 X113.398 Y106.379 E34.01680
G1 X112.462 Y106.379 E34.04725
G1 X95.703 Y89.621 E34.81836
G1 X94.767 Y89.621 E34.84880
G1 X111.526 Y106.379 E35.61991
G1 X110.590 Y106.379 E35.65036
G1 X93.831 Y89.621 E36.42146
G1 X92.896 Y89.621 E36.45191
G1 X109.655 Y106.379 E37.22302
G1 X108.823 Y106.483 E37.25029
G1 X91.960 Y89.621 E38.02618
G1 X91.024 Y89.621 E38.05663
G1 X108.823 Y107.419 E38.87557
G1 X108.823 Y108.355 E38.90602
G1 X90.088 Y89.621 E39.76802
G1 X89.153 Y89.621 E39.79847
G1 X108.823 Y109.291 E40.70352
G1 X108.823 Y110.226 E40.73397
G1 X89.064 Y90.467 E41.64311
G1 X89.064 Y91.403 E41.67356
G1 X108.040 Y110.379 E42.54669
G1 X107.104 Y110.379 E42.57713
G1 X89.064 Y92.339 E43.40721
G1 X89.064 Y93.275 E43.43765
G1 X106.169 Y110.379 E44.22468
G1 X105.233 Y110.379 E44.25512
G1 X88.474 Y93.621 E45.02623
G1 X87.538 Y93.621 E45.05667
G1 X104.297 Y110.379 E45.82778
G1 X103.361 Y110.379 E45.85823
G1 X86.602 Y93.621 E46.62934
G1 X85.667 Y93.621 E46.65978
G1 X102.426 Y110.379 E47.43089
G1 X101.490 Y110.379 E47.46133
G1 X84.731 Y93.621 E48.23244
G1 X83.795 Y93.621 E48.26289
G1 X100.554 Y110.379 E49.03400
G1 X99.618 Y110.379 E49.06444
G1 X82.859 Y93.621 E49.83555
G1 X81.924 Y93.621 E49.86600
G1 X98.683 Y110.379 E50.63710
G1 X97.747 Y110.379 E50.66755
G1 X77.121 Y89.753 E51.61661
G1 X77.924 Y89.621 E51.64309
G1 X81.823 Y93.520 E51.82249
G1 X81.823 Y92.584 E51.85294
G1 X78.859 Y89.621 E51.98929
G1 X79.795 Y89.621 E52.01973
G1 X81.823 Y91.648 E52.11303
G1 X81.823 Y90.712 E52.14347
G1 X80.731 Y89.621 E52.19371
G1 X81.667 Y89.621 E52.22415
G1 X81.823 Y89.777 E52.23134
G1 X77.121 Y90.689 F7800.000
G1 X96.811 Y110.379 E53.13734 F1080.000
G1 X95.875 Y110.379 E53.16778
G1 X77.121 Y91.625 E54.03073
G1 X77.121 Y92.560 E54.06117
G1 X94.940 Y110.379 E54.88106
G1 X94.004 Y110.379 E54.91151
G1 X77.121 Y93.496 E55.68834
G1 X77.121 Y94.432 E55.71879
G1 X93.068 Y110.379 E56.45257
G1 X92.132 Y110.379 E56.48301
G1 X89.064 Y107.311 E56.62420
G1 X89.064 Y108.247 E56.65465
G1 X91.197 Y110.379 E56.75279
G1 X90.261 Y110.379 E56.78323
G1 X89.064 Y109.182 E56.83831
G1 X89.064 Y110.118 E56.86876
G1 X89.325 Y110.379 E56.88078
G1 X88.132 Y106.379 F7800.000
G1 X77.121 Y95.368 E57.38746 F1080.000
G1 X77.121 Y96.303 E57.41791
G1 X87.197 Y106.379 E57.88153
G1 X86.261 Y106.379 E57.91197
G1 X77.121 Y97.239 E58.33254
G1 X77.121 Y98.175 E58.36299
G1 X85.325 Y106.379 E58.74050
G1 X84.389 Y106.379 E58.77094
G1 X77.121 Y99.111 E59.10540
G1 X77.121 Y100.046 E59.13584
G1 X83.454 Y106.379 E59.42724
G1 X82.518 Y106.379 E59.45769
G1 X77.121 Y100.982 E59.70604
G1 X77.121 Y101.918 E59.73648
G1 X81.823 Y106.620 E59.95284
G1 X81.823 Y107.556 E59.98328
G1 X77.121 Y102.854 E60.19964
G1 X77.121 Y103.789 E60.23009
G1 X81.823 Y108.492 E60.44645
G1 X81.823 Y109.427 E60.47689
G1 X77.121 Y104.725 E60.69325
G1 X77.121 Y105.661 E60.72370
G1 X81.823 Y110.363 E60.94006
G1 X80.904 Y110.379 E60.96997
G1 X77.121 Y106.596 E61.14403
G1 X77.121 Y107.532 E61.17448
G1 X79.968 Y110.379 E61.30548
G1 X79.032 Y110.379 E61.33593
G1 X77.121 Y108.468 E61.42388
G1 X77.121 Y109.404 E61.45432
G1 X78.096 Y110.379 E61.49922
G1 X77.161 Y110.379 E61.52967
G1 X77.121 Y110.339 E61.53151
M106 S139
G1 F1800.000 E60.53151
G92 E0
G1 Z0.750 F7800.000
G1 X115.193 Y107.250 F7800.000
G1 E1.00000 F1800.000
G1 X109.693 Y107.250 E1.15562 F1800.000
G1 X109.693 Y111.250 E1.26880
G1 X88.193 Y111.250 E1.87712
G1 X88.193 Y107.250 E1.99030
G1 X82.693 Y107.250 E2.14592
G1 X82.693 Y111.250 E2.25909
G1 X76.250 Y111.250 E2.44140
G1 X76.250 Y88.750 E3.07802
G1 X82.693 Y88.750 E3.26033
G1 X82.693 Y92.750 E3.37351
G1 X88.193 Y92.750 E3.52912
G1 X88.193 Y88.750 E3.64230
G1 X109.693 Y88.750 E4.25063
G1 X109.693 Y92.750 E4.36380
G1 X115.193 Y92.750 E4.51942
G1 X115.193 Y88.750 E4.63260
G1 X123.750 Y88.750 E4.87470
G1 X123.750 Y111.250 E5.51132
G1 X115.193 Y111.250 E5.75343
G1 X115.193 Y107.325 E5.86448
G1 X114.693 Y107.750 F7800.000
G1 X110.193 Y107.750 E5.99181 F1800.000
G1 X110.193 Y111.750 E6.10498
G1 X87.693 Y111.750 E6.74160
G1 X87.693 Y107.750 E6.85478
G1 X83.193 Y107.750 E6.98210
G1 X83.193 Y111.750 E7.09528
G1 X75.750 Y111.750 E7.30588
G1 X75.750 Y88.250 E7.97080
G1 X83.193 Y88.250 E8.18140
G1 X83.193 Y92.250 E8.29458
G1 X87.693 Y92.250 E8.42190
G1 X87.693 Y88.250 E8.53508
G1 X110.193 Y88.250 E9.17170
G1 X110.193 Y92.250 E9.28487
G1 X114.693 Y92.250 E9.41220
G1 X114.693 Y88.250 E9.52538
G1 X124.250 Y88.250 E9.79577
G1 X124.250 Y111.750 E10.46069
G1 X114.693 Y111.750 E10.73109
G1 X114.693 Y107.825 E10.84214
G1 X114.193 Y108.250 F7800.000
G1 X110.693 Y108.250 E10.94117 F1260.000
G1 X110.693 Y112.250 E11.05435
G1 X87.193 Y112.250 E11.71926
G1 X87.193 Y108.250 E11.83244
G1 X83.693 Y108.250 E11.93147
G1 X83.693 Y112.250 E12.04465
G1 X75.250 Y112.250 E12.28354
G1 X75.250 Y87.750 E12.97675
G1 X83.693 Y87.750 E13.21565
G1 X83.693 Y91.750 E13.32882
G1 X87.193 Y91.750 E13.42785
G1 X87.193 Y87.750 E13.54103
G1 X110.693 Y87.750 E14.20595
G1 X110.693 Y91.750 E14.31912
G1 X114.193 Y91.750 E14.41815
G1 X114.193 Y87.750 E14.53133
G1 X124.750 Y87.750 E14.83002
G1 X124.750 Y112.250 E15.52323
G1 X114.193 Y112.250 E15.82192
G1 X114.193 Y108.325 E15.93298
G1 X114.193 Y107.750 F7800.000
G1 F1800.000 E14.93298
G92 E0
G1 X108.625 Y110.903 F7800.000
G1 E1.00000 F1800.000
G1 X109.346 Y110.182 E1.03000 F3600.000
G1 X109.346 Y109.445 E1.05167
G1 X107.888 Y110.903 E1.11232
G1 X107.151 Y110.903 E1.13399
G1 X109.346 Y108.708 E1.22528
G1 X109.346 Y107.971 E1.24695
G1 X106.414 Y110.903 E1.36888
G1 X105.677 Y110.903 E1.39055
G1 X123.403 Y93.177 E2.12769
G1 X123.403 Y93.914 E2.14936
G1 X110.414 Y106.903 E2.68950
G1 X111.151 Y106.903 E2.71117
G1 X123.403 Y94.651 E3.22068
G1 X123.403 Y95.388 E3.24234
G1 X111.888 Y106.903 E3.72120
G1 X112.625 Y106.903 E3.74287
G1 X123.403 Y96.125 E4.19109
G1 X123.403 Y96.862 E4.21276
G1 X113.362 Y106.903 E4.63032
G1 X114.099 Y106.903 E4.65199
G1 X123.403 Y97.599 E5.03892
G1 X123.403 Y98.336 E5.06059
G1 X114.836 Y106.903 E5.41687
G1 X115.540 Y106.935 E5.43761
G1 X123.403 Y99.073 E5.76459
G1 X123.403 Y99.809 E5.78626
G1 X115.540 Y107.672 E6.11324
G1 X115.540 Y108.409 E6.13491
G1 X123.403 Y100.546 E6.46189
G1 X123.403 Y101.283 E6.48356
G1 X115.540 Y109.146 E6.81054
G1 X115.540 Y109.883 E6.83221
G1 X123.403 Y102.020 E7.15919
G1 X123.403 Y102.757 E7.18086
G1 X115.540 Y110.620 E7.50784
G1 X115.994 Y110.903 E7.52357
G1 X123.403 Y103.494 E7.83168
G1 X123.403 Y104.231 E7.85335
G1 X116.731 Y110.903 E8.13081
G1 X117.468 Y110.903 E8.15248
G1 X123.403 Y104.968 E8.39930
G1 X123.403 Y105.705 E8.42097
G1 X118.205 Y110.903 E8.63715
G1 X118.942 Y110.903 E8.65882
G1 X123.403 Y106.442 E8.84435
G1 X123.403 Y107.179 E8.86602
G1 X119.679 Y110.903 E9.02090
G1 X120.415 Y110.903 E9.04257
G1 X123.403 Y107.915 E9.16681
G1 X123.403 Y108.652 E9.18848
G1 X121.152 Y110.903 E9.28208
G1 X121.889 Y110.903 E9.30375
G1 X123.403 Y109.389 E9.36670
G1 X123.403 Y110.126 E9.38837
G1 X122.626 Y110.903 E9.42068
G1 X123.363 Y110.903 E9.44235
G1 X123.403 Y110.863 E9.44401
G1 F1800.000 E8.44401
G92 E0
G1 X104.940 Y110.903 F7800.000
G1 E1.00000 F1800.000
G1 X123.403 Y92.440 E1.76778 F3600.000
G1 X123.403 Y91.704 E1.78945
G1 X104.204 Y110.903 E2.58787
G1 X103.467 Y110.903 E2.60954
G1 X123.403 Y90.967 E3.43861
G1 X123.403 Y90.230 E3.46028
G1 X102.730 Y110.903 E4.31999
G1 X101.993 Y110.903 E4.34166
G1 X123.403 Y89.493 E5.23201
G1 X123.062 Y89.097 E5.24738
G1 X101.256 Y110.903 E6.15420
G1 X100.519 Y110.903 E6.17587
G1 X122.325 Y89.097 E7.08269
G1 X121.588 Y89.097 E7.10436
G1 X99.782 Y110.903 E8.01118
G1 X99.045 Y110.903 E8.03285
G1 X120.851 Y89.097 E8.93967
G1 X120.114 Y89.097 E8.96133
G1 X98.308 Y110.903 E9.86815
G1 X97.571 Y110.903 E9.88982
G1 X119.378 Y89.097 E10.79664
G1 X118.641 Y89.097 E10.81831
G1 X115.540 Y92.197 E10.94724
G1 X115.540 Y91.460 E10.96891
G1 X117.904 Y89.097 E11.06720
G1 X117.167 Y89.097 E11.08887
G1 X115.540 Y90.724 E11.15651
G1 X115.540 Y89.987 E11.17818
G1 X116.430 Y89.097 E11.21518
G1 X115.693 Y89.097 E11.23685
G1 X115.540 Y89.250 E11.24320
G1 X114.641 Y93.097 F7800.000
G1 X96.834 Y110.903 E11.98368 F3600.000
G1 X96.098 Y110.903 E12.00535
G1 X113.904 Y93.097 E12.74583
G1 X113.167 Y93.097 E12.76750
G1 X95.361 Y110.903 E13.50798
G1 X94.624 Y110.903 E13.52965
G1 X112.430 Y93.097 E14.27012
G1 X111.693 Y93.097 E14.29179
G1 X93.887 Y110.903 E15.03227
G1 X93.150 Y110.903 E15.05394
G1 X110.956 Y93.097 E15.79442
G1 X110.219 Y93.097 E15.81609
G1 X92.413 Y110.903 E16.55657
G1 X91.676 Y110.903 E16.57824
G1 X109.482 Y93.097 E17.31871
G1 X109.346 Y92.496 E17.33683
G1 X90.939 Y110.903 E18.10231
G1 X90.202 Y110.903 E18.12398
G1 X109.346 Y91.759 E18.92009
G1 X109.346 Y91.022 E18.94176
G1 X89.465 Y110.903 E19.76852
G1 X88.728 Y110.903 E19.79019
G1 X109.346 Y90.285 E20.64760
G1 X109.346 Y89.548 E20.66927
G1 X88.540 Y110.354 E21.53450
G1 X88.540 Y109.618 E21.55617
G1 X109.061 Y89.097 E22.40953
G1 X108.324 Y89.097 E22.43120
G1 X88.540 Y108.881 E23.25391
G1 X88.540 Y108.144 E23.27558
G1 X107.587 Y89.097 E24.06765
G1 X106.850 Y89.097 E24.08932
G1 X88.540 Y107.407 E24.85075
G1 X88.307 Y106.903 E24.86707
G1 X106.113 Y89.097 E25.60755
G1 X105.376 Y89.097 E25.62921
G1 X87.570 Y106.903 E26.36969
G1 X86.833 Y106.903 E26.39136
G1 X104.639 Y89.097 E27.13184
G1 X103.902 Y89.097 E27.15351
G1 X86.096 Y106.903 E27.89399
G1 X85.359 Y106.903 E27.91566
G1 X103.166 Y89.097 E28.65614
G1 X102.429 Y89.097 E28.67780
G1 X84.622 Y106.903 E29.41828
G1 X83.886 Y106.903 E29.43995
G1 X101.692 Y89.097 E30.18043
G1 X100.955 Y89.097 E30.20210
G1 X83.149 Y106.903 E30.94258
G1 X82.412 Y106.903 E30.96425
G1 X100.218 Y89.097 E31.70472
G1 X99.481 Y89.097 E31.72639
G1 X77.675 Y110.903 E32.63321
G1 X76.938 Y110.903 E32.65488
G1 X98.744 Y89.097 E33.56170
G1 X98.007 Y89.097 E33.58337
G1 X76.597 Y110.507 E34.47373
G1 X76.597 Y109.770 E34.49540
G1 X97.270 Y89.097 E35.35511
G1 X96.533 Y89.097 E35.37678
G1 X76.597 Y109.033 E36.20585
G1 X76.597 Y108.296 E36.22751
G1 X95.796 Y89.097 E37.02594
G1 X95.060 Y89.097 E37.04761
G1 X76.597 Y107.560 E37.81539
G1 X76.597 Y106.823 E37.83705
G1 X94.323 Y89.097 E38.57419
G1 X93.586 Y89.097 E38.59586
G1 X76.597 Y106.086 E39.30235
G1 X76.597 Y105.349 E39.32402
G1 X92.849 Y89.097 E39.99986
G1 X92.112 Y89.097 E40.02153
G1 X76.597 Y104.612 E40.66673
G1 X76.597 Y103.875 E40.68840
G1 X87.375 Y93.097 E41.13661
G1 X86.638 Y93.097 E41.15828
G1 X76.597 Y103.138 E41.57585
G1 X76.597 Y102.401 E41.59752
G1 X85.901 Y93.097 E41.98444
G1 X85.164 Y93.097 E42.00611
G1 X76.597 Y101.664 E42.36239
G1 X76.597 Y100.927 E42.38406
G1 X84.427 Y93.097 E42.70970
G1 X83.691 Y93.097 E42.73137
