; generated by Slic3r 1.1.7 on 2015-04-17 at 17:52:01

; perimeters extrusion width = 0.30mm
; infill extrusion width = 0.73mm
; solid infill extrusion width = 0.51mm
; top infill extrusion width = 0.51mm

G21 ; set units to millimeters
M107
M190 S60 ; wait for bed temperature to be reached
M104 S185 ; set temperature
G28 ; home all axes
G1 Z5 F5000 ; lift nozzle

M109 S185 ; wait for temperature to be reached
G90 ; use absolute coordinates
G92 E0
M82 ; use absolute distances for extrusion
G1 F1800.000 E-1.00000
G92 E0
G1 Z0.100 F6000.000
G1 X70.904 Y63.406 F6000.000
G1 E1.00000 F1800.000
G1 X72.642 Y62.021 E1.02168 F1080.000
G1 X75.589 Y61.279 E1.05134
G1 X84.411 Y61.279 E1.13741
G1 X86.597 Y61.675 E1.15909
G1 X88.504 Y62.815 E1.18076 F1080.000
G1 X89.890 Y64.552 E1.20244
G1 X90.632 Y67.500 E1.23210
G1 X90.632 Y92.500 E1.47602
G1 X90.235 Y94.686 E1.49770
G1 X89.096 Y96.594 E1.51938
G1 X87.358 Y97.979 E1.54106
G1 X84.411 Y98.721 E1.57072
G1 X75.589 Y98.721 E1.65679
G1 X73.403 Y98.325 E1.67847
G1 X71.496 Y97.185 E1.70015
G1 X70.110 Y95.448 E1.72182
G1 X69.368 Y92.500 E1.75148
G1 X69.368 Y67.500 E1.99540
G1 X69.765 Y65.314 E2.01708
G1 X70.881 Y63.445 E2.03832
G1 F1800.000 E1.03832
G92 E0
G1 X82.132 Y87.957 F6000.000
G1 E1.00000 F1800.000
G1 X78.046 Y87.957 E1.03986 F540.000
G1 X78.046 Y91.957 E1.07889
G1 X76.132 Y91.957 E1.09757
G1 X76.132 Y68.043 E1.33089
G1 X78.046 Y68.043 E1.34957
G1 X78.046 Y72.043 E1.38860
G1 X82.132 Y72.043 E1.42846
G1 X82.132 Y68.043 E1.46749
G1 X83.868 Y68.043 E1.48442
G1 X83.868 Y91.957 E1.71775
G1 X82.132 Y91.957 E1.73468
G1 X82.132 Y88.002 E1.77327
G1 X81.911 Y88.179 F6000.000
G1 X78.268 Y88.179 E1.80881 F540.000
G1 X78.268 Y92.179 E1.84784
G1 X75.911 Y92.179 E1.87084
G1 X75.911 Y67.821 E2.10849
G1 X78.268 Y67.821 E2.13148
G1 X78.268 Y71.821 E2.17051
G1 X81.911 Y71.821 E2.20605
G1 X81.911 Y67.821 E2.24508
G1 X84.089 Y67.821 E2.26634
G1 X84.089 Y92.179 E2.50398
G1 X81.911 Y92.179 E2.52524
G1 X81.911 Y88.224 E2.56383
G1 X81.689 Y88.400 F6000.000
G1 X78.489 Y88.400 E2.59505 F378.000
G1 X78.489 Y92.400 E2.63408
G1 X75.689 Y92.400 E2.66139
G1 X75.689 Y67.600 E2.90336
G1 X78.489 Y67.600 E2.93068
G1 X78.489 Y71.600 E2.96971
G1 X81.689 Y71.600 E3.00093
G1 X81.689 Y67.600 E3.03996
G1 X84.311 Y67.600 E3.06553
G1 X84.311 Y92.400 E3.30750
G1 X81.689 Y92.400 E3.33308
G1 X81.689 Y88.445 E3.37167
G1 X81.689 Y88.100 F6000.000
G1 X82.273 Y88.067 F6000.000
G1 X83.727 Y89.522 E3.39174 F1080.000
G1 X83.727 Y89.835 E3.39479
G1 X82.273 Y88.380 E3.41486
G1 X82.273 Y88.694 E3.41792
G1 X83.727 Y90.148 E3.43799
G1 X83.727 Y90.461 E3.44104
G1 X82.273 Y89.007 E3.46111
G1 X82.273 Y89.320 E3.46417
G1 X83.727 Y90.774 E3.48424
G1 X83.727 Y91.088 E3.48729
G1 X82.273 Y89.633 E3.50736
G1 X82.273 Y89.946 E3.51042
G1 X83.727 Y91.401 E3.53049
G1 X83.727 Y91.714 E3.53354
G1 X82.273 Y90.260 E3.55361
G1 X82.273 Y90.573 E3.55667
G1 X83.517 Y91.817 E3.57383
G1 X83.203 Y91.817 E3.57688
G1 X82.273 Y90.886 E3.58972
G1 X82.273 Y91.199 E3.59278
G1 X82.890 Y91.817 E3.60130
G1 X82.577 Y91.817 E3.60435
G1 X82.273 Y91.512 E3.60855
G1 F1800.000 E2.60855
G92 E0
G1 X76.273 Y91.777 F6000.000
G1 E1.00000 F1800.000
G1 X76.313 Y91.817 E1.00055 F1080.000
G1 X76.626 Y91.817 E1.00361
G1 X76.273 Y91.463 E1.00848
G1 X76.273 Y91.150 E1.01154
G1 X76.939 Y91.817 E1.02073
G1 X77.252 Y91.817 E1.02379
G1 X76.273 Y90.837 E1.03731
G1 X76.273 Y90.524 E1.04036
G1 X77.566 Y91.817 E1.05820
G1 X77.879 Y91.817 E1.06126
G1 X76.273 Y90.211 E1.08342
G1 X76.273 Y89.897 E1.08647
G1 X77.906 Y91.530 E1.10901
G1 X77.906 Y91.217 E1.11206
G1 X76.273 Y89.584 E1.13460
G1 X76.273 Y89.271 E1.13765
G1 X77.906 Y90.904 E1.16019
G1 X77.906 Y90.591 E1.16324
G1 X76.273 Y88.958 E1.18577
G1 X76.273 Y88.644 E1.18883
G1 X77.906 Y90.278 E1.21136
G1 X77.906 Y89.964 E1.21442
G1 X76.273 Y88.331 E1.23695
G1 X76.273 Y88.018 E1.24001
G1 X77.906 Y89.651 E1.26254
G1 X77.906 Y89.338 E1.26560
G1 X76.273 Y87.705 E1.28813
G1 X76.273 Y87.392 E1.29119
G1 X77.906 Y89.025 E1.31372
G1 X77.906 Y88.712 E1.31678
G1 X76.273 Y87.078 E1.33931
G1 X76.273 Y86.765 E1.34237
G1 X77.906 Y88.398 E1.36490
G1 X77.906 Y88.085 E1.36796
G1 X76.273 Y86.452 E1.39049
G1 X76.273 Y86.139 E1.39355
G1 X77.951 Y87.817 E1.41670
G1 X78.264 Y87.817 E1.41975
G1 X76.273 Y85.826 E1.44722
G1 X76.273 Y85.512 E1.45028
G1 X78.577 Y87.817 E1.48207
G1 X78.890 Y87.817 E1.48513
G1 X76.273 Y85.199 E1.52124
G1 X76.273 Y84.886 E1.52430
G1 X79.203 Y87.817 E1.56474
G1 X79.517 Y87.817 E1.56779
G1 X76.273 Y84.573 E1.61255
G1 X76.273 Y84.260 E1.61561
G1 X79.830 Y87.817 E1.66469
G1 X80.143 Y87.817 E1.66774
G1 X76.273 Y83.946 E1.72114
G1 X76.273 Y83.633 E1.72420
G1 X80.456 Y87.817 E1.78192
G1 X80.769 Y87.817 E1.78498
G1 X76.273 Y83.320 E1.84702
G1 X76.273 Y83.007 E1.85008
G1 X81.083 Y87.817 E1.91645
G1 X81.396 Y87.817 E1.91950
G1 X76.273 Y82.694 E1.99019
G1 X76.273 Y82.380 E1.99325
G1 X81.709 Y87.817 E2.06826
G1 X82.022 Y87.817 E2.07131
G1 X76.273 Y82.067 E2.15065
G1 X76.273 Y81.754 E2.15370
G1 X83.727 Y89.208 E2.25656
G1 X83.727 Y88.895 E2.25962
G1 X76.273 Y81.441 E2.36247
G1 X76.273 Y81.127 E2.36553
G1 X83.727 Y88.582 E2.46839
G1 X83.727 Y88.269 E2.47144
G1 X76.273 Y80.814 E2.57430
G1 X76.273 Y80.501 E2.57736
G1 X83.727 Y87.956 E2.68022
G1 X83.727 Y87.642 E2.68327
G1 X76.273 Y80.188 E2.78613
G1 X76.273 Y79.875 E2.78919
G1 X83.727 Y87.329 E2.89204
G1 X83.727 Y87.016 E2.89510
G1 X76.273 Y79.561 E2.99796
G1 X76.273 Y79.248 E3.00101
G1 X83.727 Y86.703 E3.10387
G1 X83.727 Y86.389 E3.10693
G1 X76.273 Y78.935 E3.20979
G1 X76.273 Y78.622 E3.21284
G1 X83.727 Y86.076 E3.31570
G1 X83.727 Y85.763 E3.31876
G1 X76.273 Y78.309 E3.42161
G1 X76.273 Y77.995 E3.42467
G1 X83.727 Y85.450 E3.52753
G1 X83.727 Y85.137 E3.53058
G1 X76.273 Y77.682 E3.63344
G1 X76.273 Y77.369 E3.63650
G1 X83.727 Y84.823 E3.73936
G1 X83.727 Y84.510 E3.74241
G1 X76.273 Y77.056 E3.84527
G1 X76.273 Y76.743 E3.84833
G1 X83.727 Y84.197 E3.95118
G1 X83.727 Y83.884 E3.95424
G1 X76.273 Y76.429 E4.05710
G1 X76.273 Y76.116 E4.06015
G1 X83.727 Y83.571 E4.16301
G1 X83.727 Y83.257 E4.16607
G1 X76.273 Y75.803 E4.26893
G1 X76.273 Y75.490 E4.27198
G1 X83.727 Y82.944 E4.37484
G1 X83.727 Y82.631 E4.37790
G1 X76.273 Y75.177 E4.48075
G1 X76.273 Y74.863 E4.48381
G1 X83.727 Y82.318 E4.58667
G1 X83.727 Y82.005 E4.58972
G1 X76.273 Y74.550 E4.69258
G1 X76.273 Y74.237 E4.69564
G1 X83.727 Y81.691 E4.79850
G1 X83.727 Y81.378 E4.80155
G1 X76.273 Y73.924 E4.90441
G1 X76.273 Y73.611 E4.90747
G1 X83.727 Y81.065 E5.01032
G1 X83.727 Y80.752 E5.01338
G1 X76.273 Y73.297 E5.11624
G1 X76.273 Y72.984 E5.11929
G1 X83.727 Y80.439 E5.22215
G1 X83.727 Y80.125 E5.22521
G1 X76.273 Y72.671 E5.32807
G1 X76.273 Y72.358 E5.33112
G1 X83.727 Y79.812 E5.43398
G1 X83.727 Y79.499 E5.43704
G1 X76.273 Y72.044 E5.53989
G1 X76.273 Y71.731 E5.54295
G1 X83.727 Y79.186 E5.64581
G1 X83.727 Y78.873 E5.64886
G1 X76.273 Y71.418 E5.75172
G1 X76.273 Y71.105 E5.75478
G1 X83.727 Y78.559 E5.85764
G1 X83.727 Y78.246 E5.86069
G1 X76.273 Y70.792 E5.96355
G1 X76.273 Y70.478 E5.96661
G1 X83.727 Y77.933 E6.06946
G1 X83.727 Y77.620 E6.07252
G1 X78.291 Y72.183 E6.14753
G1 X78.604 Y72.183 E6.15059
G1 X83.727 Y77.306 E6.22127
G1 X83.727 Y76.993 E6.22433
G1 X78.917 Y72.183 E6.29070
G1 X79.231 Y72.183 E6.29375
G1 X83.727 Y76.680 E6.35580
G1 X83.727 Y76.367 E6.35885
G1 X79.544 Y72.183 E6.41658
G1 X79.857 Y72.183 E6.41963
G1 X83.727 Y76.054 E6.47304
G1 X83.727 Y75.740 E6.47609
G1 X80.170 Y72.183 E6.52517
G1 X80.483 Y72.183 E6.52823
G1 X83.727 Y75.427 E6.57299
G1 X83.727 Y75.114 E6.57604
G1 X80.797 Y72.183 E6.61648
G1 X81.110 Y72.183 E6.61953
G1 X83.727 Y74.801 E6.65565
G1 X83.727 Y74.488 E6.65870
G1 X81.423 Y72.183 E6.69050
G1 X81.736 Y72.183 E6.69355
G1 X83.727 Y74.174 E6.72102
G1 X83.727 Y73.861 E6.72408
G1 X82.049 Y72.183 E6.74723
G1 X82.273 Y72.094 E6.74958
G1 X83.727 Y73.548 E6.76965
G1 X83.727 Y73.235 E6.77270
G1 X82.273 Y71.780 E6.79277
G1 X82.273 Y71.467 E6.79583
G1 X83.727 Y72.922 E6.81590
G1 X83.727 Y72.608 E6.81895
G1 X82.273 Y71.154 E6.83902
G1 X82.273 Y70.841 E6.84208
G1 X83.727 Y72.295 E6.86215
G1 X83.727 Y71.982 E6.86520
G1 X82.273 Y70.527 E6.88527
G1 X82.273 Y70.214 E6.88833
G1 X83.727 Y71.669 E6.90840
G1 X83.727 Y71.356 E6.91145
G1 X82.273 Y69.901 E6.93152
G1 X82.273 Y69.588 E6.93458
G1 X83.727 Y71.042 E6.95465
G1 X83.727 Y70.729 E6.95770
G1 X82.273 Y69.275 E6.97777
G1 X82.273 Y68.961 E6.98083
G1 X83.727 Y70.416 E7.00090
G1 X83.727 Y70.103 E7.00395
G1 X82.273 Y68.648 E7.02402
G1 X82.273 Y68.335 E7.02708
G1 X83.727 Y69.789 E7.04714
G1 X83.727 Y69.476 E7.05020
G1 X82.434 Y68.183 E7.06804
G1 X82.748 Y68.183 E7.07110
G1 X83.727 Y69.163 E7.08461
G1 X83.727 Y68.850 E7.08767
G1 X83.061 Y68.183 E7.09686
G1 X83.374 Y68.183 E7.09992
G1 X83.727 Y68.537 E7.10479
G1 X83.727 Y68.223 E7.10785
G1 X83.687 Y68.183 E7.10840
G1 F1800.000 E6.10840
G92 E0
G1 X77.906 Y68.353 F6000.000
G1 E1.00000 F1800.000
G1 X77.736 Y68.183 E1.00234 F1080.000
G1 X77.423 Y68.183 E1.00540
G1 X77.906 Y68.666 E1.01206
G1 X77.906 Y68.979 E1.01511
G1 X77.110 Y68.183 E1.02610
G1 X76.797 Y68.183 E1.02915
G1 X77.906 Y69.293 E1.04446
G1 X77.906 Y69.606 E1.04751
G1 X76.483 Y68.183 E1.06714
G1 X76.273 Y68.286 E1.06943
G1 X77.906 Y69.919 E1.09196
G1 X77.906 Y70.232 E1.09502
G1 X76.273 Y68.599 E1.11755
G1 X76.273 Y68.912 E1.12060
G1 X77.906 Y70.545 E1.14314
G1 X77.906 Y70.859 E1.14619
G1 X76.273 Y69.226 E1.16873
G1 X76.273 Y69.539 E1.17178
G1 X77.906 Y71.172 E1.19432
G1 X77.906 Y71.485 E1.19737
G1 X76.273 Y69.852 E1.21991
G1 X76.273 Y70.165 E1.22296
G1 X77.906 Y71.798 E1.24550
M106 S255
M104 S180 ; set temperature
G1 F1800.000 E0.24550
G92 E0
G1 Z0.200 F6000.000
G1 X82.339 Y87.750 F6000.000
G1 E1.00000 F1800.000
G1 X77.839 Y87.750 E1.05948 F814.046
G1 X77.839 Y91.750 E1.11234
G1 X76.339 Y91.750 E1.13217
G1 X76.339 Y68.250 E1.44277
G1 X77.839 Y68.250 E1.46260
G1 X77.839 Y72.250 E1.51546
G1 X82.339 Y72.250 E1.57494
G1 X82.339 Y68.250 E1.62781
G1 X83.661 Y68.250 E1.64527
G1 X83.661 Y91.750 E1.95587
G1 X82.339 Y91.750 E1.97334
G1 X82.339 Y87.795 E2.02561
G1 X82.039 Y88.050 F6000.000
G1 X78.139 Y88.050 E2.07716 F814.046
G1 X78.139 Y92.050 E2.13003
G1 X76.039 Y92.050 E2.15778
G1 X76.039 Y67.950 E2.47631
G1 X78.139 Y67.950 E2.50407
G1 X78.139 Y71.950 E2.55694
G1 X82.039 Y71.950 E2.60848
G1 X82.039 Y67.950 E2.66135
G1 X83.961 Y67.950 E2.68674
G1 X83.961 Y92.050 E3.00527
G1 X82.039 Y92.050 E3.03067
G1 X82.039 Y88.095 E3.08294
G1 X81.739 Y88.350 F6000.000
G1 X78.439 Y88.350 E3.12656 F600.000
G1 X78.439 Y92.350 E3.17943
G1 X75.739 Y92.350 E3.21511
G1 X75.739 Y67.650 E3.54157
G1 X78.439 Y67.650 E3.57726
G1 X78.439 Y71.650 E3.63013
G1 X81.739 Y71.650 E3.67374
G1 X81.739 Y67.650 E3.72661
G1 X84.261 Y67.650 E3.75994
G1 X84.261 Y92.350 E4.08640
G1 X81.739 Y92.350 E4.11972
G1 X81.739 Y88.395 E4.17200
G1 X81.739 Y88.050 F6000.000
G1 X83.372 Y91.421 F6000.000
G1 X83.332 Y91.461 E4.17321 F1628.092
G1 X82.628 Y91.460 E4.18835
G1 X83.372 Y90.717 E4.21098
G1 X83.372 Y90.012 E4.22614
G1 X82.628 Y90.755 E4.24876
G1 X82.628 Y90.051 E4.26392
G1 X83.372 Y89.308 E4.28655
G1 X83.372 Y88.603 E4.30171
G1 X82.628 Y89.347 E4.32434
G1 X82.628 Y88.642 E4.33950
G1 X83.372 Y87.899 E4.36213
G1 X83.372 Y87.195 E4.37729
G1 X82.628 Y87.938 E4.39991
G1 X82.401 Y87.461 E4.41128
G1 X83.372 Y86.490 E4.44084
G1 X83.372 Y85.786 E4.45600
G1 X81.696 Y87.461 E4.50699
G1 X80.992 Y87.461 E4.52215
G1 X83.372 Y85.081 E4.59459
G1 X83.372 Y84.377 E4.60975
G1 X80.288 Y87.461 E4.70363
G1 X79.583 Y87.461 E4.71879
G1 X83.372 Y83.672 E4.83411
G1 X83.372 Y82.968 E4.84927
G1 X78.879 Y87.461 E4.98603
G1 X78.174 Y87.461 E5.00119
G1 X83.372 Y82.264 E5.15939
G1 X83.372 Y81.559 E5.17455
G1 X76.628 Y88.303 E5.37981
G1 X76.628 Y89.007 E5.39497
G1 X77.550 Y88.085 E5.42303
G1 X77.550 Y88.789 E5.43820
G1 X76.628 Y89.711 E5.46626
G1 X76.628 Y90.416 E5.48142
G1 X77.550 Y89.494 E5.50948
G1 X77.550 Y90.198 E5.52464
G1 X76.628 Y91.120 E5.55271
G1 X76.992 Y91.461 E5.56343
G1 X77.550 Y90.903 E5.58043
G1 X76.628 Y87.598 F6000.000
G1 X83.372 Y80.855 E5.78569 F1628.092
G1 X83.372 Y80.150 E5.80085
G1 X76.628 Y86.894 E6.00611
G1 X76.628 Y86.189 E6.02127
G1 X83.372 Y79.446 E6.22653
G1 X83.372 Y78.742 E6.24169
G1 X76.628 Y85.485 E6.44695
G1 X76.628 Y84.780 E6.46211
G1 X83.372 Y78.037 E6.66737
G1 X83.372 Y77.333 E6.68253
G1 X76.628 Y84.076 E6.88779
G1 X76.628 Y83.372 E6.90295
G1 X83.372 Y76.628 E7.10821
G1 X83.372 Y75.924 E7.12337
G1 X76.628 Y82.667 E7.32863
G1 X76.628 Y81.963 E7.34379
G1 X83.372 Y75.220 E7.54905
G1 X83.372 Y74.515 E7.56421
G1 X76.628 Y81.258 E7.76947
G1 X76.628 Y80.554 E7.78463
G1 X83.372 Y73.811 E7.98989
G1 X83.372 Y73.106 E8.00505
G1 X76.628 Y79.850 E8.21031
G1 X76.628 Y79.145 E8.22547
G1 X83.372 Y72.402 E8.43073
G1 X83.372 Y71.697 E8.44589
G1 X76.628 Y78.441 E8.65115
G1 X76.628 Y77.736 E8.66631
G1 X81.826 Y72.539 E8.82451
G1 X81.121 Y72.539 E8.83967
G1 X76.628 Y77.032 E8.97643
G1 X76.628 Y76.328 E8.99159
G1 X80.417 Y72.539 E9.10691
G1 X79.712 Y72.539 E9.12207
G1 X76.628 Y75.623 E9.21595
G1 X76.628 Y74.919 E9.23111
G1 X79.008 Y72.539 E9.30354
G1 X78.304 Y72.539 E9.31870
G1 X76.628 Y74.214 E9.36970
G1 X76.628 Y73.510 E9.38486
G1 X77.599 Y72.539 E9.41441
G1 X77.550 Y71.884 E9.42856
G1 X76.628 Y72.805 E9.45662
G1 X76.628 Y72.101 E9.47178
G1 X77.550 Y71.179 E9.49985
G1 X77.550 Y70.475 E9.51501
G1 X76.628 Y71.397 E9.54307
G1 X76.628 Y70.692 E9.55823
G1 X77.550 Y69.770 E9.58630
G1 X77.550 Y69.066 E9.60146
G1 X76.628 Y69.988 E9.62952
G1 X76.628 Y69.283 E9.64468
G1 X77.373 Y68.539 E9.66734
G1 X76.668 Y68.539 E9.68250
G1 X76.628 Y68.579 E9.68372
G1 F1800.000 E8.68372
G92 E0
G1 X82.628 Y68.919 F6000.000
G1 E1.00000 F1800.000
G1 X83.008 Y68.539 E1.01156 F1628.092
G1 X83.372 Y68.880 E1.02228
G1 X82.628 Y69.623 E1.04491
G1 X82.628 Y70.328 E1.06007
G1 X83.372 Y69.584 E1.08270
G1 X83.372 Y70.289 E1.09786
G1 X82.628 Y71.032 E1.12048
G1 X82.628 Y71.736 E1.13565
G1 X83.372 Y70.993 E1.15827
G1 F1800.000 E0.15827
G92 E0
G1 Z0.300 F6000.000
G1 X82.339 Y87.750 F6000.000
G1 E1.00000 F1800.000
G1 X77.839 Y87.750 E1.05948 F813.418
G1 X77.839 Y91.750 E1.11234
G1 X76.339 Y91.750 E1.13217
G1 X76.339 Y68.250 E1.44277
G1 X77.839 Y68.250 E1.46260
G1 X77.839 Y72.250 E1.51546
G1 X82.339 Y72.250 E1.57494
G1 X82.339 Y68.250 E1.62781
G1 X83.661 Y68.250 E1.64527
G1 X83.661 Y91.750 E1.95587
G1 X82.339 Y91.750 E1.97334
G1 X82.339 Y87.795 E2.02561
G1 X82.039 Y88.050 F6000.000
G1 X78.139 Y88.050 E2.07716 F813.418
G1 X78.139 Y92.050 E2.13003
G1 X76.039 Y92.050 E2.15778
G1 X76.039 Y67.950 E2.47631
G1 X78.139 Y67.950 E2.50407
G1 X78.139 Y71.950 E2.55694
G1 X82.039 Y71.950 E2.60848
G1 X82.039 Y67.950 E2.66135
G1 X83.961 Y67.950 E2.68674
G1 X83.961 Y92.050 E3.00527
G1 X82.039 Y92.050 E3.03067
G1 X82.039 Y88.095 E3.08294
G1 X81.739 Y88.350 F6000.000
G1 X78.439 Y88.350 E3.12656 F600.000
G1 X78.439 Y92.350 E3.17943
G1 X75.739 Y92.350 E3.21511
G1 X75.739 Y67.650 E3.54157
G1 X78.439 Y67.650 E3.57726
G1 X78.439 Y71.650 E3.63013
G1 X81.739 Y71.650 E3.67374
G1 X81.739 Y67.650 E3.72661
G1 X84.261 Y67.650 E3.75994
G1 X84.261 Y92.350 E4.08640
G1 X81.739 Y92.350 E4.11972
G1 X81.739 Y88.395 E4.17200
G1 X81.739 Y88.050 F6000.000
G1 X81.826 Y87.461 F6000.000
G1 X76.628 Y82.264 E4.33020 F1626.835
G1 X76.628 Y82.968 E4.34536
G1 X81.121 Y87.461 E4.48212
G1 X80.417 Y87.461 E4.49728
G1 X76.628 Y83.672 E4.61260
G1 X76.628 Y84.377 E4.62776
G1 X79.712 Y87.461 E4.72163
G1 X79.008 Y87.461 E4.73680
G1 X76.628 Y85.081 E4.80923
G1 X76.628 Y85.786 E4.82439
G1 X78.304 Y87.461 E4.87539
G1 X77.599 Y87.461 E4.89055
G1 X76.628 Y86.490 E4.92010
G1 X76.628 Y87.195 E4.93526
G1 X77.550 Y88.116 E4.96332
G1 X77.550 Y88.821 E4.97849
G1 X76.628 Y87.899 E5.00655
G1 X76.628 Y88.603 E5.02171
G1 X77.550 Y89.525 E5.04977
G1 X77.550 Y90.230 E5.06493
G1 X76.628 Y89.308 E5.09300
G1 X76.628 Y90.012 E5.10816
G1 X77.550 Y90.934 E5.13622
G1 X77.373 Y91.461 E5.14819
G1 X76.628 Y90.717 E5.17085
G1 X76.628 Y91.421 E5.18601
G1 X76.668 Y91.461 E5.18723
G1 F1800.000 E4.18723
G92 E0
G1 X82.628 Y91.081 F6000.000
G1 E1.00000 F1800.000
G1 X83.008 Y91.461 E1.01156 F1626.835
G1 X83.372 Y91.120 E1.02228
G1 X82.628 Y90.377 E1.04491
G1 X82.628 Y89.672 E1.06007
