; generated by Slic3r 1.1.7 on 2015-04-21 at 18:30:29

; perimeters extrusion width = 0.30mm
; infill extrusion width = 0.37mm
; solid infill extrusion width = 0.37mm
; top infill extrusion width = 0.37mm

G21 ; set units to millimeters
M107
M190 S65 ; wait for bed temperature to be reached
M104 S205 ; set temperature
G28 ; home all axes
G1 Z5 F5000 ; lift nozzle

M109 S205 ; wait for temperature to be reached
G90 ; use absolute coordinates
G92 E0
M82 ; use absolute distances for extrusion
G1 F1800.000 E-1.00000
G92 E0
G1 Z0.300 F6000.000
G1 X42.168 Y42.086 F6000.000
G1 E1.00000 F1800.000
G1 X43.188 Y41.064 E1.30665 F1080.000
G1 X45.453 Y39.905 E1.84703
G1 X47.717 Y39.507 E2.33516
G1 X103.078 Y37.712 E14.09891
G1 X111.899 Y37.712 E15.97238
G1 X114.413 Y38.110 E16.51276
G1 X116.680 Y39.263 E17.05314 F1080.000
G1 X118.481 Y41.061 E17.59351
G1 X119.639 Y43.326 E18.13389
G1 X120.042 Y45.830 E18.67252
G1 X120.161 Y86.063 E27.21722
G1 X120.161 Y111.063 E32.52669
G1 X119.764 Y113.577 E33.06706
G1 X118.610 Y115.844 E33.60744
G1 X116.812 Y117.645 E34.14782
G1 X114.547 Y118.803 E34.68820
G1 X112.611 Y119.184 E35.10731
G1 X69.731 Y122.288 E44.23782
G1 X63.231 Y122.288 E45.61828
G1 X60.718 Y121.890 E46.15865
G1 X58.450 Y120.737 E46.69903
G1 X56.576 Y118.836 E47.26594
G1 X49.576 Y108.904 E49.84651
G1 X48.353 Y106.272 E50.46284
G1 X40.103 Y74.704 E57.39241
G1 X39.839 Y72.646 E57.83325
G1 X39.839 Y47.646 E63.14272
G1 X40.236 Y45.132 E63.68310
G1 X41.390 Y42.865 E64.22348
G1 X42.136 Y42.118 E64.44765
G1 X42.531 Y42.469 F6000.000
G1 X43.706 Y41.354 E64.79165 F1080.000
G1 X45.936 Y40.319 E65.31384
G1 X47.734 Y40.043 E65.70014
G1 X103.078 Y38.248 E77.46020
G1 X111.899 Y38.248 E79.33367
G1 X114.326 Y38.645 E79.85586
G1 X116.499 Y39.796 E80.37805 F1080.000
G1 X118.191 Y41.579 E80.90023
G1 X119.226 Y43.809 E81.42242
G1 X119.506 Y45.832 E81.85604
G1 X119.626 Y86.063 E90.40040
G1 X119.626 Y111.063 E95.70987
G1 X119.228 Y113.490 E96.23206
G1 X118.078 Y115.663 E96.75425
G1 X116.294 Y117.355 E97.27643
G1 X114.064 Y118.390 E97.79862
G1 X112.572 Y118.650 E98.12027
G1 X69.731 Y121.752 E107.24251
G1 X63.231 Y121.752 E108.62297
G1 X60.805 Y121.355 E109.14516
G1 X58.632 Y120.204 E109.66735
G1 X57.014 Y118.528 E110.16225
G1 X50.014 Y108.596 E112.74282
G1 X48.872 Y106.137 E113.31861
G1 X40.622 Y74.569 E120.24818
G1 X40.374 Y72.646 E120.66002
G1 X40.374 Y47.646 E125.96949
G1 X40.772 Y45.219 E126.49168
G1 X41.922 Y43.046 E127.01387
G1 X42.498 Y42.500 E127.18249
G1 X42.878 Y42.857 F6000.000
G1 X44.222 Y41.656 E127.56525 F1080.000
G1 X46.412 Y40.751 E128.06860
G1 X47.751 Y40.578 E128.35544
G1 X103.078 Y38.783 E140.11180
G1 X111.899 Y38.783 E141.98527
G1 X114.236 Y39.180 E142.48861
G1 X116.310 Y40.327 E142.99195 F1080.000
G1 X117.888 Y42.095 E143.49529
G1 X118.794 Y44.285 E143.99864
G1 X118.971 Y45.833 E144.32958
G1 X119.090 Y86.063 E152.87361
G1 X119.090 Y111.063 E158.18308
G1 X118.693 Y113.400 E158.68642
G1 X117.546 Y115.474 E159.18976
G1 X115.778 Y117.053 E159.69310
G1 X112.533 Y118.116 E160.41841
G1 X69.731 Y121.217 E169.53238
G1 X63.231 Y121.217 E170.91284
G1 X60.895 Y120.820 E171.41618
G1 X58.821 Y119.673 E171.91952
G1 X57.451 Y118.219 E172.34363
G1 X50.451 Y108.287 E174.92420
G1 X49.390 Y106.002 E175.45945
G1 X41.140 Y74.433 E182.38902
G1 X40.910 Y72.646 E182.77186
G1 X40.910 Y47.646 E188.08133
G1 X41.307 Y45.309 E188.58467
G1 X42.454 Y43.235 E189.08802
G1 X42.844 Y42.887 E189.19904
G1 X43.205 Y43.249 F6000.000
G1 X44.735 Y41.973 E189.62212 F1080.000
G1 X47.769 Y41.113 E190.29192
G1 X103.078 Y39.319 E202.04458
G1 X111.899 Y39.319 E203.91805
G1 X114.142 Y39.716 E204.40181
G1 X116.113 Y40.858 E204.88558 F1080.000
G1 X117.572 Y42.608 E205.36934
G1 X118.435 Y45.835 E206.07883
G1 X118.554 Y86.063 E214.62252
G1 X118.554 Y111.063 E219.93199
G1 X118.157 Y113.306 E220.41575
G1 X117.015 Y115.277 E220.89951
G1 X115.265 Y116.736 E221.38327
G1 X112.494 Y117.582 E221.99871
G1 X69.731 Y120.681 E231.10441
G1 X63.231 Y120.681 E232.48487
G1 X60.988 Y120.284 E232.96863
G1 X59.018 Y119.142 E233.45239
G1 X57.889 Y117.911 E233.80707
G1 X50.889 Y107.979 E236.38764
G1 X49.908 Y105.866 E236.88234
G1 X41.658 Y74.298 E243.81191
G1 X41.446 Y72.646 E244.16576
G1 X41.446 Y47.646 E249.47523
G1 X41.843 Y45.403 E249.95899
G1 X42.985 Y43.432 E250.44275
G1 X43.170 Y43.278 E250.49388
G1 F1800.000 E249.49388
G92 E0
G1 X88.296 Y67.274 F6000.000
G1 E1.00000 F1800.000
G1 X82.553 Y67.274 E2.21958 F540.000
G1 X82.553 Y71.274 E3.06910
G1 X61.296 Y71.274 E7.58374
G1 X61.296 Y67.274 E8.43326
G1 X55.553 Y67.274 E9.65284
G1 X55.553 Y71.274 E10.50235
G1 X49.352 Y71.274 E11.81928
G1 X49.352 Y49.017 E16.54630
G1 X55.553 Y49.017 E17.86323
G1 X55.553 Y53.017 E18.71275
G1 X61.296 Y53.017 E19.93233
G1 X61.296 Y49.017 E20.78184
G1 X82.553 Y49.017 E25.29649
G1 X82.553 Y53.017 E26.14600
G1 X88.296 Y53.017 E27.36558
G1 X88.296 Y49.017 E28.21510
G1 X96.610 Y49.017 E29.98086
G1 X96.610 Y71.274 E34.70789
G1 X88.296 Y71.274 E36.47365
G1 X88.296 Y67.319 E37.31361
G1 X87.760 Y67.810 F6000.000
G1 X83.089 Y67.810 E38.30568 F540.000
G1 X83.089 Y71.810 E39.15519
G1 X60.760 Y71.810 E43.89735
G1 X60.760 Y67.810 E44.74686
G1 X56.089 Y67.810 E45.73894
G1 X56.089 Y71.810 E46.58845
G1 X48.817 Y71.810 E48.13288
G1 X48.817 Y48.481 E53.08742
G1 X56.089 Y48.481 E54.63185
G1 X56.089 Y52.481 E55.48137
G1 X60.760 Y52.481 E56.47344
G1 X60.760 Y48.481 E57.32296
G1 X83.089 Y48.481 E62.06511
G1 X83.089 Y52.481 E62.91463
G1 X87.760 Y52.481 E63.90670
G1 X87.760 Y48.481 E64.75621
G1 X97.146 Y48.481 E66.74948
G1 X97.146 Y71.810 E71.70402
G1 X87.760 Y71.810 E73.69729
G1 X87.760 Y67.855 E74.53725
G1 X87.225 Y68.346 F6000.000
G1 X83.625 Y68.346 E75.30181 F378.000
G1 X83.625 Y72.346 E76.15132
G1 X60.225 Y72.346 E81.12099
G1 X60.225 Y68.346 E81.97050
G1 X56.625 Y68.346 E82.73507
G1 X56.625 Y72.346 E83.58458
G1 X48.281 Y72.346 E85.35652
G1 X48.281 Y47.946 E90.53857
G1 X56.625 Y47.946 E92.31051
G1 X56.625 Y51.946 E93.16002
G1 X60.225 Y51.946 E93.92459
G1 X60.225 Y47.946 E94.77410
G1 X83.625 Y47.946 E99.74377
G1 X83.625 Y51.946 E100.59328
G1 X87.225 Y51.946 E101.35785
G1 X87.225 Y47.946 E102.20736
G1 X97.681 Y47.946 E104.42814
G1 X97.681 Y72.346 E109.61018
G1 X87.225 Y72.346 E111.83096
G1 X87.225 Y68.391 E112.67092
G1 X87.225 Y68.046 F6000.000
G1 X88.664 Y70.865 F6000.000
G1 X88.705 Y70.906 E112.68327 F1080.000
G1 X89.469 Y70.906 E112.84544
G1 X88.664 Y70.101 E113.08714
G1 X88.664 Y69.338 E113.24932
G1 X90.232 Y70.906 E113.72036
G1 X90.996 Y70.906 E113.88254
G1 X88.664 Y68.574 E114.58294
G1 X88.664 Y67.810 E114.74512
G1 X91.760 Y70.906 E115.67487
G1 X96.202 Y49.385 F6000.000
G1 X96.242 Y49.425 E115.68688 F1080.000
G1 X96.242 Y50.189 E115.84906
G1 X95.438 Y49.385 E116.09042
G1 X94.674 Y49.385 E116.25260
G1 X96.242 Y50.952 E116.72332
G1 X96.242 Y51.716 E116.88549
G1 X93.911 Y49.385 E117.58556
G1 X93.147 Y49.385 E117.74774
G1 X96.242 Y52.480 E118.67715
G1 X96.242 Y53.243 E118.83933
G1 X92.384 Y49.385 E119.99810
G1 X91.620 Y49.385 E120.16028
G1 X96.242 Y54.007 E121.54840
G1 X96.242 Y54.770 E121.71057
G1 X90.856 Y49.385 E123.32805
G1 X90.093 Y49.385 E123.49022
G1 X96.242 Y55.534 E125.33705
G1 X96.242 Y56.298 E125.49922
G1 X89.329 Y49.385 E127.57540
G1 X88.664 Y49.484 E127.71819
G1 X96.242 Y57.061 E129.99411
G1 X96.242 Y57.825 E130.15629
G1 X88.664 Y50.247 E132.43221
G1 X88.664 Y51.011 E132.59439
G1 X96.242 Y58.588 E134.87031
G1 X96.242 Y59.352 E135.03249
G1 X88.664 Y51.774 E137.30841
G1 X88.664 Y52.538 E137.47059
G1 X96.242 Y60.116 E139.74652
G1 X96.242 Y60.879 E139.90869
G1 X88.664 Y53.302 E142.18462
G1 X87.984 Y53.385 E142.33017
G1 X96.242 Y61.643 E144.81041
G1 X96.242 Y62.407 E144.97258
G1 X87.220 Y53.385 E147.68217
G1 X86.457 Y53.385 E147.84435
G1 X96.242 Y63.170 E150.78329
G1 X96.242 Y63.934 E150.94547
G1 X85.693 Y53.385 E154.11376
G1 X84.929 Y53.385 E154.27594
G1 X96.242 Y64.697 E157.67358
G1 X96.242 Y65.461 E157.83576
G1 X84.166 Y53.385 E161.46275
G1 X83.402 Y53.385 E161.62493
G1 X96.242 Y66.225 E165.48128
G1 X96.242 Y66.988 E165.64345
G1 X78.639 Y49.385 E170.93054
G1 X79.402 Y49.385 E171.09272
G1 X82.185 Y52.168 E171.92855
G1 X82.185 Y51.404 E172.09073
G1 X80.166 Y49.385 E172.69721
G1 X80.929 Y49.385 E172.85938
G1 X82.185 Y50.641 E173.23651
G1 X82.185 Y49.877 E173.39869
G1 X81.693 Y49.385 E173.54646
G1 X77.875 Y49.385 F6000.000
G1 X96.242 Y67.752 E179.06291 F1080.000
G1 X96.242 Y68.515 E179.22508
G1 X77.111 Y49.385 E184.97088
G1 X76.348 Y49.385 E185.13306
G1 X96.242 Y69.279 E191.10820
G1 X96.242 Y70.043 E191.27038
G1 X75.584 Y49.385 E197.47488
G1 X74.820 Y49.385 E197.63705
G1 X96.242 Y70.806 E204.07091
G1 X95.578 Y70.906 E204.21349
G1 X74.057 Y49.385 E210.67728
G1 X73.293 Y49.385 E210.83945
G1 X94.814 Y70.906 E217.30324
G1 X94.051 Y70.906 E217.46542
G1 X72.530 Y49.385 E223.92920
G1 X71.766 Y49.385 E224.09138
G1 X93.287 Y70.906 E230.55516
G1 X92.523 Y70.906 E230.71734
G1 X71.002 Y49.385 E237.18112
G1 X70.239 Y49.385 E237.34330
G1 X87.760 Y66.906 E242.60568
G1 X86.996 Y66.906 E242.76786
G1 X69.475 Y49.385 E248.03025
G1 X68.712 Y49.385 E248.19242
G1 X86.232 Y66.906 E253.45481
G1 X85.469 Y66.906 E253.61699
G1 X67.948 Y49.385 E258.87938
G1 X67.184 Y49.385 E259.04155
G1 X84.705 Y66.906 E264.30394
G1 X83.942 Y66.906 E264.46612
G1 X66.421 Y49.385 E269.72851
G1 X65.657 Y49.385 E269.89068
G1 X83.178 Y66.906 E275.15307
G1 X82.414 Y66.906 E275.31525
G1 X64.893 Y49.385 E280.57764
G1 X64.130 Y49.385 E280.73981
G1 X82.185 Y67.440 E286.16267
G1 X82.185 Y68.204 E286.32484
G1 X63.366 Y49.385 E291.97705
G1 X62.603 Y49.385 E292.13923
G1 X82.185 Y68.967 E298.02079
G1 X82.185 Y69.731 E298.18296
G1 X61.839 Y49.385 E304.29387
G1 X61.664 Y49.974 E304.42431
G1 X82.185 Y70.495 E310.58774
G1 X81.833 Y70.906 E310.70276
G1 X61.664 Y50.737 E316.76037
G1 X61.664 Y51.501 E316.92254
G1 X81.069 Y70.906 E322.75080
G1 X80.305 Y70.906 E322.91297
G1 X61.664 Y52.265 E328.51188
G1 X61.664 Y53.028 E328.67405
G1 X79.542 Y70.906 E334.04361
G1 X78.778 Y70.906 E334.20578
G1 X61.257 Y53.385 E339.46817
G1 X60.494 Y53.385 E339.63035
G1 X78.015 Y70.906 E344.89274
G1 X77.251 Y70.906 E345.05491
G1 X59.730 Y53.385 E350.31730
G1 X58.966 Y53.385 E350.47948
G1 X76.487 Y70.906 E355.74186
G1 X75.724 Y70.906 E355.90404
G1 X58.203 Y53.385 E361.16643
G1 X57.439 Y53.385 E361.32860
G1 X74.960 Y70.906 E366.59099
G1 X74.196 Y70.906 E366.75317
G1 X56.676 Y53.385 E372.01556
G1 X55.912 Y53.385 E372.17773
G1 X73.433 Y70.906 E377.44012
G1 X72.669 Y70.906 E377.60230
G1 X51.148 Y49.385 E384.06608
G1 X51.912 Y49.385 E384.22826
G1 X55.185 Y52.658 E385.21131
G1 X55.185 Y51.894 E385.37349
G1 X52.676 Y49.385 E386.12719
G1 X53.439 Y49.385 E386.28937
G1 X55.185 Y51.131 E386.81372
G1 X55.185 Y50.367 E386.97590
G1 X54.203 Y49.385 E387.27090
G1 X54.966 Y49.385 E387.43307
G1 X55.185 Y49.604 E387.49872
G1 X50.385 Y49.385 F6000.000
G1 X71.906 Y70.906 E393.96251 F1080.000
G1 X71.142 Y70.906 E394.12468
G1 X49.721 Y49.485 E400.55854
G1 X49.721 Y50.248 E400.72071
G1 X70.378 Y70.906 E406.92521
G1 X69.615 Y70.906 E407.08739
G1 X49.721 Y51.012 E413.06253
G1 X49.721 Y51.776 E413.22471
G1 X68.851 Y70.906 E418.97050
G1 X68.088 Y70.906 E419.13268
G1 X49.721 Y52.539 E424.64913
G1 X49.721 Y53.303 E424.81130
G1 X67.324 Y70.906 E430.09839
G1 X66.560 Y70.906 E430.26057
G1 X49.721 Y54.066 E435.31831
G1 X49.721 Y54.830 E435.48049
G1 X65.797 Y70.906 E440.30888
G1 X65.033 Y70.906 E440.47106
G1 X61.664 Y67.537 E441.48293
G1 X61.664 Y68.301 E441.64511
G1 X64.269 Y70.906 E442.42764
G1 X63.506 Y70.906 E442.58981
G1 X61.664 Y69.064 E443.14299
G1 X61.664 Y69.828 E443.30516
G1 X62.742 Y70.906 E443.62899
G1 X61.979 Y70.906 E443.79117
G1 X61.664 Y70.591 E443.88564
G1 X61.033 Y66.906 F6000.000
G1 X49.721 Y55.594 E447.28328 F1080.000
G1 X49.721 Y56.357 E447.44546
G1 X60.269 Y66.906 E450.61375
G1 X59.506 Y66.906 E450.77593
G1 X49.721 Y57.121 E453.71487
G1 X49.721 Y57.885 E453.87704
G1 X58.742 Y66.906 E456.58663
G1 X57.979 Y66.906 E456.74881
G1 X49.721 Y58.648 E459.22905
G1 X49.721 Y59.412 E459.39122
G1 X57.215 Y66.906 E461.64211
G1 X56.451 Y66.906 E461.80429
G1 X49.721 Y60.175 E463.82582
G1 X49.721 Y60.939 E463.98800
G1 X55.688 Y66.906 E465.78018
G1 X55.185 Y67.167 E465.90048
G1 X49.721 Y61.703 E467.54165
G1 X49.721 Y62.466 E467.70383
G1 X55.185 Y67.930 E469.34500
G1 X55.185 Y68.694 E469.50718
G1 X49.721 Y63.230 E471.14835
G1 X49.721 Y63.993 E471.31053
G1 X55.185 Y69.458 E472.95170
G1 X55.185 Y70.221 E473.11388
G1 X49.721 Y64.757 E474.75506
G1 X49.721 Y65.521 E474.91723
G1 X55.106 Y70.906 E476.53470
G1 X54.342 Y70.906 E476.69688
G1 X49.721 Y66.284 E478.08500
G1 X49.721 Y67.048 E478.24718
G1 X53.579 Y70.906 E479.40595
G1 X52.815 Y70.906 E479.56812
G1 X49.721 Y67.812 E480.49754
G1 X49.721 Y68.575 E480.65972
G1 X52.052 Y70.906 E481.35979
G1 X51.288 Y70.906 E481.52196
G1 X49.721 Y69.339 E481.99268
G1 X49.721 Y70.102 E482.15486
G1 X50.524 Y70.906 E482.39622
G1 X49.761 Y70.906 E482.55840
G1 X49.721 Y70.866 E482.57041
G1 F1800.000 E481.57041
G92 E0
G1 X64.602 Y102.842 F6000.000
G1 E1.00000 F1800.000
G1 X57.602 Y102.842 E2.48665 F540.000
G1 X57.602 Y94.924 E4.16837
G1 X57.703 Y93.396 E4.49349
G1 X57.992 Y91.939 E4.80906
G1 X58.470 Y90.532 E5.12463
G1 X59.127 Y89.199 E5.44020
G1 X59.953 Y87.964 E5.75576
G1 X60.932 Y86.847 E6.07133
G1 X62.050 Y85.867 E6.38690
G1 X63.285 Y85.042 E6.70247
G1 X64.618 Y84.384 E7.01804
G1 X66.025 Y83.907 E7.33361
G1 X67.482 Y83.617 E7.64917
G1 X69.010 Y83.517 E7.97429
G1 X88.360 Y83.517 E12.08390
G1 X88.360 Y94.774 E14.47476
G1 X75.163 Y94.774 E17.27747
G1 X68.360 Y101.578 E19.32082
G1 X68.360 Y112.774 E21.69877
G1 X64.602 Y112.774 E22.49679
G1 X64.602 Y102.887 E24.59655
G1 X64.067 Y103.378 F6000.000
G1 X57.067 Y103.378 E26.08320 F540.000
G1 X57.067 Y94.906 E27.88240
G1 X57.170 Y93.326 E28.21870
G1 X57.474 Y91.800 E28.54917
G1 X57.974 Y90.327 E28.87965
G1 X58.662 Y88.931 E29.21014
G1 X59.527 Y87.637 E29.54062
G1 X60.553 Y86.467 E29.87110
G1 X61.723 Y85.441 E30.20157
G1 X63.017 Y84.577 E30.53205
G1 X64.412 Y83.888 E30.86254
G1 X65.886 Y83.388 E31.19302
G1 X67.412 Y83.085 E31.52349
G1 X68.992 Y82.981 E31.85979
G1 X88.896 Y82.981 E36.08688
G1 X88.896 Y95.310 E38.70525
G1 X75.385 Y95.310 E41.57459
G1 X68.896 Y101.799 E43.52370
G1 X68.896 Y113.310 E45.96829
G1 X64.067 Y113.310 E46.99382
G1 X64.067 Y103.423 E49.09358
G1 X63.531 Y103.914 F6000.000
G1 X56.531 Y103.914 E50.58023 F378.000
G1 X56.531 Y94.889 E52.49691
G1 X56.638 Y93.256 E52.84438
G1 X56.955 Y91.661 E53.18977
G1 X57.478 Y90.121 E53.53517
G1 X58.198 Y88.663 E53.88056
G1 X59.101 Y87.310 E54.22595
G1 X60.173 Y86.088 E54.57134
G1 X61.396 Y85.015 E54.91673
G1 X62.748 Y84.112 E55.26212
G1 X64.207 Y83.393 E55.60752
G1 X65.747 Y82.870 E55.95291
G1 X67.342 Y82.553 E56.29830
G1 X68.975 Y82.446 E56.64578
G1 X89.431 Y82.446 E60.99034
G1 X89.431 Y95.846 E63.83622
G1 X75.607 Y95.846 E66.77220
G1 X69.431 Y102.021 E68.62707
G1 X69.431 Y113.846 E71.13830
G1 X63.531 Y113.846 E72.39133
G1 X63.531 Y103.959 E74.49109
G1 X63.531 Y103.614 F6000.000
G1 X64.296 Y102.474 F6000.000
G1 X57.971 Y96.149 E76.39085 F1080.000
G1 X57.971 Y96.917 E76.55398
G1 X63.528 Y102.474 E78.22305
G1 X62.760 Y102.474 E78.38617
G1 X57.971 Y97.685 E79.82454
G1 X57.971 Y98.453 E79.98767
G1 X61.992 Y102.474 E81.19535
G1 X61.224 Y102.474 E81.35848
G1 X57.971 Y99.221 E82.33546
G1 X57.971 Y99.989 E82.49859
G1 X60.456 Y102.474 E83.24488
G1 X59.687 Y102.474 E83.40800
G1 X57.971 Y100.757 E83.92360
G1 X57.971 Y101.526 E84.08673
G1 X58.919 Y102.474 E84.37163
G1 X58.151 Y102.474 E84.53476
G1 X57.971 Y102.294 E84.58897
G1 F1800.000 E83.58897
G92 E0
G1 X64.971 Y112.366 F6000.000
G1 E1.00000 F1800.000
G1 X65.011 Y112.406 E1.01201 F1080.000
G1 X65.779 Y112.406 E1.17514
G1 X64.971 Y111.598 E1.41785
G1 X64.971 Y110.830 E1.58097
G1 X66.547 Y112.406 E2.05438
G1 X67.315 Y112.406 E2.21750
G1 X64.971 Y110.062 E2.92160
G1 X64.971 Y109.294 E3.08472
G1 X67.992 Y112.315 E3.99205
G1 X67.992 Y111.546 E4.15518
G1 X64.971 Y108.526 E5.06251
G1 X64.971 Y107.757 E5.22563
G1 X67.992 Y110.778 E6.13296
G1 X67.992 Y110.010 E6.29608
G1 X64.971 Y106.989 E7.20341
G1 X64.971 Y106.221 E7.36654
G1 X67.992 Y109.242 E8.27387
