; generated by Slic3r 1.1.7 on 2015-03-28 at 12:32:23

; perimeters extrusion width = 0.40mm
; infill extrusion width = 1.28mm
; solid infill extrusion width = 0.68mm
; top infill extrusion width = 0.68mm

G21 ; set units to millimeters
M107
M190 S60 ; wait for bed temperature to be reached
M104 S185 ; set temperature
G28 ; home all axes
G1 Z5 F5000 ; lift nozzle

M109 S185 ; wait for temperature to be reached
G90 ; use absolute coordinates
G92 E0
M82 ; use absolute distances for extrusion
G1 F1800.000 E-1.00000
G92 E0
G1 Z0.400 F6000.000
G1 X69.177 Y70.720 F6000.000
G1 E1.00000 F1800.000
G1 X70.933 Y69.220 E1.29059 F756.317
G1 X73.093 Y68.405 E1.58119
G1 X74.350 Y68.286 E1.74010
G1 X85.650 Y68.286 E3.16225
G1 X87.925 Y68.683 E3.45285
G1 X89.930 Y69.827 E3.74344 F756.317
G1 X91.430 Y71.583 E4.03403
G1 X92.245 Y73.743 E4.32463
G1 X92.364 Y75.000 E4.48354
G1 X92.364 Y85.000 E5.74209
G1 X91.967 Y87.275 E6.03268
G1 X90.823 Y89.280 E6.32327
G1 X89.067 Y90.780 E6.61386
G1 X86.907 Y91.595 E6.90446
G1 X85.650 Y91.714 E7.06338
G1 X74.350 Y91.714 E8.48553
G1 X72.075 Y91.317 E8.77612
G1 X70.070 Y90.173 E9.06671
G1 X68.570 Y88.417 E9.35731
G1 X67.755 Y86.257 E9.64790
G1 X67.636 Y85.000 E9.80682
G1 X67.636 Y75.000 E11.06536
G1 X68.033 Y72.725 E11.35595
G1 X69.147 Y70.772 E11.63899
G1 F1800.000 E10.63899
G92 E0
G1 X83.822 Y83.172 F6000.000
G1 E1.00000 F1800.000
G1 X76.178 Y83.172 E1.96195 F600.000
G1 X76.178 Y76.828 E2.76029
G1 X83.822 Y76.828 E3.72223
G1 X83.822 Y83.112 E4.51302
G1 X84.536 Y83.886 F6000.000
G1 X75.464 Y83.886 E5.65473 F600.000
G1 X75.464 Y76.114 E6.63283
G1 X84.536 Y76.114 E7.77454
G1 X84.536 Y83.826 E8.74508
G1 X85.250 Y84.600 F6000.000
G1 X74.750 Y84.600 E10.06655 F600.000
G1 X74.750 Y75.400 E11.22441
G1 X85.250 Y75.400 E12.54588
G1 X85.250 Y84.540 E13.69618
G1 X84.904 Y84.400 F6000.000
G1 X83.284 Y77.326 F6000.000
G1 X83.324 Y77.366 E13.70330 F756.317
G1 X83.324 Y78.449 E13.83963
G1 X82.201 Y77.326 E14.03955
G1 X81.117 Y77.326 E14.17589
G1 X83.324 Y79.533 E14.56861
G1 X83.324 Y80.616 E14.70494
G1 X80.034 Y77.326 E15.29046
G1 X78.951 Y77.326 E15.42680
G1 X83.324 Y81.699 E16.20512
G1 X83.216 Y82.674 E16.32857
G1 X77.868 Y77.326 E17.28041
G1 X76.784 Y77.326 E17.41674
G1 X82.132 Y82.674 E18.36858
G1 X81.049 Y82.674 E18.50491
G1 X76.676 Y78.301 E19.28324
G1 X76.676 Y79.384 E19.41957
G1 X79.966 Y82.674 E20.00509
G1 X78.883 Y82.674 E20.14142
G1 X76.676 Y80.467 E20.53415
G1 X76.676 Y81.551 E20.67048
G1 X77.799 Y82.674 E20.87040
G1 X76.716 Y82.674 E21.00673
G1 X76.676 Y82.634 E21.01385
M106 S255
M104 S180 ; set temperature
G1 F1800.000 E20.01385
G92 E0
G1 Z0.500 F6000.000
G1 X84.838 Y84.000 F6000.000
G1 E1.00000 F1800.000
G1 X75.162 Y84.000 E1.17050 F600.000
G1 X75.162 Y76.000 E1.31148
G1 X84.838 Y76.000 E1.48198
G1 X84.838 Y83.940 E1.62191
G1 X85.238 Y84.400 F6000.000
G1 X74.762 Y84.400 E1.80650 F600.000
G1 X74.762 Y75.600 E1.96158
G1 X85.238 Y75.600 E2.14618
G1 X85.238 Y84.340 E2.30020
G1 X85.638 Y84.800 F6000.000
G1 X74.362 Y84.800 E2.49890 F600.000
G1 X74.362 Y75.200 E2.66808
G1 X85.638 Y75.200 E2.86677
G1 X85.638 Y84.740 E3.03489
G1 X85.291 Y84.600 F6000.000
G1 X84.375 Y83.497 F6000.000
G1 X84.335 Y83.537 E3.03653 F741.981
G1 X83.351 Y83.537 E3.06508
G1 X84.375 Y82.513 E3.10710
G1 X84.375 Y81.529 E3.13565
G1 X82.367 Y83.537 E3.21804
G1 X81.383 Y83.537 E3.24659
G1 X84.375 Y80.545 E3.36935
G1 X84.375 Y79.561 E3.39790
G1 X80.399 Y83.537 E3.56104
G1 X79.415 Y83.537 E3.58959
G1 X84.375 Y78.577 E3.79310
G1 X84.375 Y77.593 E3.82165
G1 X78.431 Y83.537 E4.06554
G1 X77.447 Y83.537 E4.09409
G1 X84.375 Y76.609 E4.37835
G1 X83.537 Y76.463 E4.40302
G1 X76.463 Y83.537 E4.69330
G1 X75.625 Y83.391 E4.71796
G1 X82.553 Y76.463 E5.00223
G1 X81.569 Y76.463 E5.03077
G1 X75.625 Y82.407 E5.27466
G1 X75.625 Y81.423 E5.30321
G1 X80.585 Y76.463 E5.50673
G1 X79.601 Y76.463 E5.53528
G1 X75.625 Y80.439 E5.69842
G1 X75.625 Y79.455 E5.72696
G1 X78.617 Y76.463 E5.84973
G1 X77.633 Y76.463 E5.87828
G1 X75.625 Y78.471 E5.96067
G1 X75.625 Y77.487 E5.98922
G1 X76.649 Y76.463 E6.03123
G1 X75.665 Y76.463 E6.05978
G1 X75.625 Y76.503 E6.06142
G1 F1800.000 E5.06142
G92 E0
G1 Z0.600 F6000.000
G1 X84.912 Y84.000 F6000.000
G1 E1.00000 F1800.000
G1 X75.088 Y84.000 E1.17314 F600.000
G1 X75.088 Y76.000 E1.31412
G1 X84.912 Y76.000 E1.48727
G1 X84.912 Y83.940 E1.62719
G1 X85.312 Y84.400 F6000.000
G1 X74.688 Y84.400 E1.81443 F600.000
G1 X74.688 Y75.600 E1.96951
G1 X85.312 Y75.600 E2.15675
G1 X85.312 Y84.340 E2.31078
G1 X85.713 Y84.800 F6000.000
G1 X74.288 Y84.800 E2.51211 F600.000
G1 X74.288 Y75.200 E2.68129
G1 X85.713 Y75.200 E2.88263
G1 X85.713 Y84.740 E3.05075
G1 X85.366 Y84.600 F6000.000
G1 X84.335 Y76.463 F6000.000
G1 X84.375 Y76.503 E3.05239 F746.629
G1 X84.375 Y77.487 E3.08094
G1 X83.351 Y76.463 E3.12296
G1 X82.367 Y76.463 E3.15151
G1 X84.375 Y78.471 E3.23390
G1 X84.375 Y79.455 E3.26245
G1 X81.383 Y76.463 E3.38521
G1 X80.399 Y76.463 E3.41376
G1 X84.375 Y80.439 E3.57690
G1 X84.375 Y81.423 E3.60545
G1 X79.415 Y76.463 E3.80896
G1 X78.431 Y76.463 E3.83751
G1 X84.375 Y82.407 E4.08140
G1 X84.375 Y83.391 E4.10995
G1 X77.447 Y76.463 E4.39421
G1 X76.463 Y76.463 E4.42276
G1 X83.537 Y83.537 E4.71303
G1 X82.553 Y83.537 E4.74158
G1 X75.625 Y76.609 E5.02584
G1 X75.625 Y77.593 E5.05439
G1 X81.569 Y83.537 E5.29828
G1 X80.585 Y83.537 E5.32683
G1 X75.625 Y78.577 E5.53034
G1 X75.625 Y79.561 E5.55889
G1 X79.601 Y83.537 E5.72203
G1 X78.617 Y83.537 E5.75058
G1 X75.625 Y80.545 E5.87335
G1 X75.625 Y81.529 E5.90189
G1 X77.633 Y83.537 E5.98428
G1 X76.649 Y83.537 E6.01283
G1 X75.625 Y82.513 E6.05485
G1 X75.625 Y83.497 E6.08340
G1 X75.665 Y83.537 E6.08504
G1 F1800.000 E5.08504
G92 E0
G1 Z0.700 F6000.000
G1 X84.988 Y84.000 F6000.000
G1 E1.00000 F1800.000
G1 X75.012 Y84.000 E1.17579 F600.000
G1 X75.012 Y76.000 E1.31677
G1 X84.988 Y76.000 E1.49255
G1 X84.988 Y83.940 E1.63248
G1 X85.388 Y84.400 F6000.000
G1 X74.612 Y84.400 E1.82236 F600.000
G1 X74.612 Y75.600 E1.97744
G1 X85.388 Y75.600 E2.16733
G1 X85.388 Y84.340 E2.32135
G1 X85.787 Y84.800 F6000.000
G1 X74.212 Y84.800 E2.52533 F600.000
G1 X74.212 Y75.200 E2.69451
G1 X85.787 Y75.200 E2.89849
G1 X85.787 Y84.740 E3.06661
G1 X85.441 Y84.600 F6000.000
G1 X84.525 Y83.497 F6000.000
G1 X84.485 Y83.537 E3.06975 F600.000
G1 X82.702 Y83.537 E3.16844
G1 X84.525 Y81.715 E3.31115
G1 X84.525 Y79.932 E3.40984
G1 X80.919 Y83.537 E3.69213
G1 X79.137 Y83.537 E3.79082
G1 X84.525 Y78.149 E4.21268
G1 X84.429 Y76.463 E4.30620
G1 X77.354 Y83.537 E4.86011
G1 X75.571 Y83.537 E4.95880
G1 X82.646 Y76.463 E5.51271
G1 X80.863 Y76.463 E5.61140
G1 X75.475 Y81.851 E6.03326
G1 X75.475 Y80.068 E6.13195
G1 X79.081 Y76.463 E6.41424
G1 X77.298 Y76.463 E6.51293
G1 X75.475 Y78.285 E6.65564
G1 X75.475 Y76.503 E6.75433
G1 X75.515 Y76.463 E6.75746
G1 F1800.000 E5.75746
G92 E0
G1 Z0.800 F6000.000
G1 X85.062 Y84.000 F6000.000
G1 E1.00000 F1800.000
G1 X74.938 Y84.000 E1.17843 F600.000
G1 X74.938 Y76.000 E1.31941
G1 X85.062 Y76.000 E1.49784
G1 X85.062 Y83.940 E1.63777
G1 X85.463 Y84.400 F6000.000
G1 X74.538 Y84.400 E1.83029 F600.000
G1 X74.538 Y75.600 E1.98537
G1 X85.463 Y75.600 E2.17790
G1 X85.463 Y84.340 E2.33192
G1 X85.863 Y84.800 F6000.000
G1 X74.138 Y84.800 E2.53855 F600.000
G1 X74.138 Y75.200 E2.70773
G1 X85.863 Y75.200 E2.91435
G1 X85.863 Y84.740 E3.08247
G1 X85.516 Y84.600 F6000.000
G1 F1800.000 E2.08247
G92 E0
G1 Z0.900 F6000.000
G1 X85.138 Y84.000 F6000.000
G1 E1.00000 F1800.000
G1 X74.862 Y84.000 E1.18107 F600.000
G1 X74.862 Y76.000 E1.32205
G1 X85.138 Y76.000 E1.50313
G1 X85.138 Y83.940 E1.64305
G1 X85.537 Y84.400 F6000.000
G1 X74.462 Y84.400 E1.83822 F600.000
G1 X74.462 Y75.600 E1.99330
G1 X85.537 Y75.600 E2.18847
G1 X85.537 Y84.340 E2.34250
G1 X85.938 Y84.800 F6000.000
G1 X74.062 Y84.800 E2.55177 F600.000
G1 X74.062 Y75.200 E2.72094
G1 X85.938 Y75.200 E2.93021
G1 X85.938 Y84.740 E3.09833
G1 X85.591 Y84.600 F6000.000
G1 F1800.000 E2.09833
G92 E0
G1 Z1.000 F6000.000
G1 X85.213 Y84.000 F6000.000
G1 E1.00000 F1800.000
G1 X74.788 Y84.000 E1.18372 F600.000
G1 X74.788 Y76.000 E1.32470
G1 X85.213 Y76.000 E1.50841
G1 X85.213 Y83.940 E1.64834
G1 X85.613 Y84.400 F6000.000
G1 X74.388 Y84.400 E1.84615 F600.000
G1 X74.388 Y75.600 E2.00123
G1 X85.613 Y75.600 E2.19905
G1 X85.613 Y84.340 E2.35307
G1 X86.013 Y84.800 F6000.000
G1 X73.988 Y84.800 E2.56498 F600.000
G1 X73.988 Y75.200 E2.73416
G1 X86.013 Y75.200 E2.94607
G1 X86.013 Y84.740 E3.11419
G1 X85.666 Y84.600 F6000.000
G1 X84.560 Y76.463 F6000.000
G1 X84.600 Y76.503 E3.11733 F708.085
G1 X84.600 Y77.103 E3.15053
G1 X83.960 Y76.463 E3.20062
G1 X83.360 Y76.463 E3.23383
G1 X84.600 Y77.702 E3.33088
G1 X84.600 Y78.302 E3.36409
G1 X82.760 Y76.463 E3.50810
G1 X82.161 Y76.463 E3.54131
G1 X84.600 Y78.902 E3.73228
G1 X84.600 Y79.502 E3.76548
G1 X81.561 Y76.463 E4.00342
G1 X80.961 Y76.463 E4.03662
G1 X84.600 Y80.101 E4.32151
G1 X84.600 Y80.701 E4.35472
G1 X80.361 Y76.463 E4.68657
G1 X79.762 Y76.463 E4.71978
G1 X84.600 Y81.301 E5.09859
G1 X84.600 Y81.901 E5.13180
G1 X79.162 Y76.463 E5.55757
G1 X78.562 Y76.463 E5.59078
G1 X84.600 Y82.501 E6.06351
G1 X84.600 Y83.100 E6.09672
G1 X77.962 Y76.463 E6.61641
G1 X77.362 Y76.463 E6.64961
G1 X84.437 Y83.537 E7.20352
G1 X83.837 Y83.537 E7.23672
G1 X76.763 Y76.463 E7.79063
G1 X76.163 Y76.463 E7.82383
G1 X83.237 Y83.537 E8.37774
G1 X82.638 Y83.537 E8.41095
G1 X75.563 Y76.463 E8.96485
G1 X75.400 Y76.900 E8.99067
G1 X82.038 Y83.537 E9.51036
G1 X81.438 Y83.537 E9.54357
G1 X75.400 Y77.499 E10.01630
G1 X75.400 Y78.099 E10.04950
G1 X80.838 Y83.537 E10.47528
G1 X80.238 Y83.537 E10.50848
G1 X75.400 Y78.699 E10.88730
G1 X75.400 Y79.299 E10.92050
G1 X79.639 Y83.537 E11.25235
G1 X79.039 Y83.537 E11.28556
G1 X75.400 Y79.899 E11.57045
G1 X75.400 Y80.498 E11.60366
G1 X78.439 Y83.537 E11.84159
G1 X77.839 Y83.537 E11.87480
G1 X75.400 Y81.098 E12.06577
G1 X75.400 Y81.698 E12.09897
G1 X77.240 Y83.537 E12.24299
G1 X76.640 Y83.537 E12.27619
G1 X75.400 Y82.298 E12.37324
G1 X75.400 Y82.897 E12.40645
G1 X76.040 Y83.537 E12.45654
G1 X75.440 Y83.537 E12.48975
G1 X75.400 Y83.497 E12.49288
G1 F1800.000 E11.49288
G92 E0
G1 Z1.100 F6000.000
G1 X85.287 Y84.000 F6000.000
G1 E1.00000 F1800.000
G1 X74.712 Y84.000 E1.18636 F600.000
G1 X74.712 Y76.000 E1.32734
G1 X85.287 Y76.000 E1.51370
G1 X85.287 Y83.940 E1.65363
G1 X85.688 Y84.400 F6000.000
G1 X74.312 Y84.400 E1.85408 F600.000
G1 X74.312 Y75.600 E2.00916
G1 X85.688 Y75.600 E2.20962
G1 X85.688 Y84.340 E2.36364
G1 X86.088 Y84.800 F6000.000
G1 X73.912 Y84.800 E2.57820 F600.000
G1 X73.912 Y75.200 E2.74738
G1 X86.088 Y75.200 E2.96193
G1 X86.088 Y84.740 E3.13006
G1 X85.741 Y84.600 F6000.000
G1 F1800.000 E2.13006
G92 E0
G1 Z1.200 F6000.000
G1 X85.363 Y84.000 F6000.000
G1 E1.00000 F1800.000
G1 X74.638 Y84.000 E1.18900 F600.000
G1 X74.638 Y76.000 E1.32998
G1 X85.363 Y76.000 E1.51899
G1 X85.363 Y83.940 E1.65891
G1 X85.763 Y84.400 F6000.000
G1 X74.238 Y84.400 E1.86201 F600.000
G1 X74.238 Y75.600 E2.01709
G1 X85.763 Y75.600 E2.22020
G1 X85.763 Y84.340 E2.37422
G1 X86.162 Y84.800 F6000.000
G1 X73.838 Y84.800 E2.59142 F600.000
G1 X73.838 Y75.200 E2.76059
G1 X86.162 Y75.200 E2.97779
G1 X86.162 Y84.740 E3.14592
G1 X85.816 Y84.600 F6000.000
G1 F1800.000 E2.14592
G92 E0
G1 Z1.300 F6000.000
G1 X85.438 Y84.000 F6000.000
G1 E1.00000 F1800.000
G1 X74.562 Y84.000 E1.19165 F600.000
G1 X74.562 Y76.000 E1.33263
G1 X85.438 Y76.000 E1.52428
G1 X85.438 Y83.940 E1.66420
G1 X85.838 Y84.400 F6000.000
G1 X74.162 Y84.400 E1.86994 F600.000
G1 X74.162 Y75.600 E2.02502
G1 X85.838 Y75.600 E2.23077
G1 X85.838 Y84.340 E2.38479
G1 X86.238 Y84.800 F6000.000
G1 X73.762 Y84.800 E2.60463 F600.000
G1 X73.762 Y75.200 E2.77381
G1 X86.238 Y75.200 E2.99366
G1 X86.238 Y84.740 E3.16178
G1 X85.891 Y84.600 F6000.000
G1 X84.825 Y83.497 F6000.000
G1 X84.785 Y83.537 E3.16491 F735.138
G1 X84.190 Y83.537 E3.19782
G1 X84.825 Y82.903 E3.24749
G1 X84.825 Y82.308 E3.28040
G1 X83.596 Y83.537 E3.37662
G1 X83.001 Y83.537 E3.40952
G1 X84.825 Y81.714 E3.55228
G1 X84.825 Y81.120 E3.58519
G1 X82.407 Y83.537 E3.77449
G1 X81.813 Y83.537 E3.80740
G1 X84.825 Y80.525 E4.04324
G1 X84.825 Y79.931 E4.07615
G1 X81.218 Y83.537 E4.35853
G1 X80.624 Y83.537 E4.39144
G1 X84.825 Y79.336 E4.72036
G1 X84.825 Y78.742 E4.75327
G1 X80.029 Y83.537 E5.12873
G1 X79.435 Y83.537 E5.16164
G1 X84.825 Y78.147 E5.58364
G1 X84.825 Y77.553 E5.61655
G1 X78.840 Y83.537 E6.08510
G1 X78.246 Y83.537 E6.11801
G1 X84.825 Y76.959 E6.63309
G1 X84.726 Y76.463 E6.66108
G1 X77.652 Y83.537 E7.21498
G1 X77.057 Y83.537 E7.24789
G1 X84.132 Y76.463 E7.80180
G1 X83.537 Y76.463 E7.83471
G1 X76.463 Y83.537 E8.38861
G1 X75.868 Y83.537 E8.42152
G1 X82.943 Y76.463 E8.97543
G1 X82.348 Y76.463 E9.00834
G1 X75.274 Y83.537 E9.56224
G1 X75.175 Y83.041 E9.59023
G1 X81.754 Y76.463 E10.10531
G1 X81.160 Y76.463 E10.13822
G1 X75.175 Y82.447 E10.60677
G1 X75.175 Y81.853 E10.63968
G1 X80.565 Y76.463 E11.06168
G1 X79.971 Y76.463 E11.09459
G1 X75.175 Y81.258 E11.47005
G1 X75.175 Y80.664 E11.50296
G1 X79.376 Y76.463 E11.83188
G1 X78.782 Y76.463 E11.86479
G1 X75.175 Y80.069 E12.14717
G1 X75.175 Y79.475 E12.18008
G1 X78.187 Y76.463 E12.41592
G1 X77.593 Y76.463 E12.44883
G1 X75.175 Y78.880 E12.63813
G1 X75.175 Y78.286 E12.67104
G1 X76.999 Y76.463 E12.81379
G1 X76.404 Y76.463 E12.84670
G1 X75.175 Y77.692 E12.94292
G1 X75.175 Y77.097 E12.97583
G1 X75.810 Y76.463 E13.02550
G1 X75.215 Y76.463 E13.05841
G1 X75.175 Y76.503 E13.06154
G1 F1800.000 E12.06154
G92 E0
G1 Z1.400 F6000.000
G1 X85.513 Y84.000 F6000.000
G1 E1.00000 F1800.000
G1 X74.488 Y84.000 E1.19429 F600.000
G1 X74.488 Y76.000 E1.33527
G1 X85.513 Y76.000 E1.52956
G1 X85.513 Y83.940 E1.66949
G1 X85.912 Y84.400 F6000.000
G1 X74.088 Y84.400 E1.87787 F600.000
G1 X74.088 Y75.600 E2.03295
G1 X85.912 Y75.600 E2.24134
G1 X85.912 Y84.340 E2.39536
G1 X86.312 Y84.800 F6000.000
G1 X73.688 Y84.800 E2.61785 F600.000
G1 X73.688 Y75.200 E2.78703
G1 X86.312 Y75.200 E3.00952
G1 X86.312 Y84.740 E3.17764
G1 X85.966 Y84.600 F6000.000
G1 F1800.000 E2.17764
G92 E0
G1 Z1.500 F6000.000
G1 X85.588 Y84.000 F6000.000
G1 E1.00000 F1800.000
G1 X74.412 Y84.000 E1.19693 F600.000
G1 X74.412 Y76.000 E1.33792
G1 X85.588 Y76.000 E1.53485
G1 X85.588 Y83.940 E1.67477
G1 X85.988 Y84.400 F6000.000
G1 X74.012 Y84.400 E1.88580 F600.000
G1 X74.012 Y75.600 E2.04088
G1 X85.988 Y75.600 E2.25192
G1 X85.988 Y84.340 E2.40594
G1 X86.388 Y84.800 F6000.000
G1 X73.612 Y84.800 E2.63107 F600.000
G1 X73.612 Y75.200 E2.80025
G1 X86.388 Y75.200 E3.02538
G1 X86.388 Y84.740 E3.19350
G1 X86.041 Y84.600 F6000.000
G1 F1800.000 E2.19350
G92 E0
G1 Z1.600 F6000.000
G1 X85.662 Y84.000 F6000.000
G1 E1.00000 F1800.000
G1 X74.338 Y84.000 E1.19958 F600.000
G1 X74.338 Y76.000 E1.34056
G1 X85.662 Y76.000 E1.54014
G1 X85.662 Y83.940 E1.68006
G1 X86.062 Y84.400 F6000.000
G1 X73.938 Y84.400 E1.89373 F600.000
G1 X73.938 Y75.600 E2.04881
G1 X86.062 Y75.600 E2.26249
G1 X86.062 Y84.340 E2.41651
G1 X86.463 Y84.800 F6000.000
G1 X73.538 Y84.800 E2.64429 F600.000
G1 X73.538 Y75.200 E2.81346
G1 X86.463 Y75.200 E3.04124
G1 X86.463 Y84.740 E3.20936
G1 X86.116 Y84.600 F6000.000
G1 X85.010 Y76.463 F6000.000
G1 X85.050 Y76.503 E3.21249 F750.622
G1 X85.050 Y77.113 E3.24629
G1 X84.399 Y76.463 E3.29722
G1 X83.789 Y76.463 E3.33102
G1 X85.050 Y77.724 E3.42975
G1 X85.050 Y78.334 E3.46355
G1 X83.178 Y76.463 E3.61008
G1 X82.568 Y76.463 E3.64388
G1 X85.050 Y78.945 E3.83821
G1 X85.050 Y79.555 E3.87201
G1 X81.957 Y76.463 E4.11414
G1 X81.347 Y76.463 E4.14794
G1 X85.050 Y80.166 E4.43787
G1 X85.050 Y80.776 E4.47167
G1 X80.736 Y76.463 E4.80940
G1 X80.126 Y76.463 E4.84320
G1 X85.050 Y81.387 E5.22873
G1 X85.050 Y81.997 E5.26252
G1 X79.515 Y76.463 E5.69585
G1 X78.905 Y76.463 E5.72965
G1 X85.050 Y82.608 E6.21078
G1 X85.050 Y83.218 E6.24458
G1 X78.294 Y76.463 E6.77351
G1 X77.684 Y76.463 E6.80731
G1 X84.758 Y83.537 E7.36121
G1 X84.148 Y83.537 E7.39501
G1 X77.073 Y76.463 E7.94892
G1 X76.463 Y76.463 E7.98272
G1 X83.537 Y83.537 E8.53662
G1 X82.927 Y83.537 E8.57042
G1 X75.852 Y76.463 E9.12432
G1 X75.242 Y76.463 E9.15812
G1 X82.316 Y83.537 E9.71203
G1 X81.706 Y83.537 E9.74583
G1 X74.950 Y76.782 E10.27475
G1 X74.950 Y77.392 E10.30855
G1 X81.095 Y83.537 E10.78968
