; generated by Slic3r 1.1.7 on 2015-03-28 at 11:15:18

; perimeters extrusion width = 0.40mm
; infill extrusion width = 0.67mm
; solid infill extrusion width = 0.67mm
; top infill extrusion width = 0.67mm

G21 ; set units to millimeters
M107
M190 S60 ; wait for bed temperature to be reached
M104 S185 ; set temperature
G28 ; home all axes
G1 Z5 F5000 ; lift nozzle

M109 S185 ; wait for temperature to be reached
G90 ; use absolute coordinates
G92 E0
M82 ; use absolute distances for extrusion
G1 F1800.000 E-1.00000
G92 E0
G1 Z0.400 F6000.000
G1 X67.677 Y70.720 F6000.000
G1 E1.00000 F1800.000
G1 X69.433 Y69.220 E1.29059 F901.001
G1 X71.593 Y68.405 E1.58119
G1 X72.850 Y68.286 E1.74010
G1 X87.150 Y68.286 E3.53982
G1 X89.425 Y68.683 E3.83041
G1 X91.430 Y69.827 E4.12100 F901.001
G1 X92.930 Y71.583 E4.41160
G1 X93.745 Y73.743 E4.70219
G1 X93.864 Y75.000 E4.86111
G1 X93.864 Y85.000 E6.11965
G1 X93.467 Y87.275 E6.41024
G1 X92.323 Y89.280 E6.70083
G1 X90.567 Y90.780 E6.99143
G1 X88.407 Y91.595 E7.28202
G1 X87.150 Y91.714 E7.44094
G1 X72.850 Y91.714 E9.24065
G1 X70.575 Y91.317 E9.53124
G1 X68.570 Y90.173 E9.82184
G1 X67.070 Y88.417 E10.11243
G1 X66.255 Y86.257 E10.40302
G1 X66.136 Y85.000 E10.56194
G1 X66.136 Y75.000 E11.82048
G1 X66.533 Y72.725 E12.11107
G1 X67.647 Y70.772 E12.39412
G1 F1800.000 E11.39412
G92 E0
G1 X85.322 Y83.172 F6000.000
G1 E1.00000 F1800.000
G1 X74.678 Y83.172 E2.33951 F600.000
G1 X74.678 Y76.828 E3.13785
G1 X85.322 Y76.828 E4.47736
G1 X85.322 Y83.112 E5.26815
G1 X86.036 Y83.886 F6000.000
G1 X73.964 Y83.886 E6.78742 F600.000
G1 X73.964 Y76.114 E7.76551
G1 X86.036 Y76.114 E9.28478
G1 X86.036 Y83.826 E10.25533
G1 X86.750 Y84.600 F6000.000
G1 X73.250 Y84.600 E11.95436 F600.000
G1 X73.250 Y75.400 E13.11222
G1 X86.750 Y75.400 E14.81125
G1 X86.750 Y84.540 E15.96156
G1 X86.404 Y84.400 F6000.000
G1 X84.784 Y77.326 F6000.000
G1 X84.824 Y77.366 E15.96868 F901.001
G1 X84.824 Y78.431 E16.10276
G1 X83.719 Y77.326 E16.29951
G1 X82.653 Y77.326 E16.43359
G1 X84.824 Y79.497 E16.81997
G1 X84.824 Y80.562 E16.95405
G1 X81.588 Y77.326 E17.53005
G1 X80.522 Y77.326 E17.66414
G1 X84.824 Y81.628 E18.42976
G1 X84.794 Y82.664 E18.56018
G1 X79.457 Y77.326 E19.51017
G1 X78.391 Y77.326 E19.64425
G1 X83.739 Y82.674 E20.59609
G1 X82.674 Y82.674 E20.73018
G1 X77.326 Y77.326 E21.68201
G1 X76.261 Y77.326 E21.81610
G1 X81.609 Y82.674 E22.76794
G1 X80.543 Y82.674 E22.90203
G1 X75.206 Y77.336 E23.85201
G1 X75.176 Y78.372 E23.98243
G1 X79.478 Y82.674 E24.74805
G1 X78.412 Y82.674 E24.88214
G1 X75.176 Y79.438 E25.45814
G1 X75.176 Y80.503 E25.59222
G1 X77.347 Y82.674 E25.97860
G1 X76.281 Y82.674 E26.11268
G1 X75.176 Y81.569 E26.30943
G1 X75.176 Y82.634 E26.44351
G1 X75.216 Y82.674 E26.45063
M106 S255
M104 S180 ; set temperature
G1 F1800.000 E25.45063
G92 E0
G1 Z0.600 F6000.000
G1 X86.375 Y84.000 F6000.000
G1 E1.00000 F1800.000
G1 X73.625 Y84.000 E1.44938 F600.000
G1 X73.625 Y76.000 E1.73134
G1 X86.375 Y76.000 E2.18072
G1 X86.375 Y83.940 E2.46057
G1 X86.775 Y84.400 F6000.000
G1 X73.225 Y84.400 E2.93814 F600.000
G1 X73.225 Y75.600 E3.24830
G1 X86.775 Y75.600 E3.72588
G1 X86.775 Y84.340 E4.03392
G1 X87.175 Y84.800 F6000.000
G1 X72.825 Y84.800 E4.53969 F600.000
G1 X72.825 Y75.200 E4.87805
G1 X87.175 Y75.200 E5.38382
G1 X87.175 Y84.740 E5.72006
G1 X86.829 Y84.600 F6000.000
G1 X86.054 Y83.639 F6000.000
G1 X86.014 Y83.679 E5.72319 F929.207
G1 X85.091 Y83.679 E5.77430
G1 X86.054 Y82.716 E5.84970
G1 X86.054 Y81.792 E5.90081
G1 X84.167 Y83.679 E6.04849
G1 X83.244 Y83.679 E6.09959
G1 X86.054 Y80.869 E6.31954
G1 X86.054 Y79.946 E6.37064
G1 X82.321 Y83.679 E6.66287
G1 X81.398 Y83.679 E6.71397
G1 X86.054 Y79.023 E7.07847
G1 X86.054 Y78.100 E7.12957
G1 X80.475 Y83.679 E7.56634
G1 X79.552 Y83.679 E7.61745
G1 X86.054 Y77.177 E8.12649
G1 X85.986 Y76.321 E8.17401
G1 X78.629 Y83.679 E8.75005
G1 X77.706 Y83.679 E8.80116
G1 X85.063 Y76.321 E9.37720
G1 X84.140 Y76.321 E9.42831
G1 X76.783 Y83.679 E10.00435
G1 X75.860 Y83.679 E10.05546
G1 X83.217 Y76.321 E10.63150
G1 X82.294 Y76.321 E10.68261
G1 X74.937 Y83.679 E11.25865
G1 X74.014 Y83.679 E11.30975
G1 X81.371 Y76.321 E11.88580
G1 X80.448 Y76.321 E11.93690
G1 X73.946 Y82.823 E12.44594
G1 X73.946 Y81.900 E12.49705
G1 X79.525 Y76.321 E12.93382
G1 X78.602 Y76.321 E12.98492
G1 X73.946 Y80.977 E13.34942
G1 X73.946 Y80.054 E13.40052
G1 X77.679 Y76.321 E13.69274
G1 X76.756 Y76.321 E13.74385
G1 X73.946 Y79.131 E13.96380
G1 X73.946 Y78.208 E14.01490
G1 X75.833 Y76.321 E14.16258
G1 X74.909 Y76.321 E14.21368
G1 X73.946 Y77.284 E14.28909
G1 X73.946 Y76.361 E14.34019
G1 X73.986 Y76.321 E14.34333
G1 F1800.000 E13.34333
G92 E0
G1 Z0.800 F6000.000
G1 X86.525 Y84.000 F6000.000
G1 E1.00000 F1800.000
G1 X73.475 Y84.000 E1.45995 F600.000
G1 X73.475 Y76.000 E1.74192
G1 X86.525 Y76.000 E2.20187
G1 X86.525 Y83.940 E2.48172
G1 X86.925 Y84.400 F6000.000
G1 X73.075 Y84.400 E2.96986 F600.000
G1 X73.075 Y75.600 E3.28002
G1 X86.925 Y75.600 E3.76817
G1 X86.925 Y84.340 E4.07622
G1 X87.325 Y84.800 F6000.000
G1 X72.675 Y84.800 E4.59256 F600.000
G1 X72.675 Y75.200 E4.93092
G1 X87.325 Y75.200 E5.44726
G1 X87.325 Y84.740 E5.78350
G1 X86.979 Y84.600 F6000.000
G1 X86.014 Y76.321 F6000.000
G1 X86.054 Y76.361 E5.78664 F937.435
G1 X86.054 Y77.284 E5.83774
G1 X85.091 Y76.321 E5.91314
G1 X84.167 Y76.321 E5.96425
G1 X86.054 Y78.208 E6.11193
G1 X86.054 Y79.131 E6.16303
G1 X83.244 Y76.321 E6.38298
G1 X82.321 Y76.321 E6.43409
G1 X86.054 Y80.054 E6.72631
G1 X86.054 Y80.977 E6.77741
G1 X81.398 Y76.321 E7.14191
G1 X80.475 Y76.321 E7.19301
G1 X86.054 Y81.900 E7.62978
G1 X86.054 Y82.823 E7.68088
G1 X79.552 Y76.321 E8.18992
G1 X78.629 Y76.321 E8.24103
G1 X85.986 Y83.679 E8.81707
G1 X85.063 Y83.679 E8.86818
G1 X77.706 Y76.321 E9.44422
G1 X76.783 Y76.321 E9.49532
G1 X84.140 Y83.679 E10.07137
G1 X83.217 Y83.679 E10.12247
G1 X75.860 Y76.321 E10.69852
G1 X74.937 Y76.321 E10.74962
G1 X82.294 Y83.679 E11.32567
G1 X81.371 Y83.679 E11.37677
G1 X74.014 Y76.321 E11.95281
G1 X73.946 Y77.177 E12.00034
G1 X80.448 Y83.679 E12.50938
G1 X79.525 Y83.679 E12.56048
G1 X73.946 Y78.100 E12.99725
G1 X73.946 Y79.023 E13.04836
G1 X78.602 Y83.679 E13.41285
G1 X77.679 Y83.679 E13.46395
G1 X73.946 Y79.946 E13.75618
G1 X73.946 Y80.869 E13.80728
G1 X76.756 Y83.679 E14.02723
G1 X75.833 Y83.679 E14.07834
G1 X73.946 Y81.793 E14.22601
G1 X73.946 Y82.716 E14.27712
G1 X74.909 Y83.679 E14.35252
G1 X73.986 Y83.679 E14.40363
G1 X73.946 Y83.639 E14.40676
G1 F1800.000 E13.40676
G92 E0
G1 Z1.000 F6000.000
G1 X86.675 Y84.000 F6000.000
G1 E1.00000 F1800.000
G1 X73.325 Y84.000 E1.47053 F600.000
G1 X73.325 Y76.000 E1.75249
G1 X86.675 Y76.000 E2.22301
G1 X86.675 Y83.940 E2.50286
G1 X87.075 Y84.400 F6000.000
G1 X72.925 Y84.400 E3.00159 F600.000
G1 X72.925 Y75.600 E3.31174
G1 X87.075 Y75.600 E3.81047
G1 X87.075 Y84.340 E4.11851
G1 X87.475 Y84.800 F6000.000
G1 X72.525 Y84.800 E4.64543 F600.000
G1 X72.525 Y75.200 E4.98379
G1 X87.475 Y75.200 E5.51070
G1 X87.475 Y84.740 E5.84695
G1 X87.129 Y84.600 F6000.000
G1 X86.054 Y83.639 F6000.000
G1 X86.014 Y83.679 E5.85008 F865.195
G1 X85.091 Y83.679 E5.90118
G1 X86.054 Y82.716 E5.97659
G1 X86.054 Y81.792 E6.02769
G1 X84.168 Y83.679 E6.17537
G1 X83.244 Y83.679 E6.22647
G1 X86.054 Y80.869 E6.44642
G1 X86.054 Y79.946 E6.49753
G1 X82.321 Y83.679 E6.78975
G1 X81.398 Y83.679 E6.84086
G1 X86.054 Y79.023 E7.20535
G1 X86.054 Y78.100 E7.25646
G1 X80.475 Y83.679 E7.69323
G1 X79.552 Y83.679 E7.74433
G1 X86.054 Y77.177 E8.25337
G1 X85.986 Y76.321 E8.30090
G1 X78.629 Y83.679 E8.87694
G1 X77.706 Y83.679 E8.92804
G1 X85.063 Y76.321 E9.50409
G1 X84.140 Y76.321 E9.55519
G1 X76.783 Y83.679 E10.13123
G1 X75.860 Y83.679 E10.18234
G1 X83.217 Y76.321 E10.75838
G1 X82.294 Y76.321 E10.80949
G1 X74.937 Y83.679 E11.38553
G1 X74.014 Y83.679 E11.43663
G1 X81.371 Y76.321 E12.01268
G1 X80.448 Y76.321 E12.06378
G1 X73.946 Y82.823 E12.57282
G1 X73.946 Y81.900 E12.62393
G1 X79.525 Y76.321 E13.06070
G1 X78.602 Y76.321 E13.11180
G1 X73.946 Y80.977 E13.47630
G1 X73.946 Y80.054 E13.52740
G1 X77.679 Y76.321 E13.81962
G1 X76.756 Y76.321 E13.87073
G1 X73.946 Y79.131 E14.09068
G1 X73.946 Y78.208 E14.14178
G1 X75.833 Y76.321 E14.28946
G1 X74.909 Y76.321 E14.34056
G1 X73.946 Y77.284 E14.41597
G1 X73.946 Y76.361 E14.46707
G1 X73.986 Y76.321 E14.47021
G1 F1800.000 E13.47021
G92 E0
G1 X86.325 Y76.333 F6000.000
G1 E1.00000 F1800.000
G1 X86.296 Y76.361 E1.00224 F1038.234
G1 X86.354 Y77.221 E1.04994
G1 X86.296 Y77.278 E1.05442
G1 X86.354 Y78.138 E1.10211
G1 X86.296 Y78.195 E1.10659
G1 X86.354 Y79.055 E1.15429
G1 X86.296 Y79.112 E1.15877
G1 X86.354 Y79.971 E1.20647
G1 X86.296 Y80.029 E1.21095
G1 X86.354 Y80.888 E1.25864
G1 X86.296 Y80.945 E1.26312
G1 X86.354 Y81.805 E1.31082
G1 X86.296 Y81.862 E1.31530
G1 X86.354 Y82.722 E1.36300
G1 X86.296 Y82.779 E1.36748
G1 X86.325 Y83.667 E1.41668
G1 X86.354 Y83.639 E1.41892
G1 F1800.000 E0.41892
G92 E0
G1 X73.704 Y83.639 F6000.000
G1 E1.00000 F1800.000
G1 X73.675 Y83.667 E1.00224 F1038.234
G1 X73.646 Y82.779 E1.05144
G1 X73.704 Y82.722 E1.05592
G1 X73.646 Y81.862 E1.10362
G1 X73.704 Y81.805 E1.10810
G1 X73.646 Y80.945 E1.15579
G1 X73.704 Y80.888 E1.16028
G1 X73.646 Y80.029 E1.20797
G1 X73.704 Y79.971 E1.21245
G1 X73.646 Y79.112 E1.26015
G1 X73.704 Y79.055 E1.26463
G1 X73.646 Y78.195 E1.31232
G1 X73.704 Y78.138 E1.31681
G1 X73.646 Y77.278 E1.36450
G1 X73.704 Y77.221 E1.36898
G1 X73.646 Y76.361 E1.41668
G1 X73.675 Y76.333 E1.41892
G1 F1800.000 E0.41892
G92 E0
G1 Z1.200 F6000.000
G1 X78.569 Y78.256 F6000.000
G1 X81.569 Y79.256 F6000.000
G1 X86.425 Y83.600 F6000.000
G1 E1.00000 F1800.000
G1 X81.969 Y83.600 E1.15705 F655.407
G1 X81.969 Y76.400 E1.41082
G1 X86.425 Y76.400 E1.56787
G1 X86.425 Y83.540 E1.81953
G1 X86.825 Y84.000 F6000.000
G1 X81.569 Y84.000 E2.00478 F655.407
G1 X81.569 Y76.000 E2.28674
G1 X86.825 Y76.000 E2.47199
G1 X86.825 Y83.940 E2.75184
G1 X87.225 Y84.400 F6000.000
G1 X81.169 Y84.400 E2.96528 F655.407
G1 X81.169 Y75.600 E3.27544
G1 X87.225 Y75.600 E3.48889
G1 X87.225 Y84.340 E3.79693
G1 X87.625 Y84.800 F6000.000
G1 X80.769 Y84.800 E4.03858 F600.000
G1 X80.769 Y75.200 E4.37693
G1 X87.625 Y75.200 E4.61858
G1 X87.625 Y84.740 E4.95482
G1 X87.279 Y84.600 F6000.000
G1 X82.290 Y83.239 F6000.000
G1 X82.330 Y83.279 E4.95795 F1310.815
G1 X83.266 Y83.279 E5.00974
G1 X82.290 Y82.303 E5.08612
G1 X82.290 Y81.368 E5.13791
G1 X84.201 Y83.279 E5.28754
G1 X85.137 Y83.279 E5.33933
G1 X82.290 Y80.432 E5.56220
G1 X82.290 Y79.497 E5.61399
G1 X86.068 Y83.274 E5.90976
G1 X86.104 Y82.374 E5.95962
G1 X82.290 Y78.561 E6.25819
G1 X82.290 Y77.626 E6.30998
G1 X86.104 Y81.439 E6.60854
G1 X86.104 Y80.503 E6.66034
G1 X82.326 Y76.726 E6.95611
G1 X83.257 Y76.721 E7.00766
G1 X86.104 Y79.568 E7.23053
G1 X86.104 Y78.632 E7.28232
G1 X84.193 Y76.721 E7.43195
G1 X85.128 Y76.721 E7.48374
G1 X86.104 Y77.697 E7.56012
G1 X86.104 Y76.761 E7.61191
G1 X86.064 Y76.721 E7.61504
G1 F1800.000 E6.61504
G92 E0
G1 X81.569 Y79.256 F6000.000
G1 X78.569 Y78.256 F6000.000
G1 X78.522 Y83.200 F6000.000
G1 E1.00000 F1800.000
G1 X73.975 Y83.200 E1.16027 F655.407
G1 X73.975 Y76.800 E1.38584
G1 X78.522 Y76.800 E1.54611
G1 X78.522 Y83.140 E1.76956
G1 X78.922 Y83.600 F6000.000
G1 X73.575 Y83.600 E1.95803 F655.407
G1 X73.575 Y76.400 E2.21180
G1 X78.922 Y76.400 E2.40026
G1 X78.922 Y83.540 E2.65191
G1 X79.322 Y84.000 F6000.000
G1 X73.175 Y84.000 E2.86857 F655.407
G1 X73.175 Y76.000 E3.15054
G1 X79.322 Y76.000 E3.36720
G1 X79.322 Y83.940 E3.64705
G1 X79.722 Y84.400 F6000.000
G1 X72.775 Y84.400 E3.89190 F655.407
G1 X72.775 Y75.600 E4.20206
G1 X79.722 Y75.600 E4.44692
G1 X79.722 Y84.340 E4.75497
G1 X80.122 Y84.800 F6000.000
G1 X72.375 Y84.800 E5.02802 F600.000
G1 X72.375 Y75.200 E5.36638
G1 X80.122 Y75.200 E5.63943
G1 X80.122 Y84.740 E5.97567
G1 X79.776 Y84.600 F6000.000
G1 F1800.000 E4.97567
G92 E0
G1 X74.336 Y82.879 F6000.000
G1 E1.00000 F1800.000
G1 X74.296 Y82.839 E1.00313 F1310.815
G1 X74.296 Y81.880 E1.05618
G1 X75.295 Y82.879 E1.13433
G1 X76.253 Y82.879 E1.18738
G1 X74.296 Y80.922 E1.34055
G1 X74.296 Y79.964 E1.39360
G1 X77.211 Y82.879 E1.62180
G1 X78.165 Y82.875 E1.67462
G1 X74.296 Y79.006 E1.97751
G1 X74.296 Y78.048 E2.03056
G1 X78.201 Y81.952 E2.33627
G1 X78.201 Y80.994 E2.38931
G1 X74.332 Y77.125 E2.69221
G1 X75.286 Y77.121 E2.74503
G1 X78.201 Y80.036 E2.97323
G1 X78.201 Y79.078 E3.02627
G1 X76.245 Y77.121 E3.17945
G1 X77.203 Y77.121 E3.23250
G1 X78.201 Y78.120 E3.31065
G1 X78.201 Y77.161 E3.36370
G1 X78.161 Y77.121 E3.36683
G1 F1800.000 E2.36683
G92 E0
G1 Z1.400 F6000.000
G1 X82.555 Y84.000 F6000.000
G1 E1.00000 F1800.000
G1 X82.555 Y76.000 E1.28196 F600.000
G1 X86.975 Y76.000 E1.43774
G1 X86.975 Y84.000 E1.71970
G1 X82.615 Y84.000 E1.87337
G1 X82.155 Y84.400 F6000.000
G1 X82.155 Y75.600 E2.18353 F600.000
G1 X87.375 Y75.600 E2.36750
G1 X87.375 Y84.400 E2.67766
G1 X82.215 Y84.400 E2.85952
G1 X81.755 Y84.800 F6000.000
G1 X81.755 Y75.200 E3.19788 F600.000
G1 X87.775 Y75.200 E3.41005
G1 X87.775 Y84.800 E3.74841
G1 X81.815 Y84.800 E3.95846
G1 X81.955 Y84.454 F6000.000
G1 F1800.000 E2.95846
G92 E0
G1 X86.654 Y83.639 F6000.000
G1 E1.00000 F1800.000
G1 X86.614 Y83.679 E1.00313 F1026.892
G1 X85.692 Y83.679 E1.05413
G1 X86.654 Y82.717 E1.12939
G1 X86.654 Y81.796 E1.18039
G1 X84.771 Y83.679 E1.32777
G1 X83.850 Y83.679 E1.37878
G1 X86.654 Y80.875 E1.59828
G1 X86.654 Y79.954 E1.64928
G1 X82.929 Y83.679 E1.94092
G1 X82.877 Y82.810 E1.98911
G1 X86.654 Y79.033 E2.28484
G1 X86.654 Y78.111 E2.33584
G1 X82.877 Y81.889 E2.63157
G1 X82.877 Y80.967 E2.68257
G1 X86.654 Y77.190 E2.97831
G1 X86.601 Y76.321 E3.02650
G1 X82.877 Y80.046 E3.31813
G1 X82.877 Y79.125 E3.36913
G1 X85.680 Y76.321 E3.58864
G1 X84.759 Y76.321 E3.63964
G1 X82.877 Y78.204 E3.78703
G1 X82.877 Y77.283 E3.83803
G1 X83.838 Y76.321 E3.91328
G1 X82.917 Y76.321 E3.96429
G1 X82.877 Y76.361 E3.96742
G1 F1800.000 E2.96742
G92 E0
G1 X78.054 Y84.000 F6000.000
G1 E1.00000 F1800.000
G1 X73.025 Y84.000 E1.17724 F600.000
G1 X73.025 Y76.000 E1.45920
G1 X78.054 Y76.000 E1.63644
G1 X78.054 Y83.940 E1.91629
G1 X78.454 Y84.400 F6000.000
G1 X72.625 Y84.400 E2.12173 F600.000
G1 X72.625 Y75.600 E2.43189
G1 X78.454 Y75.600 E2.63733
G1 X78.454 Y84.340 E2.94537
G1 X78.854 Y84.800 F6000.000
G1 X72.225 Y84.800 E3.17900 F600.000
G1 X72.225 Y75.200 E3.51736
G1 X78.854 Y75.200 E3.75099
G1 X78.854 Y84.740 E4.08723
G1 X78.507 Y84.600 F6000.000
G1 X77.732 Y83.639 F6000.000
G1 X77.692 Y83.679 E4.09037 F1026.892
G1 X76.795 Y83.679 E4.14004
G1 X77.732 Y82.741 E4.21341
G1 X77.732 Y81.844 E4.26308
G1 X75.898 Y83.679 E4.40671
G1 X75.001 Y83.679 E4.45638
G1 X77.732 Y80.947 E4.67024
G1 X77.732 Y80.050 E4.71991
G1 X74.104 Y83.679 E5.00403
G1 X73.346 Y83.539 E5.04666
G1 X77.732 Y79.153 E5.39007
G1 X77.732 Y78.256 E5.43974
G1 X73.346 Y82.642 E5.78315
G1 X73.346 Y81.744 E5.83282
G1 X77.732 Y77.358 E6.17623
G1 X77.732 Y76.461 E6.22590
G1 X73.346 Y80.847 E6.56931
G1 X73.346 Y79.950 E6.61898
G1 X76.975 Y76.321 E6.90309
G1 X76.078 Y76.321 E6.95276
G1 X73.346 Y79.053 E7.16663
G1 X73.346 Y78.156 E7.21630
G1 X75.181 Y76.321 E7.35992
G1 X74.284 Y76.321 E7.40959
G1 X73.346 Y77.259 E7.48297
G1 X73.346 Y76.361 E7.53264
G1 X73.386 Y76.321 E7.53577
G1 F1800.000 E6.53577
G92 E0
G1 Z1.600 F6000.000
G1 X82.965 Y84.000 F6000.000
G1 E1.00000 F1800.000
G1 X82.965 Y76.000 E1.28196 F600.000
G1 X87.125 Y76.000 E1.42860
G1 X87.125 Y84.000 E1.71056
G1 X83.025 Y84.000 E1.85509
G1 X82.565 Y84.400 F6000.000
G1 X82.565 Y75.600 E2.16525 F600.000
G1 X87.525 Y75.600 E2.34008
G1 X87.525 Y84.400 E2.65024
G1 X82.625 Y84.400 E2.82296
G1 X82.165 Y84.800 F6000.000
G1 X82.165 Y75.200 E3.16131 F600.000
G1 X87.925 Y75.200 E3.36434
G1 X87.925 Y84.800 E3.70270
G1 X82.225 Y84.800 E3.90361
G1 X82.365 Y84.454 F6000.000
G1 X83.326 Y83.679 F6000.000
G1 X83.286 Y83.639 E3.90675 F988.641
G1 X83.286 Y82.739 E3.95655
G1 X84.225 Y83.679 E4.03012
G1 X85.125 Y83.679 E4.07992
G1 X83.286 Y81.839 E4.22392
G1 X83.286 Y80.940 E4.27372
G1 X86.025 Y83.679 E4.48816
G1 X86.804 Y83.558 E4.53180
G1 X83.286 Y80.040 E4.80722
G1 X83.286 Y79.141 E4.85703
G1 X86.804 Y82.658 E5.13245
G1 X86.804 Y81.759 E5.18225
G1 X83.286 Y78.241 E5.45768
G1 X83.286 Y77.342 E5.50748
