; generated by Slic3r 1.1.7 on 2015-04-21 at 18:27:01

; perimeters extrusion width = 0.30mm
; infill extrusion width = 0.37mm
; solid infill extrusion width = 0.37mm
; top infill extrusion width = 0.37mm

G21 ; set units to millimeters
M107
M190 S65 ; wait for bed temperature to be reached
M104 S205 ; set temperature
G28 ; home all axes
G1 Z5 F5000 ; lift nozzle

M109 S205 ; wait for temperature to be reached
G90 ; use absolute coordinates
G92 E0
M82 ; use absolute distances for extrusion
G1 F1800.000 E-1.00000
G92 E0
G1 Z0.300 F6000.000
G1 X69.380 Y69.246 F6000.000
G1 E1.00000 F1800.000
G1 X70.206 Y68.418 E1.24830 F1080.000
G1 X72.472 Y67.260 E1.78868
G1 X75.000 Y66.858 E2.33238
G1 X85.000 Y66.858 E4.45616
G1 X87.513 Y67.255 E4.99654
G1 X89.781 Y68.409 E5.53692 F1080.000
G1 X91.582 Y70.206 E6.07730
G1 X92.740 Y72.472 E6.61767
G1 X93.142 Y75.000 E7.16137
G1 X93.142 Y85.000 E9.28516
G1 X92.745 Y87.513 E9.82553
G1 X91.591 Y89.781 E10.36591
G1 X89.794 Y91.582 E10.90629
G1 X87.528 Y92.740 E11.44666
G1 X85.000 Y93.142 E11.99036
G1 X75.000 Y93.142 E14.11415
G1 X72.487 Y92.745 E14.65453
G1 X70.219 Y91.591 E15.19490
G1 X68.418 Y89.794 E15.73528
G1 X67.260 Y87.528 E16.27566
G1 X66.858 Y85.000 E16.81935
G1 X66.858 Y75.000 E18.94314
G1 X67.255 Y72.487 E19.48352
G1 X68.409 Y70.219 E20.02390
G1 X69.349 Y69.278 E20.30641
G1 X69.749 Y69.634 F6000.000
G1 X70.725 Y68.708 E20.59209 F1080.000
G1 X72.955 Y67.673 E21.11428
G1 X75.000 Y67.393 E21.55265
G1 X85.000 Y67.393 E23.67644
G1 X87.426 Y67.791 E24.19862
G1 X89.599 Y68.941 E24.72081 F1080.000
G1 X91.292 Y70.725 E25.24300
G1 X92.327 Y72.955 E25.76519
G1 X92.607 Y75.000 E26.20356
G1 X92.607 Y85.000 E28.32734
G1 X92.209 Y87.426 E28.84953
G1 X91.059 Y89.599 E29.37172
G1 X89.275 Y91.292 E29.89391
G1 X87.045 Y92.327 E30.41610
G1 X85.000 Y92.607 E30.85446
G1 X75.000 Y92.607 E32.97825
G1 X72.574 Y92.209 E33.50044
G1 X70.401 Y91.059 E34.02263
G1 X68.708 Y89.275 E34.54482
G1 X67.673 Y87.045 E35.06700
G1 X67.393 Y85.000 E35.50537
G1 X67.393 Y75.000 E37.62916
G1 X67.791 Y72.574 E38.15135
G1 X68.941 Y70.401 E38.67353
G1 X69.716 Y69.665 E38.90049
G1 X70.101 Y70.028 F6000.000
G1 X71.241 Y69.011 E39.22495 F1080.000
G1 X73.431 Y68.105 E39.72829
G1 X75.000 Y67.929 E40.06367
G1 X85.000 Y67.929 E42.18746
G1 X87.337 Y68.326 E42.69080
G1 X89.411 Y69.473 E43.19414 F1080.000
G1 X90.989 Y71.241 E43.69748
G1 X91.895 Y73.431 E44.20082
G1 X92.071 Y75.000 E44.53620
G1 X92.071 Y85.000 E46.65999
G1 X91.674 Y87.337 E47.16333
G1 X90.527 Y89.411 E47.66668
G1 X88.759 Y90.989 E48.17002
G1 X86.569 Y91.895 E48.67336
G1 X85.000 Y92.071 E49.00874
G1 X75.000 Y92.071 E51.13253
G1 X72.663 Y91.674 E51.63587
G1 X70.589 Y90.527 E52.13921
G1 X69.011 Y88.759 E52.64255
G1 X68.105 Y86.569 E53.14589
G1 X67.929 Y85.000 E53.48127
G1 X67.929 Y75.000 E55.60506
G1 X68.326 Y72.663 E56.10840
G1 X69.473 Y70.589 E56.61174
G1 X70.068 Y70.058 E56.78107
G1 X70.434 Y70.428 F6000.000
G1 X71.753 Y69.328 E57.14588 F1080.000
G1 X75.000 Y68.464 E57.85936
G1 X85.000 Y68.464 E59.98315
G1 X87.243 Y68.861 E60.46691
G1 X89.213 Y70.004 E60.95067 F1080.000
G1 X90.672 Y71.753 E61.43443
G1 X91.536 Y75.000 E62.14791
G1 X91.536 Y85.000 E64.27170
G1 X91.139 Y87.243 E64.75546
G1 X89.996 Y89.213 E65.23922
G1 X88.247 Y90.672 E65.72298
G1 X85.000 Y91.536 E66.43646
G1 X75.000 Y91.536 E68.56025
G1 X72.757 Y91.139 E69.04401
G1 X70.787 Y89.996 E69.52777
G1 X69.328 Y88.247 E70.01153
G1 X68.464 Y85.000 E70.72501
G1 X68.464 Y75.000 E72.84880
G1 X68.861 Y72.757 E73.33256
G1 X70.004 Y70.787 E73.81632
G1 X70.400 Y70.457 E73.92571
G1 F1800.000 E72.92571
G92 E0
G1 X83.629 Y83.629 F6000.000
G1 E1.00000 F1800.000
G1 X76.371 Y83.629 E2.54134 F540.000
G1 X76.371 Y76.371 E4.08269
G1 X83.629 Y76.371 E5.62403
G1 X83.629 Y83.584 E7.15582
G1 X84.164 Y84.164 F6000.000
G1 X75.836 Y84.164 E8.92467 F540.000
G1 X75.836 Y75.836 E10.69352
G1 X84.164 Y75.836 E12.46237
G1 X84.164 Y84.119 E14.22167
G1 X84.700 Y84.700 F6000.000
G1 X75.300 Y84.700 E16.21803 F378.000
G1 X75.300 Y75.300 E18.21439
G1 X84.700 Y75.300 E20.21075
G1 X84.700 Y84.655 E22.19756
G1 X84.440 Y84.550 F6000.000
G1 X76.740 Y83.220 F6000.000
G1 X76.780 Y83.260 E22.20957 F1080.000
G1 X77.542 Y83.260 E22.37150
G1 X76.740 Y82.458 E22.61252
G1 X76.740 Y81.696 E22.77445
G1 X78.304 Y83.260 E23.24447
G1 X79.067 Y83.260 E23.40640
G1 X76.740 Y80.933 E24.10543
G1 X76.740 Y80.171 E24.26736
G1 X79.829 Y83.260 E25.19539
G1 X80.592 Y83.260 E25.35732
G1 X76.740 Y79.408 E26.51435
G1 X76.740 Y78.646 E26.67629
G1 X81.354 Y83.260 E28.06232
G1 X82.117 Y83.260 E28.22426
G1 X76.740 Y77.883 E29.83930
G1 X76.740 Y77.121 E30.00123
G1 X82.879 Y83.260 E31.84528
G1 X83.260 Y82.879 E31.95978
G1 X77.121 Y76.740 E33.80383
G1 X77.883 Y76.740 E33.96576
G1 X83.260 Y82.117 E35.58080
G1 X83.260 Y81.354 E35.74273
G1 X78.646 Y76.740 E37.12877
G1 X79.408 Y76.740 E37.29070
G1 X83.260 Y80.592 E38.44774
G1 X83.260 Y79.829 E38.60967
G1 X80.171 Y76.740 E39.53770
G1 X80.933 Y76.740 E39.69963
G1 X83.260 Y79.067 E40.39865
G1 X83.260 Y78.304 E40.56059
G1 X81.696 Y76.740 E41.03061
G1 X82.458 Y76.740 E41.19254
G1 X83.260 Y77.542 E41.43356
G1 X83.260 Y76.780 E41.59549
G1 X83.220 Y76.740 E41.60750
M106 S255
M140 S50 ; set bed temperature
G1 F1800.000 E40.60750
G92 E0
G1 Z0.500 F6000.000
G1 X84.250 Y84.250 F6000.000
G1 E1.00000 F1800.000
G1 X75.750 Y84.250 E1.67407 F600.000
G1 X75.750 Y75.750 E2.34814
G1 X84.250 Y75.750 E3.02220
G1 X84.250 Y84.205 E3.69270
G1 X84.550 Y84.550 F6000.000
G1 X75.450 Y84.550 E4.41435 F600.000
G1 X75.450 Y75.450 E5.13600
G1 X84.550 Y75.450 E5.85765
G1 X84.550 Y84.505 E6.57573
G1 X84.850 Y84.850 F6000.000
G1 X75.150 Y84.850 E7.34496 F600.000
G1 X75.150 Y75.150 E8.11419
G1 X84.850 Y75.150 E8.88342
G1 X84.850 Y84.805 E9.64909
G1 X84.590 Y84.700 F6000.000
G1 X84.040 Y84.000 F6000.000
G1 X84.000 Y84.040 E9.65437 F818.514
G1 X83.498 Y84.040 E9.70132
G1 X84.040 Y83.498 E9.77301
G1 X84.040 Y82.995 E9.81996
G1 X82.995 Y84.040 E9.95805
G1 X82.493 Y84.040 E10.00500
G1 X84.040 Y82.493 E10.20949
G1 X84.040 Y81.990 E10.25644
G1 X81.990 Y84.041 E10.52732
G1 X81.488 Y84.041 E10.57428
G1 X84.040 Y81.488 E10.91156
G1 X84.040 Y80.985 E10.95852
G1 X80.985 Y84.041 E11.36220
G1 X80.483 Y84.041 E11.40916
G1 X84.040 Y80.483 E11.87924
G1 X84.041 Y79.980 E11.92620
G1 X79.980 Y84.041 E12.46268
G1 X79.477 Y84.041 E12.50964
G1 X84.041 Y79.477 E13.11253
G1 X84.041 Y78.975 E13.15948
G1 X78.975 Y84.041 E13.82877
G1 X78.472 Y84.041 E13.87572
G1 X84.041 Y78.472 E14.61141
G1 X84.041 Y77.970 E14.65836
G1 X77.970 Y84.041 E15.46045
G1 X77.467 Y84.041 E15.50740
G1 X84.041 Y77.467 E16.37590
G1 X84.041 Y76.965 E16.42285
G1 X76.965 Y84.041 E17.35774
G1 X76.462 Y84.041 E17.40469
G1 X84.041 Y76.462 E18.40598
G1 X84.020 Y75.980 E18.45111
G1 X75.980 Y84.020 E19.51351
G1 X75.960 Y83.538 E19.55863
G1 X83.538 Y75.960 E20.55993
G1 X83.035 Y75.960 E20.60688
G1 X75.960 Y83.035 E21.54177
G1 X75.960 Y82.533 E21.58872
G1 X82.533 Y75.960 E22.45721
G1 X82.030 Y75.960 E22.50416
G1 X75.960 Y82.030 E23.30625
G1 X75.960 Y81.528 E23.35321
G1 X81.528 Y75.960 E24.08890
G1 X81.025 Y75.960 E24.13585
G1 X75.960 Y81.025 E24.80514
G1 X75.960 Y80.523 E24.85209
G1 X80.523 Y75.960 E25.45498
G1 X80.020 Y75.960 E25.50193
G1 X75.960 Y80.020 E26.03842
G1 X75.960 Y79.517 E26.08537
G1 X79.517 Y75.960 E26.55546
G1 X79.015 Y75.960 E26.60241
G1 X75.960 Y79.015 E27.00610
G1 X75.960 Y78.512 E27.05305
G1 X78.512 Y75.960 E27.39034
G1 X78.010 Y75.960 E27.43729
G1 X75.960 Y78.010 E27.70818
G1 X75.960 Y77.507 E27.75513
G1 X77.507 Y75.960 E27.95961
G1 X77.005 Y75.960 E28.00657
G1 X75.960 Y77.005 E28.14465
G1 X75.960 Y76.502 E28.19160
G1 X76.502 Y75.960 E28.26329
G1 X76.000 Y75.960 E28.31024
G1 X75.960 Y76.000 E28.31553
G1 F1800.000 E27.31553
G92 E0
G1 Z0.700 F6000.000
G1 X84.150 Y84.150 F6000.000
G1 E1.00000 F1800.000
G1 X75.850 Y84.150 E1.65821 F600.000
G1 X75.850 Y75.850 E2.31642
G1 X84.150 Y75.850 E2.97462
G1 X84.150 Y84.105 E3.62926
G1 X84.150 Y84.450 F6000.000
G1 X84.850 Y84.850 F6000.000
G1 X75.150 Y84.850 E4.39849 F600.000
G1 X75.150 Y75.150 E5.16772
G1 X84.850 Y75.150 E5.93695
G1 X84.850 Y84.805 E6.70262
G1 X84.590 Y84.700 F6000.000
G1 X75.534 Y84.466 F6000.000
G1 X75.500 Y84.300 E6.72130 F600.000
G1 X75.500 Y75.700 E7.67112
G1 X75.534 Y75.534 E7.68981
G1 X75.700 Y75.500 E7.70850
G1 X84.300 Y75.500 E8.65831
G1 X84.466 Y75.534 E8.67700
G1 X84.500 Y75.700 E8.69569
G1 X84.500 Y84.300 E9.64551
G1 X84.466 Y84.466 E9.66419
G1 X84.300 Y84.500 E9.68288
G1 X75.700 Y84.500 E10.63270
G1 X75.578 Y84.475 E10.64642
G1 F1800.000 E9.64642
G92 E0
G1 Z0.900 F6000.000
G1 X75.850 Y84.150 F6000.000
G1 E1.00000 F1800.000
G1 X75.850 Y75.850 E1.65821 F600.000
G1 X84.150 Y75.850 E2.31642
G1 X84.150 Y84.150 E2.97462
G1 X75.895 Y84.150 E3.62926
G1 X75.550 Y84.150 F6000.000
G1 X75.150 Y84.850 F6000.000
G1 X75.150 Y75.150 E4.39849 F600.000
G1 X84.850 Y75.150 E5.16772
G1 X84.850 Y84.850 E5.93695
G1 X75.195 Y84.850 E6.70262
G1 X75.300 Y84.590 F6000.000
G1 X75.534 Y84.466 F6000.000
G1 X75.500 Y84.300 E6.72130 F600.000
G1 X75.500 Y75.700 E7.67112
G1 X75.534 Y75.534 E7.68981
G1 X75.700 Y75.500 E7.70850
G1 X84.300 Y75.500 E8.65831
G1 X84.466 Y75.534 E8.67700
G1 X84.500 Y75.700 E8.69569
G1 X84.500 Y84.300 E9.64551
G1 X84.466 Y84.466 E9.66419
G1 X84.300 Y84.500 E9.68288
G1 X75.700 Y84.500 E10.63270
G1 X75.578 Y84.475 E10.64642
G1 F1800.000 E9.64642
G92 E0
G1 Z1.100 F6000.000
G1 X75.850 Y84.150 F6000.000
G1 E1.00000 F1800.000
G1 X75.850 Y75.850 E1.65821 F600.000
G1 X84.150 Y75.850 E2.31642
G1 X84.150 Y84.150 E2.97462
G1 X75.895 Y84.150 E3.62926
G1 X75.550 Y84.150 F6000.000
G1 X75.150 Y84.850 F6000.000
G1 X75.150 Y75.150 E4.39849 F600.000
G1 X84.850 Y75.150 E5.16772
G1 X84.850 Y84.850 E5.93695
G1 X75.195 Y84.850 E6.70262
G1 X75.300 Y84.590 F6000.000
G1 X75.534 Y84.466 F6000.000
G1 X75.500 Y84.300 E6.72130 F600.000
G1 X75.500 Y75.700 E7.67112
G1 X75.534 Y75.534 E7.68981
G1 X75.700 Y75.500 E7.70850
G1 X84.300 Y75.500 E8.65831
G1 X84.466 Y75.534 E8.67700
G1 X84.500 Y75.700 E8.69569
G1 X84.500 Y84.300 E9.64551
G1 X84.466 Y84.466 E9.66419
G1 X84.300 Y84.500 E9.68288
G1 X75.700 Y84.500 E10.63270
G1 X75.578 Y84.475 E10.64642
G1 F1800.000 E9.64642
G92 E0
G1 Z1.300 F6000.000
G1 X75.850 Y84.150 F6000.000
G1 E1.00000 F1800.000
G1 X75.850 Y75.850 E1.65821 F600.000
G1 X84.150 Y75.850 E2.31642
G1 X84.150 Y84.150 E2.97462
G1 X75.895 Y84.150 E3.62926
G1 X75.550 Y84.150 F6000.000
G1 X75.150 Y84.850 F6000.000
G1 X75.150 Y75.150 E4.39849 F600.000
G1 X84.850 Y75.150 E5.16772
G1 X84.850 Y84.850 E5.93695
G1 X75.195 Y84.850 E6.70262
G1 X75.300 Y84.590 F6000.000
G1 X75.534 Y84.466 F6000.000
G1 X75.500 Y84.300 E6.72130 F600.000
G1 X75.500 Y75.700 E7.67112
G1 X75.534 Y75.534 E7.68981
G1 X75.700 Y75.500 E7.70850
G1 X84.300 Y75.500 E8.65831
G1 X84.466 Y75.534 E8.67700
G1 X84.500 Y75.700 E8.69569
G1 X84.500 Y84.300 E9.64551
G1 X84.466 Y84.466 E9.66419
G1 X84.300 Y84.500 E9.68288
G1 X75.700 Y84.500 E10.63270
G1 X75.578 Y84.475 E10.64642
G1 F1800.000 E9.64642
G92 E0
G1 Z1.500 F6000.000
G1 X75.850 Y84.150 F6000.000
G1 E1.00000 F1800.000
G1 X75.850 Y75.850 E1.65821 F600.000
G1 X84.150 Y75.850 E2.31642
G1 X84.150 Y84.150 E2.97462
G1 X75.895 Y84.150 E3.62926
G1 X75.550 Y84.150 F6000.000
G1 X75.150 Y84.850 F6000.000
G1 X75.150 Y75.150 E4.39849 F600.000
G1 X84.850 Y75.150 E5.16772
G1 X84.850 Y84.850 E5.93695
G1 X75.195 Y84.850 E6.70262
G1 X75.300 Y84.590 F6000.000
G1 X75.534 Y84.466 F6000.000
G1 X75.500 Y84.300 E6.72130 F600.000
G1 X75.500 Y75.700 E7.67112
G1 X75.534 Y75.534 E7.68981
G1 X75.700 Y75.500 E7.70850
G1 X84.300 Y75.500 E8.65831
G1 X84.466 Y75.534 E8.67700
G1 X84.500 Y75.700 E8.69569
G1 X84.500 Y84.300 E9.64551
G1 X84.466 Y84.466 E9.66419
G1 X84.300 Y84.500 E9.68288
G1 X75.700 Y84.500 E10.63270
G1 X75.578 Y84.475 E10.64642
G1 F1800.000 E9.64642
G92 E0
M107
M104 S0 ; turn off temperature
G28 X0  ; home X axis
M84     ; disable motors

; filament used = 189.1mm (0.4cm3)

; avoid_crossing_perimeters = 0
; bed_size = 200,200
; bed_temperature = 50
; bridge_acceleration = 0
; bridge_fan_speed = 100
; bridge_flow_ratio = 1
; brim_width = 0
; complete_objects = 0
; cooling = 1
; default_acceleration = 0
; disable_fan_first_layers = 1
; duplicate_distance = 6
; end_gcode = M104 S0 ; turn off temperature\nG28 X0  ; home X axis\nM84     ; disable motors\n
; external_perimeters_first = 0
; extruder_clearance_height = 20
; extruder_clearance_radius = 20
; extruder_offset = 0x0
; extrusion_axis = E
; extrusion_multiplier = 3
; fan_always_on = 0
; fan_below_layer_time = 60
; filament_diameter = 1.7
; first_layer_acceleration = 0
; first_layer_bed_temperature = 65
; first_layer_extrusion_width = 200%
; first_layer_speed = 30%
; first_layer_temperature = 205
; g0 = 0
; gcode_arcs = 0
; gcode_comments = 0
; gcode_flavor = reprap
; infill_acceleration = 0
; infill_first = 0
; layer_gcode = 
; max_fan_speed = 100
; min_fan_speed = 35
; min_print_speed = 10
; min_skirt_length = 0
; notes = 
; nozzle_diameter = 0.3
; only_retract_when_crossing_perimeters = 1
; ooze_prevention = 0
; output_filename_format = [input_filename_base].gcode
; perimeter_acceleration = 0
; post_process = 
; print_center = 80,80
; resolution = 0
; retract_before_travel = 2
; retract_layer_change = 1
; retract_length = 1
; retract_length_toolchange = 10
; retract_lift = 0
; retract_restart_extra = 0
; retract_restart_extra_toolchange = 0
; retract_speed = 30
; skirt_distance = 6
; skirt_height = 1
; skirts = 4
; slowdown_below_layer_time = 30
; spiral_vase = 0
; standby_temperature_delta = -5
; start_gcode = G28 ; home all axes\nG1 Z5 F5000 ; lift nozzle\n
; temperature = 205
; threads = 2
; toolchange_gcode = 
; travel_speed = 100
; use_firmware_retraction = 0
; use_relative_e_distances = 0
; vibration_limit = 0
; wipe = 0
; z_offset = 0
; dont_support_bridges = 1
; extrusion_width = 0
; first_layer_height = 0.3
; infill_only_where_needed = 0
; interface_shells = 0
; layer_height = 0.2
; raft_layers = 0
; seam_position = aligned
; support_material = 0
; support_material_angle = 0
; support_material_enforce_layers = 0
; support_material_extruder = 1
; support_material_extrusion_width = 0
; support_material_interface_extruder = 1
; support_material_interface_layers = 3
; support_material_interface_spacing = 0
; support_material_interface_speed = 100%
; support_material_pattern = pillars
; support_material_spacing = 0.5
; support_material_speed = 60
; support_material_threshold = 0
; bottom_solid_layers = 3
; bridge_speed = 60
; external_perimeter_speed = 70%
; extra_perimeters = 1
; fill_angle = 45
; fill_density = 100%
; fill_pattern = rectilinear
; gap_fill_speed = 20
; infill_every_layers = 6
; infill_extruder = 1
; infill_extrusion_width = 0
; infill_speed = 30
; overhangs = 1
; perimeter_extruder = 1
; perimeter_extrusion_width = 0
; perimeter_speed = 30
; perimeters = 3
; small_perimeter_speed = 30
; solid_fill_pattern = rectilinear
; solid_infill_below_area = 90
; solid_infill_every_layers = 5
; solid_infill_extrusion_width = 0
; solid_infill_speed = 60
; thin_walls = 1
; top_infill_extrusion_width = 0
; top_solid_infill_speed = 50
; top_solid_layers = 3
