; generated by Slic3r 1.1.7 on 2015-04-22 at 11:30:16

; perimeters extrusion width = 0.30mm
; infill extrusion width = 0.37mm
; solid infill extrusion width = 0.37mm
; top infill extrusion width = 0.37mm

G21 ; set units to millimeters
M107
M190 S65 ; wait for bed temperature to be reached
M104 S205 ; set temperature
G28 ; home all axes
G1 Z5 F5000 ; lift nozzle

M109 S205 ; wait for temperature to be reached
G90 ; use absolute coordinates
G92 E0
M82 ; use absolute distances for extrusion
G1 F1800.000 E-1.00000
G92 E0
G1 Z0.300 F6000.000
G1 X48.620 Y44.885 F6000.000
G1 E1.00000 F1800.000
G1 X49.165 Y44.294 E1.17068 F1080.000
G1 X51.262 Y42.548 E1.75033
G1 X53.570 Y41.090 E2.32998
G1 X56.047 Y39.945 E2.90963
G1 X58.653 Y39.135 E3.48919
G1 X61.343 Y38.670 E4.06893
G1 X63.422 Y38.545 E4.51124
G1 X89.793 Y38.171 E10.11245
G1 X92.793 Y38.171 E10.74959
G1 X94.768 Y38.414 E11.17217
G1 X110.768 Y42.414 E14.67481 F1080.000
G1 X113.109 Y43.409 E15.21519
G1 X115.030 Y45.079 E15.75556
G1 X116.341 Y47.259 E16.29594
G1 X116.935 Y50.234 E16.94023
G1 X117.338 Y91.687 E25.74427
G1 X117.338 Y108.687 E29.35471
G1 X116.941 Y111.200 E29.89509
G1 X115.787 Y113.467 E30.43546
G1 X113.990 Y115.268 E30.97584
G1 X111.625 Y116.458 E31.53812
G1 X95.625 Y121.458 E35.09824
G1 X93.196 Y121.829 E35.62001
G1 X90.046 Y121.828 E36.28894
G1 X50.673 Y121.104 E44.65237
G1 X48.168 Y120.660 E45.19275
G1 X45.922 Y119.465 E45.73312
G1 X44.154 Y117.635 E46.27350
G1 X43.038 Y115.348 E46.81388
G1 X42.680 Y112.966 E47.32543
G1 X42.662 Y68.755 E56.71500
G1 X42.679 Y58.888 E58.81057
G1 X42.787 Y57.241 E59.16103
G1 X42.927 Y56.169 E59.39052
G1 X43.249 Y54.550 E59.74124
G1 X43.528 Y53.507 E59.97045
G1 X44.471 Y50.946 E60.55011
G1 X45.740 Y48.530 E61.12975
G1 X47.314 Y46.300 E61.70941
G1 X48.589 Y44.918 E62.10882
G1 X49.012 Y45.246 F6000.000
G1 X49.518 Y44.697 E62.26742 F1080.000
G1 X51.560 Y42.993 E62.83220
G1 X53.806 Y41.570 E63.39698
G1 X56.220 Y40.453 E63.96176
G1 X58.758 Y39.660 E64.52646
G1 X61.378 Y39.205 E65.09133
G1 X63.430 Y39.080 E65.52781
G1 X89.793 Y38.707 E71.12741
G1 X92.793 Y38.707 E71.76454
G1 X94.638 Y38.934 E72.15932
G1 X110.638 Y42.934 E75.66197 F1080.000
G1 X112.895 Y43.908 E76.18415
G1 X114.724 Y45.551 E76.70634
G1 X115.934 Y47.692 E77.22853
G1 X116.399 Y50.239 E77.77854
G1 X116.803 Y91.687 E86.58147
G1 X116.803 Y108.687 E90.19191
G1 X116.405 Y111.113 E90.71410
G1 X115.255 Y113.286 E91.23629
G1 X113.471 Y114.978 E91.75847
G1 X111.465 Y115.947 E92.23166
G1 X95.465 Y120.947 E95.79178
G1 X93.196 Y121.293 E96.27923
G1 X90.056 Y121.292 E96.94606
G1 X50.683 Y120.568 E105.30949
G1 X48.264 Y120.126 E105.83168
G1 X46.113 Y118.936 E106.35387
G1 X44.453 Y117.122 E106.87606
G1 X43.460 Y114.873 E107.39825
G1 X43.216 Y112.966 E107.80650
G1 X43.197 Y68.755 E117.19602
G1 X43.214 Y58.923 E119.28415
G1 X43.321 Y57.276 E119.63458
G1 X43.452 Y56.274 E119.84922
G1 X43.774 Y54.654 E120.19990
G1 X44.035 Y53.679 E120.41427
G1 X44.951 Y51.183 E120.97906
G1 X46.185 Y48.827 E121.54383
G1 X47.716 Y46.653 E122.10862
G1 X48.982 Y45.279 E122.50525
G1 X49.405 Y45.607 F6000.000
G1 X49.871 Y45.100 E122.65164 F1080.000
G1 X51.857 Y43.438 E123.20155
G1 X54.043 Y42.051 E123.75146
G1 X56.392 Y40.960 E124.30138
G1 X58.862 Y40.185 E124.85121
G1 X61.413 Y39.739 E125.40121
G1 X63.437 Y39.616 E125.83187
G1 X89.793 Y39.242 E131.42984
G1 X92.793 Y39.242 E132.06698
G1 X94.508 Y39.453 E132.43397
G1 X110.508 Y43.453 E135.93661 F1080.000
G1 X112.678 Y44.405 E136.43995
G1 X114.412 Y46.021 E136.94329
G1 X115.515 Y48.119 E137.44663
G1 X115.864 Y50.245 E137.90412
G1 X116.267 Y91.687 E146.70594
G1 X116.267 Y108.687 E150.31638
G1 X115.870 Y111.023 E150.81972
G1 X114.723 Y113.097 E151.32306
G1 X112.955 Y114.676 E151.82641
G1 X111.305 Y115.436 E152.21228
G1 X95.305 Y120.436 E155.77240
G1 X93.196 Y120.758 E156.22553
G1 X90.066 Y120.757 E156.89027
G1 X50.693 Y120.033 E165.25370
G1 X48.364 Y119.593 E165.75704
G1 X46.311 Y118.408 E166.26038
G1 X44.766 Y116.611 E166.76373
G1 X43.900 Y114.405 E167.26707
G1 X43.752 Y112.966 E167.57437
G1 X43.733 Y68.755 E176.96384
G1 X43.748 Y58.958 E179.04453
G1 X43.856 Y57.311 E179.39495
G1 X43.978 Y56.378 E179.59472
G1 X44.300 Y54.759 E179.94537
G1 X44.542 Y53.851 E180.14489
G1 X45.431 Y51.420 E180.69482
G1 X46.631 Y49.125 E181.24472
G1 X48.119 Y47.006 E181.79464
G1 X49.374 Y45.640 E182.18861
G1 X49.798 Y45.968 F6000.000
G1 X50.224 Y45.502 E182.32266 F1080.000
G1 X52.155 Y43.884 E182.85771
G1 X54.280 Y42.531 E183.39276
G1 X56.564 Y41.467 E183.92780
G1 X58.967 Y40.710 E184.46278
G1 X61.448 Y40.274 E184.99790
G1 X63.445 Y40.152 E185.42274
G1 X89.793 Y39.778 E191.01910
G1 X92.793 Y39.778 E191.65623
G1 X94.378 Y39.973 E191.99542
G1 X110.378 Y43.973 E195.49806 F1080.000
G1 X112.458 Y44.902 E195.98182
G1 X114.092 Y46.488 E196.46558
G1 X115.083 Y48.539 E196.94935
G1 X115.328 Y50.250 E197.31629
G1 X115.732 Y91.687 E206.11700
G1 X115.732 Y108.687 E209.72744
G1 X115.335 Y110.930 E210.21120
G1 X114.192 Y112.900 E210.69496
G1 X112.442 Y114.359 E211.17872
G1 X111.145 Y114.925 E211.47930
G1 X95.145 Y119.925 E215.03941
G1 X93.196 Y120.222 E215.45822
G1 X90.076 Y120.221 E216.12087
G1 X50.703 Y119.497 E224.48430
G1 X48.467 Y119.059 E224.96807
G1 X46.518 Y117.880 E225.45183
G1 X45.092 Y116.104 E225.93559
G1 X44.287 Y112.965 E226.62381
G1 X44.268 Y68.755 E236.01323
G1 X44.282 Y58.993 E238.08649
G1 X44.390 Y57.346 E238.43689
G1 X44.503 Y56.483 E238.62180
G1 X44.825 Y54.864 E238.97241
G1 X45.049 Y54.024 E239.15709
G1 X45.912 Y51.657 E239.69214
G1 X47.076 Y49.422 E240.22719
G1 X48.522 Y47.359 E240.76224
G1 X49.767 Y46.001 E241.15368
G1 F1800.000 E240.15368
G92 E0
G1 X59.175 Y67.383 F6000.000
G1 E1.00000 F1800.000
G1 X52.175 Y67.383 E2.48665 F540.000
G1 X52.175 Y59.465 E4.16837
G1 X52.275 Y57.937 E4.49349
G1 X52.565 Y56.480 E4.80905
G1 X53.043 Y55.073 E5.12463
G1 X53.700 Y53.740 E5.44020
G1 X54.526 Y52.505 E5.75576
G1 X55.505 Y51.388 E6.07133
G1 X56.622 Y50.408 E6.38690
G1 X57.858 Y49.583 E6.70247
G1 X59.191 Y48.925 E7.01803
G1 X60.598 Y48.448 E7.33360
G1 X62.055 Y48.158 E7.64917
G1 X63.582 Y48.058 E7.97429
G1 X82.933 Y48.058 E12.08390
G1 X82.933 Y59.315 E14.47476
G1 X69.736 Y59.315 E17.27746
G1 X62.933 Y66.119 E19.32081
G1 X62.933 Y77.315 E21.69877
G1 X59.175 Y77.315 E22.49678
G1 X59.175 Y67.428 E24.59654
G1 X58.640 Y67.919 F6000.000
G1 X51.640 Y67.919 E26.08320 F540.000
G1 X51.640 Y59.447 E27.88240
G1 X51.743 Y57.867 E28.21869
G1 X52.047 Y56.341 E28.54917
G1 X52.547 Y54.868 E28.87965
G1 X53.235 Y53.472 E29.21013
G1 X54.100 Y52.178 E29.54061
G1 X55.126 Y51.008 E29.87109
G1 X56.296 Y49.982 E30.20157
G1 X57.590 Y49.118 E30.53205
G1 X58.985 Y48.430 E30.86253
G1 X60.459 Y47.929 E31.19301
G1 X61.985 Y47.626 E31.52348
G1 X63.565 Y47.522 E31.85979
G1 X83.468 Y47.522 E36.08687
G1 X83.468 Y59.851 E38.70524
G1 X69.958 Y59.851 E41.57459
G1 X63.468 Y66.340 E43.52370
G1 X63.468 Y77.851 E45.96829
G1 X58.640 Y77.851 E46.99381
G1 X58.640 Y67.964 E49.09357
G1 X58.104 Y68.455 F6000.000
G1 X51.104 Y68.455 E50.58022 F378.000
G1 X51.104 Y59.430 E52.49690
G1 X51.211 Y57.797 E52.84438
G1 X51.528 Y56.202 E53.18977
G1 X52.051 Y54.662 E53.53516
G1 X52.770 Y53.204 E53.88056
G1 X53.674 Y51.851 E54.22595
G1 X54.746 Y50.629 E54.57134
G1 X55.969 Y49.556 E54.91673
G1 X57.321 Y48.653 E55.26212
G1 X58.780 Y47.934 E55.60751
G1 X60.320 Y47.411 E55.95290
G1 X61.915 Y47.094 E56.29829
G1 X63.547 Y46.987 E56.64577
G1 X84.004 Y46.987 E60.99033
G1 X84.004 Y60.387 E63.83621
G1 X70.180 Y60.387 E66.77219
G1 X64.004 Y66.562 E68.62707
G1 X64.004 Y78.387 E71.13829
G1 X58.104 Y78.387 E72.39132
G1 X58.104 Y68.500 E74.49109
G1 X58.104 Y68.155 F6000.000
G1 X58.869 Y67.015 F6000.000
G1 X52.544 Y60.690 E76.39084 F1080.000
G1 X52.544 Y61.458 E76.55397
G1 X58.101 Y67.015 E78.22303
G1 X57.333 Y67.015 E78.38616
G1 X52.544 Y62.226 E79.82453
G1 X52.544 Y62.994 E79.98766
G1 X56.565 Y67.015 E81.19533
G1 X55.796 Y67.015 E81.35846
G1 X52.544 Y63.762 E82.33544
G1 X52.544 Y64.530 E82.49857
G1 X55.028 Y67.015 E83.24486
G1 X54.260 Y67.015 E83.40798
G1 X52.544 Y65.299 E83.92358
G1 X52.544 Y66.067 E84.08670
G1 X53.492 Y67.015 E84.37160
G1 X52.724 Y67.015 E84.53473
G1 X52.544 Y66.835 E84.58893
G1 F1800.000 E83.58893
G92 E0
G1 X59.544 Y76.907 F6000.000
G1 E1.00000 F1800.000
G1 X59.584 Y76.947 E1.01201 F1080.000
G1 X60.352 Y76.947 E1.17514
G1 X59.544 Y76.139 E1.41785
G1 X59.544 Y75.371 E1.58097
G1 X61.120 Y76.947 E2.05437
G1 X61.888 Y76.947 E2.21750
G1 X59.544 Y74.603 E2.92160
G1 X59.544 Y73.835 E3.08472
G1 X62.565 Y76.856 E3.99205
G1 X62.565 Y76.088 E4.15517
G1 X59.544 Y73.067 E5.06250
G1 X59.544 Y72.299 E5.22563
G1 X62.565 Y75.319 E6.13296
G1 X62.565 Y74.551 E6.29608
G1 X59.544 Y71.530 E7.20341
G1 X59.544 Y70.762 E7.36654
G1 X62.565 Y73.783 E8.27386
G1 X62.565 Y73.015 E8.43699
G1 X59.544 Y69.994 E9.34432
G1 X59.544 Y69.226 E9.50744
G1 X62.565 Y72.247 E10.41477
G1 X62.565 Y71.479 E10.57790
G1 X59.544 Y68.458 E11.48522
G1 X59.544 Y67.690 E11.64835
G1 X62.565 Y70.711 E12.55568
G1 X62.565 Y69.943 E12.71880
G1 X52.544 Y59.922 E15.72857
G1 X52.564 Y59.174 E15.88753
G1 X62.565 Y69.175 E18.89133
G1 X62.565 Y68.407 E19.05446
G1 X52.611 Y58.453 E22.04407
G1 X52.686 Y57.760 E22.19204
G1 X62.565 Y67.639 E25.15899
G1 X62.565 Y66.870 E25.32211
G1 X52.814 Y57.120 E28.25079
G1 X52.951 Y56.489 E28.38784
G1 X62.565 Y66.102 E31.27520
G1 X62.880 Y65.650 E31.39235
G1 X53.146 Y55.916 E34.31610
G1 X53.341 Y55.342 E34.44471
G1 X63.264 Y65.266 E37.42536
G1 X63.649 Y64.882 E37.54070
G1 X53.581 Y54.815 E40.56446
G1 X53.835 Y54.300 E40.68627
G1 X64.033 Y64.498 E43.74917
G1 X64.417 Y64.114 E43.86452
G1 X54.103 Y53.800 E46.96219
G1 X54.411 Y53.340 E47.07980
G1 X64.801 Y63.730 E50.20042
G1 X65.185 Y63.346 E50.31577
G1 X54.718 Y52.880 E53.45933
G1 X55.061 Y52.454 E53.57536
G1 X65.569 Y62.962 E56.73149
G1 X65.953 Y62.578 E56.84684
G1 X55.419 Y52.044 E60.01053
G1 X55.793 Y51.650 E60.12592
G1 X66.337 Y62.194 E63.29266
G1 X66.721 Y61.810 E63.40801
G1 X56.189 Y51.278 E66.57120
G1 X56.598 Y50.919 E66.68679
G1 X67.105 Y61.426 E69.84242
G1 X67.489 Y61.042 E69.95777
G1 X57.028 Y50.580 E73.09981
G1 X57.488 Y50.273 E73.21741
G1 X67.873 Y60.658 E76.33651
G1 X68.257 Y60.274 E76.45185
G1 X57.949 Y49.965 E79.54800
G1 X58.452 Y49.700 E79.66879
G1 X68.641 Y59.890 E82.72910
G1 X69.025 Y59.505 E82.84444
G1 X58.966 Y49.447 E85.86559
G1 X59.498 Y49.210 E85.98915
G1 X69.409 Y59.121 E88.96601
G1 X70.003 Y58.947 E89.09742
G1 X60.071 Y49.015 E92.08037
G1 X60.645 Y48.821 E92.20898
G1 X70.771 Y58.947 E95.25039
G1 X71.539 Y58.947 E95.41352
G1 X61.280 Y48.688 E98.49491
G1 X61.920 Y48.560 E98.63363
G1 X72.307 Y58.947 E101.75330
G1 X73.075 Y58.947 E101.91642
G1 X62.618 Y48.490 E105.05715
G1 X63.339 Y48.443 E105.21057
G1 X73.843 Y58.947 E108.36549
G1 X74.611 Y58.947 E108.52861
G1 X64.090 Y48.426 E111.68856
G1 X64.859 Y48.426 E111.85168
G1 X75.379 Y58.947 E115.01163
G1 X76.148 Y58.947 E115.17475
G1 X65.627 Y48.426 E118.33470
G1 X66.395 Y48.426 E118.49783
G1 X76.916 Y58.947 E121.65777
G1 X77.684 Y58.947 E121.82090
G1 X67.163 Y48.426 E124.98084
G1 X67.931 Y48.426 E125.14397
G1 X78.452 Y58.947 E128.30392
G1 X79.220 Y58.947 E128.46704
G1 X68.699 Y48.426 E131.62699
G1 X69.467 Y48.426 E131.79011
G1 X79.988 Y58.947 E134.95006
G1 X80.756 Y58.947 E135.11318
G1 X70.235 Y48.426 E138.27313
G1 X71.003 Y48.426 E138.43626
G1 X81.524 Y58.947 E141.59620
G1 X82.292 Y58.947 E141.75933
G1 X71.771 Y48.426 E144.91927
G1 X72.539 Y48.426 E145.08240
G1 X82.565 Y58.451 E148.09344
G1 X82.565 Y57.683 E148.25656
G1 X73.308 Y48.426 E151.03691
G1 X74.076 Y48.426 E151.20003
G1 X82.565 Y56.915 E153.74968
G1 X82.565 Y56.147 E153.91280
G1 X74.844 Y48.426 E156.23176
G1 X75.612 Y48.426 E156.39489
G1 X82.565 Y55.379 E158.48315
G1 X82.565 Y54.611 E158.64627
G1 X76.380 Y48.426 E160.50384
G1 X77.148 Y48.426 E160.66696
G1 X82.565 Y53.843 E162.29384
G1 X82.565 Y53.075 E162.45696
G1 X77.916 Y48.426 E163.85314
G1 X78.684 Y48.426 E164.01627
G1 X82.565 Y52.307 E165.18175
G1 X82.565 Y51.538 E165.34488
G1 X79.452 Y48.426 E166.27967
G1 X80.220 Y48.426 E166.44279
G1 X82.565 Y50.770 E167.14689
G1 X82.565 Y50.002 E167.31001
G1 X80.988 Y48.426 E167.78342
G1 X81.756 Y48.426 E167.94654
G1 X82.565 Y49.234 E168.18925
G1 X82.565 Y48.466 E168.35238
G1 X82.525 Y48.426 E168.36439
G1 F1800.000 E167.36439
G92 E0
G1 X52.197 Y93.130 F6000.000
G1 E1.00000 F1800.000
G1 X52.524 Y93.918 E1.18117 F540.000
G1 X53.669 Y95.411 E1.58082
G1 X51.852 Y95.411 E1.96670
G1 X51.852 Y93.198 E2.43657
G1 X52.153 Y93.138 E2.50170
G1 X52.197 Y88.363 F6000.000
G1 X51.852 Y88.294 E2.57639 F540.000
G1 X51.852 Y86.082 E3.04626
G1 X53.669 Y86.082 E3.43214
G1 X52.524 Y87.575 E3.83179
G1 X52.215 Y88.321 E4.00340
G1 X51.317 Y85.546 F6000.000
G1 X54.866 Y85.546 E4.75711 F378.000
G1 X54.964 Y85.837 E4.82232
G1 X53.914 Y86.643 E5.10358
G1 X52.992 Y87.845 E5.42528
G1 X52.412 Y89.244 E5.74699
G1 X52.214 Y90.746 E6.06870
G1 X52.412 Y92.248 E6.39041
G1 X52.992 Y93.648 E6.71212
G1 X53.914 Y94.849 E7.03382
G1 X54.964 Y95.656 E7.31508
G1 X54.866 Y95.946 E7.38029
G1 X51.317 Y95.946 E8.13400
G1 X51.317 Y85.591 E10.33318
G1 X51.577 Y85.696 F6000.000
G1 X55.205 Y85.612 F6000.000
G1 X56.556 Y85.344 E10.62574 F378.000
G1 X56.947 Y85.316 E10.70905
G1 F1800.000 E9.70905
G92 E0
G1 X52.352 Y94.337 F6000.000
G1 E1.00000 F1800.000
G1 X52.476 Y94.461 E1.03728 F1080.000
G1 X52.221 Y95.002 E1.16444
G1 X52.261 Y95.042 E1.17646
G1 X51.856 Y92.159 F6000.000
G1 X51.765 Y90.723 E1.34760 F360.000
G1 X51.856 Y89.334 E1.51315
G1 X52.221 Y87.077 F6000.000
G1 X52.273 Y87.129 E1.52876 F1080.000
G1 X52.896 Y86.484 E1.71918
G1 X52.862 Y86.450 E1.72947
G1 F1800.000 E0.72947
G92 E0
G1 X52.003 Y109.846 F6000.000
G1 E1.00000 F1800.000
G1 X52.330 Y110.634 E1.18117 F540.000
G1 X53.475 Y112.127 E1.58082
G1 X51.658 Y112.127 E1.96670
G1 X51.658 Y109.915 E2.43657
G1 X51.959 Y109.855 E2.50170
G1 X52.003 Y105.079 F6000.000
G1 X51.658 Y105.011 E2.57639 F540.000
G1 X51.658 Y102.798 E3.04626
G1 X53.475 Y102.798 E3.43214
G1 X52.330 Y104.291 E3.83179
G1 X52.021 Y105.038 E4.00340
G1 X51.123 Y102.263 F6000.000
G1 X54.672 Y102.263 E4.75711 F378.000
G1 X54.770 Y102.553 E4.82232
G1 X53.720 Y103.360 E5.10358
G1 X52.798 Y104.561 E5.42528
G1 X52.218 Y105.961 E5.74699
G1 X52.020 Y107.463 E6.06870
G1 X52.218 Y108.965 E6.39041
G1 X52.798 Y110.364 E6.71212
G1 X53.720 Y111.566 E7.03382
G1 X54.770 Y112.372 E7.31508
G1 X54.672 Y112.663 E7.38029
G1 X51.123 Y112.663 E8.13400
G1 X51.123 Y102.308 E10.33318
G1 X51.383 Y102.413 F6000.000
G1 X55.011 Y102.329 F6000.000
G1 X56.362 Y102.060 E10.62574 F378.000
G1 X56.753 Y102.033 E10.70905
G1 F1800.000 E9.70905
G92 E0
G1 X52.158 Y111.053 F6000.000
G1 E1.00000 F1800.000
G1 X52.282 Y111.177 E1.03728 F1080.000
G1 X52.027 Y111.719 E1.16444
G1 X52.067 Y111.759 E1.17646
G1 X51.662 Y108.875 F6000.000
G1 X51.571 Y107.439 E1.34760 F360.000
G1 X51.662 Y106.050 E1.51315
G1 X52.027 Y103.793 F6000.000
G1 X52.079 Y103.845 E1.52876 F1080.000
G1 X52.702 Y103.201 E1.71918
G1 X52.668 Y103.167 E1.72947
G1 F1800.000 E0.72947
G92 E0
G1 X71.250 Y109.839 F6000.000
G1 E1.00000 F1800.000
G1 X70.250 Y109.839 E1.21238 F540.000
G1 X70.250 Y105.168 E2.20445
G1 X78.921 Y105.168 E4.04604
G1 X78.921 Y109.839 E5.03811
G1 X77.621 Y109.839 E5.31424
G1 X77.621 Y110.839 E5.52662
G1 X71.250 Y110.839 E6.87970
G1 X71.250 Y109.884 E7.08252
G1 X71.785 Y109.304 F6000.000
G1 X70.785 Y109.304 E7.29490 F378.000
G1 X70.785 Y105.704 E8.05946
G1 X78.385 Y105.704 E9.67354
G1 X78.385 Y109.304 E10.43811
G1 X77.085 Y109.304 E10.71424
G1 X77.085 Y110.304 E10.92661
G1 X71.785 Y110.304 E12.05219
G1 X71.785 Y109.349 E12.25501
G1 X71.526 Y109.454 F6000.000
G1 X70.714 Y110.375 F6000.000
G1 X70.714 Y111.132 E12.41589 F540.000
G1 X68.457 Y111.132 E12.89534
G1 X68.457 Y110.375 E13.05622
G1 X70.669 Y110.375 E13.52611
G1 X78.156 Y110.375 F6000.000
G1 X80.980 Y110.375 E14.12578 F540.000
G1 X80.980 Y111.132 E14.28666
G1 X78.156 Y111.132 E14.88632
G1 X78.156 Y110.420 E15.03764
G1 X80.980 Y104.632 F6000.000
G1 X68.457 Y104.632 E17.69734 F540.000
G1 X68.457 Y103.375 E17.96442
G1 X80.980 Y103.375 E20.62412
G1 X80.980 Y104.587 E20.88163
G1 X80.250 Y105.168 F6000.000
